bmulder03/bachelors-thesis/results/shrinkage_diagnostics_F2_L30/asset_year_stats.csv
test_year,asset_id,n_obs,mse_sep,mse_joint,mse_zero,delta_mse,r2_oos_joint,r2_oos_sep,mean_pred_sep,mean_pred_joint,delta_mean_pred,std_pred_sep,std_pred_joint,delta_std_pred,mean_true,std_true
2011,0,254,0.0004408308783370477,0.0004416986141064787,0.0004408035640730019,8.677357694309947e-07,-0.002030496362612322,-6.196470780195362e-05,-0.0006499692328332916,0.0006812080973759294,0.0013311773302092209,0.0015694167561264394,0.0,-0.0015694167561264394,-0.00031635381552758005,0.020992938916130896
2011,1,254,0.0004594951864297089,0.00045925052890435404,0.0004592035559888623,-2.446575253548487e-07,-0.00010229214229529049,-0.0006350787946722836,-5.295916687785171e-05,2.5622105174015028e-05,7.858127205186674e-05,0.0008581915877547206,8.660216236224361e-06,-0.0008495313715184962,-0.0014662664290772155,0.02137881237926521
2011,3,254,0.0006679483315069544,0.0006618784860660861,0.0006547557465867332,-6.069845440868286e-06,-0.010878468064593472,-0.02014886465524679,0.0011924290882907515,0.0019345657403148182,0.0007421366520240667,0.004102609009174574,0.0005645053853334673,-0.003538103623841107,-0.0013210038938836093,0.025554073947202185
2011,4,254,7.15703467412455e-05,7.093297911958455e-05,7.081171809837175e-05,-6.37367621660951e-07,-0.001712442862131125,-0.010713320665654003,0.0007996406318165186,0.0004763246397487819,-0.0003233159920677367,0.0005167816972181145,0.0,-0.0005167816972181145,0.00011087411022314347,0.008414239420770839
2011,5,254,0.0006199921954801663,0.0006307777789802817,0.0006313090144611539,1.078558350011533e-05,0.0008414824890876638,0.017925958162734124,0.00010301812192586464,-0.0009784467983990908,-0.0010814649203249554,0.004214173151798998,0.0,-0.004214173151798998,-0.0007606921605777137,0.025114345738999243
2011,7,254,0.0005675401757536027,0.0005625772880338056,0.0005625447568637478,-4.962887719797151e-06,-5.782858992264828e-05,-0.008880038128352696,0.00257891674680034,0.0004055113240610808,-0.002173405422739259,0.0008140664087484731,0.0,-0.0008140664087484731,0.00016264436534428332,0.02371746832345665
2011,8,254,0.0010095046779770615,0.0009990993603999898,0.0010000500933942701,-1.0405317577071634e-05,0.0009506853712231145,-0.009454110994281839,0.0023263617176709213,0.0007807994594817659,-0.0015455622581891553,0.0011270753837787444,0.0010061614931159049,-0.00012091389066283954,-0.0015346182837623836,0.03158631096088007
2011,10,254,0.0006762874802140099,0.0006689354892161726,0.0006676003114572524,-7.351990997837236e-06,-0.0019999657519718106,-0.01301252951454579,0.0011480246472546434,-0.0002739452454444813,-0.0014219698926991246,0.000825264655511786,0.0008281906715235902,2.926016011804179e-06,-0.0017163044255996422,0.025780896232984598
2011,12,254,0.0005836426057543645,0.0005742426324908122,0.0005774443406583603,-9.39997326355232e-06,0.005544617796232609,-0.010733961110325207,0.0008824331847232157,-0.0017412134668951136,-0.0026236466516183295,0.0013918078105472009,8.827760493345742e-06,-0.0013829800500538552,-0.0017795261549306582,0.02396409037126755
2011,13,254,0.00031907037408572314,0.0003192465627950221,0.00031710726927468763,1.761887092989532e-07,-0.0067462771358965945,-0.006190664804139212,0.00027734803871845635,0.000699296360835433,0.00042194832211697665,0.0004973765572873877,0.0,-0.0004973765572873877,-0.001179956176294687,0.017768370006748274
2011,14,254,4.6218544344164305e-05,4.797474521775021e-05,4.635441141482136e-05,1.7562008735859074e-06,-0.03495533118582017,0.0029310494192493763,-9.311181236439802e-05,0.0010247047757729888,0.0011178165881373869,0.00017405866255036014,0.0,-0.00017405866255036014,-0.00027828206665994897,0.006802717876422396
2011,15,254,0.00011159579526594894,0.00011229755428054048,0.00011229713477459025,7.017590145915403e-07,-3.7356781281694396e-06,0.006245390944738527,-0.00021320068108753894,8.263741619884968e-07,0.00021402705524952744,0.00038926596042883647,0.0,-0.00038926596042883647,-0.00025341006236552727,0.01059400387553649
2011,16,254,0.0002683679370056514,0.00026471129837126546,0.0002635519833459339,-3.6566386343859277e-06,-0.004398809717208074,-0.018273259030633593,-0.0005327165126800537,0.0009233489399775863,0.00145606545265764,0.0006588084730533445,0.0,-0.0006588084730533445,-0.00016610283885793193,0.016233434423832106
2011,17,254,0.00020748465135640297,0.00020629766051132303,0.0002071067241942624,-1.1869908450799467e-06,0.003906506107355989,-0.0018247942630105207,0.0003712332044823433,0.0007772554527036846,0.0004060222482213413,0.0005251640929922534,0.0,-0.0005251640929922534,0.0009090896157635795,0.014362460801157065
2011,18,254,0.0009472076322875265,0.0009543144290117981,0.0009402823619021838,7.106796724271622e-06,-0.014923248247715293,-0.0073650965560312365,-4.161080514176155e-05,0.002585303934390004,0.0026269147395317654,0.0030544608599815636,0.0011519569920552595,-0.001902503867926304,-0.0018217654067847202,0.030609860056929797
2011,19,254,0.0004217862712639705,0.0004188153491988059,0.00041815201483592516,-2.9709220651645985e-06,-0.0015863474032069558,-0.008691232611832245,0.0025706962007647893,0.0011773360893130302,-0.001393360111451759,0.0005917970199293738,0.0,-0.0005917970199293738,0.0003069581875896326,0.020446461588915495
2011,20,254,0.0008401410908060088,0.000843257428440094,0.0008397808619052551,3.1163376340851345e-06,-0.004139849682870178,-0.0004289558349024336,-0.0006083867505310089,0.0005388525314629078,0.0011472392819939167,0.0007770589492058231,0.0,-0.0007770589492058231,-0.002956471667233794,0.028827766774172762
2011,21,254,0.0002571126177997805,0.00027182171614115386,0.00026827443231456835,1.4709098341373359e-05,-0.013222593729789622,0.04160595707346393,-0.00015835657598465446,0.0019589930307120085,0.002117349606696663,0.002286633529969409,0.0,-0.002286633529969409,7.411202164594376e-05,0.01637891753818963
2011,23,254,0.0005464261533295106,0.0005312328762515459,0.0005243201757949338,-1.5193277077964673e-05,-0.01318412064943253,-0.04216121857424504,0.0020345624565608856,0.001267222804017365,-0.0007673396525435206,0.00133560802067318,0.0,-0.00133560802067318,-0.002093888621940303,0.022802100917105043
2011,24,254,0.0008265199184030116,0.0008288067039569969,0.000827379425937476,2.286785553985357e-06,-0.0017250586306321036,0.0010388311668380057,0.0015848830019629847,-0.0009511155658401549,-0.00253599856780314,0.0009349120640116924,0.0,-0.0009349120640116924,0.00027476009157473323,0.028762891593675937
2011,25,254,0.0005402920674300733,0.0005426590980617097,0.000538057388864113,2.367030631636414e-06,-0.008552450524490274,-0.0041532346032417955,0.0025874889404402944,0.0021103227256217927,-0.00047716621481850175,0.0011164582543297386,8.935031972786033e-05,-0.0010271079346018783,6.170925510203477e-05,0.023195981997577678
2011,28,254,0.00036963832047800485,0.000364759861152606,0.000361267321212333,-4.878459325398832e-06,-0.00966746709487265,-0.023171205293577746,0.001844383116195521,0.0017020866507664323,-0.0001422964654290888,0.0014585309850229967,0.0,-0.0014585309850229967,-0.00017491500015196277,0.019006228609459976
2011,29,254,0.000977487733910967,0.0009622441792307524,0.0009733908751016142,-1.5243554680214482e-05,0.011451407811582492,-0.004208852696431009,0.0009315578252311766,-0.0021691759942854775,-0.0031007338195166542,0.0012201402641578163,0.00014463333794715574,-0.0010755069262106606,-0.003490600003501789,0.031003331864771687
2011,30,254,0.0002582177867720841,0.00025034309229851837,0.00025035017395263657,-7.87469447356573e-06,2.828699499746179e-05,-0.031426432405579297,0.003089176850232083,0.0001335090200882405,-0.0029556678301438425,0.0009488018770200995,0.0,-0.0009488018770200995,9.327576723489357e-05,0.015822182958867698
2011,31,254,0.0006013122742846805,0.000605234999853615,0.0006021584053722328,3.922725568934532e-06,-0.005109277648429389,0.0014051636247265353,-0.001440985568278418,0.0014444129774346948,0.0028853985457131127,0.0010781939582482829,0.0,-0.0010781939582482829,-0.00034279172489799136,0.024536521742202465
2011,32,254,0.0010933583249842962,0.0010967499772278756,0.0011009429837306672,3.3916522435794e-06,0.0038085591758649784,0.006889238460532687,0.000367714253466899,-0.0022770878858864307,-0.0026448021393533296,0.002116063168677948,0.0,-0.002116063168677948,-0.002059238864026747,0.03311649919649644
2011,34,254,0.00048213948881316624,0.0004792919430183508,0.00047525220008326523,-2.8475457948154252e-06,-0.008500208803615905,-0.014491860802946954,0.0013050744676683832,0.00128729990683496,-1.7774560833423237e-05,0.0009160764552634599,0.0,-0.0009160764552634599,-0.0009254261078936398,0.02178062870079957
2011,35,254,0.0006083672521636586,0.0006100745134643678,0.0006049467961482909,1.7072613007091406e-06,-0.008476311220631416,-0.005654143533192935,0.002369192753383142,0.0021467143669724464,-0.00022247838641069545,0.002087005855004898,0.0,-0.002087005855004898,-0.00012096037337334035,0.024595368766016992
2011,36,254,0.00046958763367644334,0.00046854495818232633,0.00046376889034097064,-1.0426754941170028e-06,-0.010298379086713272,-0.012546644366754789,0.0009948254716912591,0.000962100924894683,-3.272454679657615e-05,0.0006942249189207887,0.00025244962402504406,-0.0004417752948957446,-0.001970162135194858,0.02144498429708017
2011,38,254,0.0007181641553717105,0.000720369789344736,0.0007230376299882458,2.2056339730254677e-06,0.003689767354920659,0.006740277980572751,-0.00045550778860182275,-0.0014268470695242286,-0.0009713392809224059,0.000936802639165425,0.0,-0.000936802639165425,-0.0016482961992865654,0.026838791880926072
2011,39,254,0.0007521945037487499,0.0007489449815348715,0.0007477591501600804,-3.2495222138784587e-06,-0.0015858466921296888,-0.0059315269999973275,0.0008263772309530438,0.0004786810604855418,-0.00034769617046750197,0.0005890510041088298,0.0,-0.0005890510041088298,-0.0009993040210875403,0.02732691972457779
2011,41,254,0.0003180708413688772,0.0003119548550160232,0.0003121369226182587,-6.115986352853999e-06,0.000583294025930492,-0.0190106274542714,0.0024551770349187175,-0.0002174477413063869,-0.0026726247762251043,0.0012657297164233284,0.0,-0.0012657297164233284,-0.0005273706708957903,0.017659524421505174
2011,43,254,0.00027539451296427846,0.0002686248611036989,0.00026835761919800065,-6.769651860579569e-06,-0.0009958424377773945,-0.026222075554656943,0.002160303470656628,-0.0005687386146746576,-0.0027290420853312855,0.0009046953981910927,0.0,-0.0009046953981910927,-4.942666514396686e-05,0.016381549871815348
2011,44,254,0.0002561418607129452,0.0002537049091740948,0.0002529628547264506,-2.4369515388504006e-06,-0.00293345221948349,-0.012567086143664419,0.0018655988937757147,-0.0008247748482972383,-0.002690373742072953,0.0006540928611207862,0.0,-0.0006540928611207862,3.7465313950649686e-05,0.015904761899402996
2011,45,122,0.0019528004769657646,0.001318251707770762,0.0012796615077338529,-0.0006345487691950026,-0.030156568595431477,-0.5260289265275868,0.01991159858212608,0.0027808425623587654,-0.017130756019767313,0.004570290773884688,0.00021699766470387386,-0.004353293109180815,-0.005610845215760953,0.035329589916932594
2011,46,82,0.000255764855330527,0.0002552630352134973,0.0002527736382372342,-5.01820117029708e-07,-0.009848325140324743,-0.011833580092262208,0.000634586075093688,0.001481778982163566,0.000847192907069878,0.0007166368891356912,0.00042796833480038314,-0.000288668554335308,0.0003075985757621355,0.015895880641015877
2011,47,254,0.0002818694554993347,0.00028397594992038194,0.00027198235933930043,2.106494421047218e-06,-0.04409694294224198,-0.03635197585627248,0.0010859145687555703,0.0028226069471703505,0.0017366923784147802,0.0010678537007428757,0.00016399150484061885,-0.0009038621959022569,-0.0006047737070721356,0.016480795129560185
2011,48,254,0.0006096743278828094,0.0006025972412963537,0.0006039494284228898,-7.077086586455643e-06,0.002238907866950246,-0.009479104028410346,0.002135027375981564,-0.0011101109869448161,-0.0032451383629263798,0.0010779325239884715,0.0005936079391082482,-0.0004843245848802233,-0.00047202375070754763,0.024570849028913468
2011,49,254,0.000654106032011932,0.0006527039586929243,0.0006528811398948709,-1.4020733190076148e-06,0.0002713835507257567,-0.0018761334065466873,-0.00033723032028656305,-7.621171971550211e-05,0.00026101860057106094,0.0014513122621303935,0.0,-0.0014513122621303935,-0.0012005333881158562,0.02552331991491095
2011,50,254,0.000314545261816686,0.00031156489227040016,0.000311684562960074,-2.980369546285854e-06,0.00038394808051234186,-0.009178185885896584,0.0014204738118986445,-0.0001493473828304559,-0.0015698211947291004,0.0003549287185261412,0.0,-0.0003549287185261412,-0.0004753191108598343,0.017648190692049013
2011,51,254,0.0006835054379418619,0.0006686676472287748,0.0006706477944864564,-1.4837790713087095e-05,0.00295258893559458,-0.019171976052275275,0.0025464799915125053,-0.0017080871621146798,-0.004254567153627185,0.0005859776319464431,0.0,-0.0005859776319464431,-0.0014336824020734803,0.025857152767782478
2011,52,254,0.0002392566792393779,0.0002355795728176554,0.00023566432508912485,-3.6771064217225075e-06,0.000359631316438791,-0.01524352126226347,0.0008855567819724871,-0.00022728188196197152,-0.0011128386639344587,0.0004535188703209839,0.0,-0.0004535188703209839,-0.0003000884279908931,0.015348428975778296
2011,53,254,0.0006000467730272969,0.0006017073747250941,0.000599099991630479,1.6606016977971719e-06,-0.004352166801937285,-0.0015803395260300945,-0.0007438481470027308,0.0007116167919983442,0.0014554649390010749,0.000673714944649769,0.00023414156829312967,-0.0004395733763566393,-0.0011359616771437272,0.024450144840031926
2011,54,254,0.0004138020567177932,0.0004106038852330035,0.0004085500756099174,-3.198171484789685e-06,-0.005027069496976511,-0.01285517105837064,7.540333693421731e-05,0.0009427983895875514,0.000867395052653334,0.0016837523691579043,0.0,-0.0016837523691579043,-0.0006178101450653975,0.020203177627159834
2011,55,254,0.00046958674149732483,0.0004669810429269481,0.0004652981225185308,-2.6056985703767086e-06,-0.003616864816277543,-0.009216927323026702,-0.0014208580301267894,0.0006443189340643585,0.002065176964191148,0.0008837972716270968,0.0,-0.0008837972716270968,-0.0009838089900803986,0.021548323424098865
2011,57,254,0.0005007903750002077,0.0004921376866983573,0.0004886205625750425,-8.652688301850463e-06,-0.007198068179487649,-0.02490646803939245,0.001955193122775536,0.0007783482252257164,-0.0011768448975498194,0.0012406272082001687,8.745850052757353e-05,-0.0011531687076725952,-0.001740874604448699,0.022036104877827842
2011,59,254,0.0005552029820913816,0.0005488013584104177,0.0005483655848822983,-6.4016236809639245e-06,-0.000794677018640666,-0.01246868402682666,0.002299041157280366,0.0005341516807675362,-0.00176488947651283,0.0012397785403500657,0.0,-0.0012397785403500657,-0.00014083594180163244,0.02341678351353565
2011,60,254,0.00043678756414813733,0.00043790441200727256,0.00043535976478281695,1.1168478591352298e-06,-0.005844929711694924,-0.0032795850255769032,0.0008004713715530756,0.0009392539504915476,0.00013878257893847198,0.0005883503147150935,0.0,-0.0005883503147150935,-0.000884983896033121,0.02084650014478639
2011,61,254,0.0005830161621957953,0.000590963447322074,0.000585946356095082,7.947285126278718e-06,-0.00856237294558393,0.005000788670850853,-0.0006986534090961997,0.0011937104864045978,0.0018923638955007974,0.0013031807718131313,0.0,-0.0013031807718131313,-0.0015046137830534293,0.024159521796983642
2011,63,254,0.0001971334509409027,0.00019914657979076933,0.00019712968938747166,2.013128849866631e-06,-0.010231286872944612,-1.9081618008565115e-05,0.0010432632654670654,0.0015351606998592615,0.0004918974343921961,0.0005241782197295536,0.0,-0.0005241782197295536,0.00011068156288989529,0.014039851814713284
2011,64,254,0.000725319398193004,0.0007205338136494942,0.0007262357180445023,-4.785584543509722e-06,0.007851313634588686,0.0012617388937653518,-0.00020214789143697484,-0.0009625725215300918,-0.0007604246300931169,0.0005603427720795896,0.0,-0.0005603427720795896,-0.003443091354652608,0.02672790377055445
2011,65,254,0.000857122108022266,0.0008559436811286491,0.0008537230335422918,-1.1784268936169268e-06,-0.002601133504789299,-0.003981472147788656,0.00047945357331140775,0.0007938196818210463,0.00031436610850963856,0.001233491854777705,0.00011420000118042461,-0.0011192918535972804,-0.0010411074156823485,0.02919998508375138
2011,66,254,0.00108668237852511,0.0010407454209301426,0.0010452975445104018,-4.593695759496741e-05,0.004354859153898882,-0.03959143904245188,0.0029245489313611834,-0.0010944559852093987,-0.004019004916570582,0.004190019929567634,0.0005785301951044644,-0.00361148973446317,-0.003007915891741725,0.032190836995931144
2011,67,254,0.00038865239472057634,0.0003905878605012772,0.000386980225552775,1.935465780700848e-06,-0.00932253048162579,-0.004321071355552375,0.00183103642037769,0.0014576232427452494,-0.0003734131776324406,0.0011440605721077955,3.420676534954566e-05,-0.0011098538067582499,-0.0005896044450180425,0.019662975160213928
2011,68,254,0.006508591207060253,0.006481341912986229,0.006487641147189893,-2.7249294074023836e-05,0.0009709590991160422,-0.0032292260615300883,-0.001769024658742852,-0.0009796972153708339,0.0007893274433720182,0.004603519594270421,0.0,-0.004603519594270421,-0.0037047368939998244,0.0804606492127433
2011,69,254,0.0006271085927067278,0.0005952057662648546,0.0005754751635634072,-3.1902826441873155e-05,-0.034285758883621176,-0.08972312345088995,0.0059470476391981905,0.0030831097286949886,-0.002863937910503202,0.003066193541267567,0.00027293743579039206,-0.0027932561054771748,-0.0014317314851215036,0.023946300518408244
2011,71,254,0.0007176917626281323,0.0007113792394456837,0.0007066830867550587,-6.312523182448607e-06,-0.006645344679449883,-0.015577952945815099,0.001081333620341744,0.0010008998215198517,-8.04337988218923e-05,0.003332754607685119,0.0,-0.003332754607685119,-0.0018455154844054852,0.0265193732835427
2011,72,254,0.001771941293212268,0.0017289941731603146,0.001728369131887789,-4.29471200519534e-05,-0.00036163644732689626,-0.025209985830334514,-0.00490703194688155,0.000883931717464121,0.005790963664345671,0.004323439198675077,0.00035598543741913164,-0.0039674537612559456,-0.0012156856610195375,0.04155588093472909
2011,73,254,0.0010134615923510855,0.0010067633389558295,0.0010069691394613838,-6.698253395256027e-06,0.00020437617945712194,-0.006447519229014764,0.0011200573090023882,-3.8168895116541535e-05,-0.0011582262041189297,0.0013781097846520122,0.0,-0.0013781097846520122,-0.002715003532023185,0.0316164181286003
2011,74,254,0.00047643069686601207,0.0004686658486231594,0.0004692531890685549,-7.764848242852696e-06,0.0012516493421416142,-0.015295597269576744,4.534907345696697e-05,-0.0005942618590779603,-0.0006396109325349272,0.0013023707430038953,0.0,-0.0013023707430038953,-0.0007913073909951812,0.021647794845699904
2011,76,254,4.600123286927319e-05,4.669489785261912e-05,4.551257060011664e-05,6.936649833459303e-07,-0.025978037208459703,-0.010736863743646463,0.0007671451592069911,0.0011606436455622315,0.0003934984863552404,0.00015508790053692442,0.0,-0.00015508790053692442,7.098062360119826e-05,0.006745927093527607
2011,77,254,0.00022909841674729906,0.00023655606327006564,0.00022603016272790033,7.457646522766577e-06,-0.046568565960980246,-0.013574533515212206,0.0011738958215344638,0.0026931162698077054,0.0015192204482732416,0.0005774016709562727,0.00011539283447204018,-0.00046200883648423255,-0.0005911212266973501,0.015022674143548749
2011,78,254,0.000906328111842642,0.0009092635580187721,0.0009068622882253763,2.9354461761301387e-06,-0.0026478880250879744,0.0005890380377153726,0.0018425249736609421,-0.00022830719489871898,-0.002070832168559661,0.0006670506212552327,0.00012905429906561564,-0.000537996322189617,0.0007490653834618298,0.03010483664258412
2011,79,254,0.00037057321351605853,0.0003664994259730686,0.000366098750554306,-4.0737875429899145e-06,-0.0010944462884834305,-0.012222011014726863,0.0025449361813467317,0.0008510516490787268,-0.001693884532268005,0.0005183948183626333,0.0,-0.0005183948183626333,0.00019012564689087932,0.0191327625499482
2011,81,254,0.0014494560740404279,0.0014675824736548083,0.0014470550659956968,1.8126399614380468e-05,-0.014185643754328625,-0.001659237510135192,0.0018378059108426251,0.0032660956494510174,0.0014282897386083922,0.0012471744357046434,0.0,-0.0012471744357046434,-0.0015094516398203106,0.038010217333537315
2011,82,254,0.0010100487630849999,0.0010055471105188396,0.0010022547506796154,-4.501652566160251e-06,-0.00328495308901422,-0.007776478385459695,0.0023256967240196515,-0.002728295454289764,-0.005053992178309416,0.0013947255852926168,0.0005845731120347993,-0.0008101524732578174,-0.0006158519829936692,0.031652416606234954
2011,83,254,0.00022166752461736934,0.00022821138358165768,0.00021875098872115568,6.543858964288337e-06,-0.04324732389009345,-0.013332675263614036,0.0013334830621565422,-0.003411385230720043,-0.004744868292876585,0.00014868753250645944,0.0,-0.00014868753250645944,-0.0003191012132354954,0.01478679015665223
2011,84,254,0.0001083202906164732,0.00010719172052561671,0.00010735893325231524,-1.128570090856487e-06,0.0015575110671559589,-0.008954609877676045,0.000470509107305309,0.0003346051671542227,-0.00013590394015108626,0.0004993468909600338,0.0,-0.0004993468909600338,0.00041716831057806954,0.010353014239967252
2011,85,254,0.0005165009223084759,0.0005174260098222378,0.0005172307883657994,9.250875137618983e-07,-0.0003774358774255582,0.0014111032709973603,-0.0011586104702996456,-0.0016935734645698191,-0.0005349629942701735,0.001338702200510333,0.00013492231990680658,-0.0012037798806035264,-0.0007208839120286344,0.02273128053478681
2011,86,254,0.00011776643105328673,0.00011506558929807683,0.00011492319718277703,-2.7008417552098986e-06,-0.0012390197870437714,-0.024740295607924567,0.0014569848321202233,-0.0003898903669323772,-0.0018468751990526006,0.0008963183026055319,0.0,-0.0008963183026055319,-1.2339857230329035e-05,0.010720216644765187
2011,88,254,0.0007538055882151496,0.0007470144793612685,0.0007419679183752573,-6.791108853881119e-06,-0.006801589207606318,-0.015954422754307362,-0.00287445647070023,0.0009548634072531044,0.0038293198779533345,0.0021032452940921253,0.0006662563109467912,-0.0014369889831453342,-0.001422313496156119,0.027201929025234762
2011,89,254,0.00018123934022965993,0.00018566904077655793,0.00018269452644882657,4.429700546897992e-06,-0.01628135437634204,0.007965133096498378,0.0002940597643298427,0.0017392917070537806,0.001445231942723938,0.0004673265889335932,0.0,-0.0004673265889335932,1.455227846186962e-05,0.013516446081719046
2011,90,254,0.0008698141389846928,0.0008794103555042729,0.0008632740177518215,9.596216519580105e-06,-0.01869202295057404,-0.007575950507468399,-0.00042627895558912924,-0.0030819003673739674,-0.0026556214117848384,0.0014712911352280568,0.0012802401825989667,-0.0001910509526290901,0.0005067175373250759,0.029377155326702223
2011,93,254,0.0006435413435789055,0.0006148597314353897,0.0006137739403435328,-2.86816121435158e-05,-0.0017690407175794398,-0.048498968885371196,0.0045760995745072214,-0.0017138362163677812,-0.006289935790875003,0.0017166208379011767,0.0,-0.0017166208379011767,-0.0005401459798184895,0.024768572479333943
2011,94,254,0.0003859383524339889,0.00038645260490805547,0.00038684636089885755,5.142524740665714e-07,0.0010178614318283596,0.002347206944790292,-0.001138618289251027,-0.0010277701076120138,0.00011084818163901327,0.000918087406928397,0.0,-0.000918087406928397,-0.000705443451878736,0.019655755147921918
2011,97,254,0.0006014184410074017,0.000602885864716519,0.0005993551563960428,1.4674237091173844e-06,-0.005890844990317001,-0.003442507483818913,0.0003258246400459545,0.0010807948940026566,0.000754970253956702,0.0008432894974897621,0.00017321574617885108,-0.000670073751310911,-0.0008730010279303388,0.024466160826767967
2011,98,254,0.00012204781520713429,0.00012119734491299961,0.00012127644187607766,-8.504702941346839e-07,0.0006522038563671062,-0.006360454834623441,0.0008748719032384514,0.0001136067439801991,-0.0007612651592582523,0.0007776016162995986,0.0,-0.0007776016162995986,0.0004049207473634181,0.011005111588004563
2011,99,254,0.0008384105754346471,0.0008341287107327308,0.0008344765185611949,-4.281864701916375e-06,0.0004167976218957259,-0.00471440092794384,0.003539070712519795,0.0002716883925783382,-0.0032673823199414567,0.0017907861204135573,0.0007271064144866477,-0.0010636797059269095,0.0012919826735053174,0.028858400845032228
2011,100,254,0.0008789570645780355,0.0008745195600154045,0.0008621438598295095,-4.437504562630973e-06,-0.014354565128309682,-0.019501623257922374,0.0011389674738005507,0.0020608005829349774,0.0009218331091344267,0.002305752193043031,0.0005830500161707848,-0.0017227021768722465,-0.001606165300106738,0.029318323500129445
2011,101,254,0.0001909284349086757,0.00018910663915087464,0.00018964681760227562,-1.8217957578010651e-06,0.002848339129707056,-0.0067579162287230155,0.000422181004262346,0.0005767059628851712,0.00015452495862282518,0.001157283927919766,0.0,-0.001157283927919766,0.0007566838867610726,0.013750427160557296
2011,103,254,0.0005581076005876132,0.0005430675548991283,0.00054093856767675,-1.5040045688484915e-05,-0.003935728287080664,-0.03173933961595976,0.0036053752277310437,0.0010595402566213748,-0.0025458349711096687,0.0010990909412044933,0.0002766874783046617,-0.0008224034628998316,-0.0007905558554898853,0.023244646461413446
2011,104,254,0.00029488160960730163,0.0002885233620006959,0.0002839863482868986,-6.35824760660572e-06,-0.015976168365719357,-0.03836544040277623,0.0032967163147184795,0.002286237897351384,-0.0010104784173670953,0.0014959151166328332,0.0,-0.0014959151166328332,0.00015087450223088186,0.016851219100453094
2011,105,254,0.0004046852806071391,0.00039769664071703754,0.00039797908470354715,-6.988639890101553e-06,0.0007096955527701176,-0.016850623968310607,0.0010410717974497577,-0.0010761414209058083,-0.002117213218355566,0.0011388752021945898,0.0010596981048755308,-7.9177097319059e-05,-0.0012964930319423614,0.01990723965098306
2011,106,254,0.00028979708752760404,0.00028678872217736105,0.00028631327247985683,-3.008365350242988e-06,-0.001660592585827958,-0.012167843347158591,0.0020942878066085454,-0.0005436048377305269,-0.0026378926443390723,0.0005279507255430097,0.0,-0.0005279507255430097,0.00016550945228083596,0.01691998460699839
2011,107,254,0.0002664076838330353,0.0002635162805978686,0.0002635271950625287,-2.891403235166703e-06,4.1416843743591336e-05,-0.010930518081153417,0.00225065067762465,0.0001872786378953606,-0.0020633720397292893,0.000750830102571402,0.0,-0.000750830102571402,0.00012277896024113867,0.0162330564093596
2011,108,254,0.00023991749671848706,0.00024322957320777007,0.00023896742037933166,3.3120764892830045e-06,-0.01783570673220969,-0.003975756769049488,0.0004196436965735409,-0.0020569590851664543,-0.0024766027817399953,0.0004195244241252827,0.0,-0.0004195244241252827,7.5529335060641334e-06,0.015458569252441415
2011,109,254,0.0004987989069141057,0.0005021797221590458,0.000499925550275233,3.3808152449401165e-06,-0.004509015157500684,0.002253622285372181,0.0017720236420983404,0.0012636060127988458,-0.0005084176292994946,0.0010862213348820202,0.0,-0.0010862213348820202,-0.0002601569324502548,0.02235750139540935
2011,110,254,0.0007169787470329365,0.0007234396486913563,0.0007232739468349864,6.46090165841971e-06,-0.00022909971677398389,0.008703755789348344,0.0006705752214578193,0.0005054592798183503,-0.00016511594163946895,0.0016613526656502735,0.0002824251820024403,-0.0013789274836478332,-0.00047507747343060843,0.026889556490006024
2011,111,104,0.0002531091908446135,0.00025557697312423975,0.0002555649418351581,2.4677822796262514e-06,-4.7077228180203434e-05,0.00960910746564203,0.0003390689022265948,0.0001037616966641508,-0.000235307205562444,0.0008604908068741588,0.0,-0.0008604908068741588,-6.094731618260924e-06,0.015986397489409696
2011,112,254,0.00015590755445657237,0.0001532256597830788,0.00015419959766980486,-2.6818946734935578e-06,0.006316085783904524,-0.011076272652960073,0.00047212893392626693,-0.0008121051941998303,-0.0012842341281260972,0.0008951564317328109,0.0,-0.0008951564317328109,-0.0010056903618145508,0.012376921449454148
2011,113,254,0.00042255087414602954,0.0004160550377524575,0.0004162777398683363,-6.495836393572048e-06,0.0005349844455992958,-0.015069588586882787,-0.001300127487482987,-0.00017803489754442126,0.0011220925899385658,0.0012348658100744055,0.0,-0.0012348658100744055,-0.0007144625692258455,0.0203903723140484
2011,114,254,0.0007599560540474604,0.0007463824049720563,0.0007468289467018675,-1.3573649075404115e-05,0.000597917008684723,-0.017577127136762183,0.0013296445978321428,-0.00038183496611405486,-0.0017114795639461976,0.0014477051854605316,2.5300133851683594e-05,-0.001422405051608848,-0.0008074289155937179,0.027316240686597607
2011,115,254,0.0005302009755917718,0.0005286954878551701,0.0005275698112314537,-1.50548773660171e-06,-0.0021337017390909985,-0.004987329267716056,0.0018831215006863977,0.0003625321084017935,-0.0015205893922846042,0.0005549671297076259,0.00011369116459067138,-0.00044127596511695454,-0.00027327266389950343,0.022967262206946195
2011,116,254,9.978134654837313e-05,0.00010023272826455624,0.00010032668018959099,4.5138171618311644e-07,0.0009364600209754714,0.005435579450922989,0.0001140098989479185,-0.00010690446652006358,-0.00022091436546798208,0.0006214452343428221,0.0,-0.0006214452343428221,-0.0004928722504636995,0.010004186980175541
2011,117,254,0.0006396640286575264,0.0006371798401455396,0.0006377690092320737,-2.484188511986808e-06,0.0009237969829288817,-0.002971325664968383,-0.0003461527718803075,-0.0002445054832226267,0.00010164728865768083,0.001267949783525596,0.0006587265302034949,-0.000609223253322101,-0.0012652237522046577,0.02522237534588943
2011,118,254,5.883217979208833e-05,5.8887876701049445e-05,5.855293754946963e-05,5.5696908961114266e-08,-0.005720279213947688,-0.004769056076525224,0.000684717516084825,0.0006683865212835371,-1.6330994801287842e-05,0.0002074945108339602,0.0,-0.0002074945108339602,8.36352819017361e-05,0.00765153204849139
2011,119,254,0.0007807671210387277,0.0007889604274000426,0.0007839440324564759,8.193306361314878e-06,-0.006398919739012188,0.004052472225336667,-0.0016568209535962953,0.001191080860162473,0.002847901813758768,0.002247934134118042,0.0008085039263766315,-0.0014394302077414102,-0.0016964470558283357,0.027947559819119224
2011,121,254,0.001332810725055407,0.0013509076334211301,0.0013505526791320363,1.8096908365723132e-05,-0.0002628215060236361,0.013136810100611185,0.00016473817426388657,-0.0002600302565457871,-0.0004247684308096737,0.002243157587477004,0.0006546065008689033,-0.0015885510866081008,-0.0012179746102244956,0.036729677605185765
2011,122,254,0.0003079289310998832,0.00030924652808531056,0.0003088157392699653,1.317596985427375e-06,-0.0013949704000308927,0.0028716417504447422,9.66149638956926e-05,-0.0004449950938578695,-0.0005416100577535621,0.0008818504983952127,0.0,-0.0008818504983952127,0.0002615401663976133,0.01757120758545997
2011,123,254,0.00011666798657498238,0.00011577619321731934,0.00011414822013092024,-8.917933576630413e-07,-0.014261922652249126,-0.02207451365577273,-0.00032035836319285114,-0.000653394206892699,-0.00033303584369984786,0.0013427561795892951,0.0,-0.0013427561795892951,0.0009190845925233401,0.010644411850483166
2011,124,254,0.0004680482319743644,0.00046838106303723047,0.0004685372996543689,3.3283106286606306e-07,0.00033345609251111963,0.001043818027647525,-0.001280549502982868,-0.00047865358646959066,0.0008018959165132773,0.0005857228050874167,0.0,-0.0005857228050874167,-0.0004025310619949581,0.021641979308706913
2011,125,254,0.0014697929663415005,0.0014540216877077334,0.0014294530999025502,-1.5771278633767028e-05,-0.017187403914726618,-0.028220489669580795,0.0033030414323168477,0.0026676988247030333,-0.0006353426076138144,0.003918947599010257,0.0014562479417697199,-0.0024626996572405372,-0.002697111222766537,0.03771178451034341
2011,126,254,0.0007832220407014059,0.0007671604835175497,0.0007682660832788691,-1.6061557183856177e-05,0.0014390844336129582,-0.019467158251613048,0.0020204996323491646,-0.0016517448880687708,-0.003672244520417935,0.0021595555821455324,0.0006290183187546923,-0.0015305372633908402,-0.001239686907907958,0.02768987648309813
2011,127,254,0.0004435049778255905,0.00044326848298837935,0.00043980078623575067,-2.36494837211167e-07,-0.007884698848104943,-0.008422430577134765,0.0007889327688479987,0.0012489070741855722,0.0004599743053375735,0.000865618198154125,0.0004173116042303564,-0.0004483065939237686,-0.00014086655153784446,0.020970954743416155
2011,129,254,0.0006743838856467532,0.0006790993385985872,0.0006788968474553302,4.715452951833997e-06,-0.00029826496325013885,0.006647492657378962,-1.0374625484774432e-05,0.00011234945122851059,0.00012272407671328503,0.0021007021119692137,0.0,-0.0021007021119692137,-0.0008449918623949592,0.02604194378704893
2011,130,254,0.00026588954200347997,0.00026382991060550456,0.00026374629624545577,-2.0596313979754093e-06,-0.00031702572221514735,-0.008126164380445333,-0.0014279696679725421,0.00013750727521255612,0.0015654769431850983,0.0004877835204067335,0.0,-0.0004877835204067335,-0.00023528249400697862,0.01623856331063403
2011,131,254,0.0005288079819751828,0.0005238279509438141,0.0005266983845457156,-4.980031031368687e-06,0.005449862171833519,-0.004005323523607718,0.0009255826355904106,-0.0015207537217065692,-0.0024463363572969797,0.0005877238855728971,0.0,-0.0005877238855728971,-0.0017041304617586134,0.022886553342847893
2011,132,254,0.0002827576257573739,0.0002823694204412305,0.0002823417090020308,-3.8820531614341047e-07,-9.814858491030698e-05,-0.0014730971092198342,0.0019219507734606585,0.0007166180294007063,-0.0012053327440599523,0.0012548088308510094,0.0,-0.0012548088308510094,0.0003389741402882773,0.016799607302977252
2011,133,254,0.0004525807662311876,0.0004497494129755712,0.000449739881172311,-2.831353255616396e-06,-2.1194036062377464e-05,-0.006316729242404451,-0.0004944354002400646,0.00015674601309001446,0.0006511814133300791,0.0006266144257962217,0.0,-0.0006266144257962217,4.796775708351533e-05,0.021207017241153724
2011,134,254,0.0004167575486122735,0.0004041136399893133,0.0004064440315284774,-1.2643908622960245e-05,0.005733609939849393,-0.025374999467973502,0.00044692312110596754,-0.000569453346543014,-0.0010163764676489816,0.0019440109403698633,0.0,-0.0019440109403698633,-0.0023308921346841057,0.020025258384973342
2011,135,254,0.00033635988730493216,0.0003293972707420065,0.0003293819350942385,-6.962616562925666e-06,-4.6558861109380345e-05,-0.02118498760017684,0.002452650525438504,-4.623303539119661e-05,-0.0024988835608297007,0.0007518651052120582,0.0,-0.0007518651052120582,0.0001427351037496171,0.018148321183635584
2011,136,254,0.0006391021938567669,0.0006519660731725979,0.0006501082869624373,1.286387931583098e-05,-0.002857656558787891,0.01692963053446861,-0.0025494558018023575,0.0002878499374022308,0.002837305739204588,0.0011996734130645809,0.00028516482904330473,-0.0009145085840212761,-0.0021298665124354233,0.025408108068127454
2011,137,254,0.00036763626705762646,0.0003634907136083428,0.00036043488956208315,-4.145553449283685e-06,-0.008478158288095727,-0.01997969037984304,0.0014355799960573828,0.0007257161778397858,-0.000709863818217597,0.0006366439619188356,0.0,-0.0006366439619188356,-0.001742527004847509,0.018904985829126145
2011,138,254,0.0002789657241507462,0.0002799721670817274,0.0002796936714688362,1.0064429309811825e-06,-0.0009957165331222484,0.0026026592388276315,-0.001332574560651629,3.8721813984383925e-06,0.0013364467420500675,0.00048010858950896235,0.00022485085675947922,-0.0002552577327494831,-0.0011382094778806054,0.016685267473232155
2011,140,254,0.000177651664628163,0.0001774987441402188,0.00017589821860296683,-1.5292048794420302e-07,-0.009099157171481354,-0.009968526339394046,-3.5406163651642835e-05,-0.0014436857487940353,-0.0014082795851423926,0.0014288607321399816,0.00017141663648116928,-0.0012574440956588124,-0.000171797188935104,0.013261549846410895
2011,141,254,0.00042576291402456425,0.0004197212263016162,0.00041937478104144075,-6.0416877229480664e-06,-0.0008260994123563403,-0.01523251581141749,0.00185763747907999,-0.0005073690554127097,-0.0023650065344926995,0.0010107878787619015,0.0,-0.0010107878787619015,8.77289429018812e-05,0.020478454157333705
2011,143,254,0.00044635171933459313,0.00044556365426525087,0.0004456076957037736,-7.880650693422686e-07,9.883455547865516e-05,-0.0016696830822107156,0.0011736139889777176,-0.0004484083619900048,-0.0016220223509677224,0.0012785304175232189,0.0,-0.0012785304175232189,-0.0002733128085946027,0.02110765254149385
2012,0,250,0.00017713292716842842,0.00017696811053480495,0.0001769634674659913,-1.648166336234698e-07,-2.6237442564580604e-05,-0.0009575970953987767,0.00014173085987567903,0.0005402994574978948,0.00039856859762221574,0.001050644546999422,0.0,-0.001050644546999422,0.0002658529737279878,0.013300104874111004
2012,1,250,0.00028614431947521544,0.00028669040252109,0.0002869339841872136,5.460830458745708e-07,0.0008489118736269008,0.0027520780232255238,0.00021322201192378997,0.00010143672989215702,-0.00011178528203163295,0.0003126332606176403,0.0,-0.0003126332606176403,0.0012513764814994345,0.01689283993556926
2012,3,250,0.0003952716960830713,0.00039579259894371115,0.0003949394381404401,5.209028606398768e-07,-0.0021602319770548384,-0.0008412883357398204,-0.00037382782995700836,-0.00037923778290860355,-5.409952951595186e-06,0.0008360836803942268,0.0,-0.0008360836803942268,0.0009352173481304789,0.01985106563014177
2012,4,250,3.9900351762115686e-05,4.4381064897737636e-05,3.95405867490014e-05,4.48071313562195e-06,-0.12241796459579546,-0.009098626062330029,0.0007075484246015549,-0.0020405936520546675,-0.0027481420766562225,0.00017235629861298428,0.0,-0.00017235629861298428,0.0001657497305377973,0.006285945734400516
2012,5,250,0.0005594704674228863,0.0005766091195977624,0.0005775654395566367,1.7138652174876153e-05,0.0016557776718918449,0.03132973494335267,-0.0013885577321052552,0.0011195484548807144,0.0025081061869859696,0.002503952974639878,0.0,-0.002503952974639878,0.0009868749727032337,0.024012320115825724
2012,7,250,0.00019129686723277044,0.00019436622101504046,0.00019710010247605254,3.0693537822700206e-06,0.013870522778364536,0.02944308587554989,8.186648786067962e-05,0.0012083550682291389,0.0011264885803684592,0.0018348792138857223,0.0,-0.0018348792138857223,0.001735418480130093,0.013931562194344018
2012,8,250,0.0005733180046776959,0.0005657237573666149,0.0005668971970219609,-7.594247311080993e-06,0.002069933775489363,-0.011326229322467851,-0.0008160877823829651,0.0005103686708025634,0.0013264564531855285,0.0015809863135155492,0.0,-0.0015809863135155492,0.0014047843426870656,0.023768125251531772
2012,10,250,0.0002886135350348117,0.0002879738424637276,0.0002843126286354378,-6.396925710841191e-07,-0.012877422455209953,-0.01512738431639904,-0.0010084780305624009,0.0021146314684301615,0.0031231094989925623,0.001546798089010032,0.0,-0.001546798089010032,0.00019162970737106376,0.016860483584129213
2012,12,250,0.00039921190481027023,0.00038862174559431374,0.0003888767003596877,-1.0590159215956491e-05,0.0006556185164555695,-0.026577072992604256,-0.002675873637199402,0.0005619922885671258,0.0032378659257665276,0.0008494483206599133,0.0,-0.0008494483206599133,0.0005078273398008549,0.019713417049122623
2012,13,250,0.00019478265716707898,0.00019502422454189118,0.00019174879309343285,2.415673748121987e-07,-0.017081888212262752,-0.015822076502811866,-0.0013467926010489464,-0.0011230296222493052,0.00022376297879964113,0.0007247468013457643,0.0,-0.0007247468013457643,0.0008967866368361683,0.013818269313536516
2012,14,250,5.244551359560702e-05,5.2940577653454765e-05,5.160111741118139e-05,4.950640578477454e-07,-0.02595796970053832,-0.016363912775320122,-0.0014458119925111533,0.0007350461091846228,0.002180858101695776,0.00033275496486061967,0.0,-0.00033275496486061967,-0.0005436172300349966,0.007162792592166164
2012,15,250,8.601064541246438e-05,8.604168038904189e-05,8.607366315307958e-05,3.103497657750201e-08,0.00037157433372869697,0.0007321373147919363,-0.0004323689937591553,9.181746281683445e-05,0.0005241864565759897,0.0004174808317683061,0.0,-0.0004174808317683061,0.00022007366178586097,0.009274978745876874
2012,16,250,0.0001471218234169336,0.00014440201091541372,0.00014437757928987128,-2.71981250151988e-06,-0.00016922035722299889,-0.01900741195800637,-0.0004840833842754364,-5.1788003474939615e-05,0.0004322953808004968,0.0007491461836360841,0.0,-0.0007491461836360841,0.00020998712809073083,0.012013887160112147
2012,17,250,0.00010757340478140637,0.00010394287881740316,0.00010385357593559798,-3.630525964003217e-06,-0.0008598922184495095,-0.03581801408663243,0.0018013490885496139,-0.0004760442825499922,-0.002277393371099606,0.00016756764320418783,0.0,-0.00016756764320418783,-0.00014422531913191962,0.010189836848199253
2012,18,250,0.0004612187458433284,0.0004450132628813911,0.0004399192849191864,-1.62054829619373e-05,-0.011579346795720591,-0.04841674746778768,-0.0030509936809539795,-0.001461954670958221,0.0015890390099957586,0.001224749695238148,0.0,-0.001224749695238148,0.0010112032065706415,0.020949862839508223
2012,19,250,0.0001621764922091786,0.00016200644668332804,0.00016100645992716381,-1.700455258505523e-07,-0.006210848661703405,-0.007266989675719149,0.0010918877869844437,0.0012408820912241936,0.00014899430423974988,0.0004889480521505853,0.0,-0.0004889480521505853,0.00021750721199630617,0.012686967744102348
2012,20,250,0.000420900871548157,0.00042084798417839944,0.0004197882422843856,-5.288736975754072e-08,-0.0025244677846312236,-0.0026504536137477164,-0.0007239347994327546,0.00032605903106741607,0.0010499938305001707,0.0010529812961208417,0.0,-0.0010529812961208417,-0.0014620472237059517,0.020436503130429124
2012,21,250,9.25533129228713e-05,9.252260025050485e-05,9.268072323227026e-05,-3.071267236644487e-08,0.0017061043143689059,0.0013747228652893906,0.00017525361478328705,0.0001595068461028859,-1.5746768680401145e-05,0.000312253763832519,0.0,-0.000312253763832519,0.0005754154765267146,0.009609870980488957
2012,23,250,0.0005958598678655911,0.0005904498353045483,0.0005856304166256719,-5.410032561042801e-06,-0.008229454178021234,-0.017467417930339124,-0.001772498607635498,0.002937121782451868,0.004709620390087366,0.0007206057854444483,0.0,-0.0007206057854444483,0.0006481286729111559,0.024191121219344552
2012,24,250,0.0004464039932542221,0.00044937441189914175,0.00044811501563092333,2.970418644919655e-06,-0.0028104308587946214,0.0038182661080709,0.0008359731435775757,-0.00042524587479420006,-0.0012612190183717757,0.001058530529341516,0.0,-0.001058530529341516,0.0012681630535637397,0.021130706994809692
2012,25,250,0.00034865047507728696,0.00034732838749723595,0.00034630928981247084,-1.3220875800510116e-06,-0.0029427385136475692,-0.006760388282058161,0.001470335990190506,0.0016608916525729,0.00019055566238239418,0.0018369400529742526,1.3808770349175286e-07,-0.0018368019652707608,0.0005236546623476386,0.018602018052003726
2012,26,250,0.00033822509228519435,0.00033167736981974124,0.00033265795090537396,-6.547722465453107e-06,0.002947715763185421,-0.01673533238772329,-0.0010438150949776174,0.0006980373524129391,0.0017418524473905564,0.0010241747331488078,1.888664120664583e-05,-0.001005288091942162,0.001088351415709937,0.018206412115002124
2012,28,250,0.0002884217991916776,0.0002889707330802894,0.00028793576960738776,5.489338886117967e-07,-0.0035944248063131123,-0.0016879791800530342,-0.0011078994870185853,-0.001041116309352219,6.678317766636616e-05,0.0004952177021390477,0.0,-0.0004952177021390477,-2.3513077385331372e-05,0.01696865394610249
2012,29,250,0.0007846189399620432,0.000775093067480338,0.0007737399226555941,-9.525872481705184e-06,-0.001748836766880979,-0.014060302419333093,-0.0011471736133098602,0.0009568069945089519,0.002103980607818812,0.0019774199989458906,0.0,-0.0019774199989458906,-0.0002287113297218184,0.027815240674551982
2012,30,250,0.00010942846234402836,0.00011026046559245342,0.00010843432581897826,8.320032484250561e-07,-0.016840975029657645,-0.009168097994261881,-0.0006615780293941498,0.0019050808623433113,0.002566658891737461,0.0003023865637991218,0.0,-0.0003023865637991218,0.0004732589976190411,0.010402420475069774
2012,31,250,0.0003145480665464288,0.0003097931526012232,0.0003032599747509394,-4.7549139452055834e-06,-0.021543158986441657,-0.037222491378098965,0.0013765685260295867,0.0020833055414259433,0.0007067370153963565,0.0017600412966964373,1.4406541888475643e-07,-0.0017598972312775525,-0.0005261402642713194,0.01740641120889806
2012,32,250,0.00044840314907442256,0.0004446714632381518,0.00043543477985728184,-3.7316858362707863e-06,-0.0212125530806182,-0.02978257552460839,-0.0025205704122781753,-0.0019646661821752787,0.0005559042301028967,0.001875176571481265,0.0,-0.001875176571481265,0.001368367364967071,0.02082216008515387
2012,33,250,0.0004843617054864284,0.00047894252664043015,0.0004789154301423482,-5.419178845998229e-06,-5.6578878809387945e-05,-0.011372102465901701,-0.0008689147606492042,0.0002977930416818708,0.0011667078023310752,0.0017989935942838355,0.0,-0.0017989935942838355,0.00010340100165676347,0.021883892212657338
2012,34,250,0.000201338806885568,0.0001912008676721114,0.0001920699046725416,-1.0137939213456616e-05,0.004524587034662408,-0.04825796227071,-0.0017223720252513884,0.0002908212481997907,0.002013193273451179,0.000772251514260442,0.0,-0.000772251514260442,0.0016395191285676276,0.013761608979316425
2012,35,250,0.0003617520296193315,0.00035947727333513824,0.0003628468333574431,-2.274756284193283e-06,0.009286452884612828,0.003017261382664671,0.0037176841646432875,0.001582006341777742,-0.0021356778228655456,0.0003797404851089249,0.0,-0.0003797404851089249,0.0018559673032446397,0.01895790649641278
2012,36,250,0.0004120696163740988,0.0004114694996426625,0.00041236965632149427,-6.001167314362722e-07,0.0021828877683714998,0.0007275994797288909,-0.0008512133955955505,-0.0010007994715124369,-0.00014958607591688633,0.0005403050506569436,0.0,-0.0005403050506569436,-0.0009501185378013872,0.020284647669743253
2012,38,250,0.0004694480829851431,0.00047096979027006137,0.00046817796978580506,1.5217072849182836e-06,-0.005963160730381167,-0.0027128854437963312,-0.0005660621672868728,-0.00134187878575176,-0.0007758166184648872,0.0010424849270552947,0.0,-0.0010424849270552947,0.0003693261340479239,0.02163426837201837
2012,39,250,0.0003330645751754847,0.00031762813111614515,0.00032162020811966907,-1.5436444059339558e-05,0.01241239481456502,-0.035583482526562404,-0.0011530322432518004,0.0017866106936708093,0.00293964293692261,0.0016679810201161575,0.0,-0.0016679810201161575,0.0020105260759137734,0.017820718083672717
2012,41,250,8.298693533627285e-05,8.310474485267368e-05,8.356746007401519e-05,1.1780951640082463e-07,0.005537026265147849,0.006946779730150565,5.211054533720016e-05,0.0004581328830681741,0.00040602233773097396,0.000520769346597708,0.0,-0.000520769346597708,0.0007340675432261321,0.009112003342624339
2012,42,250,0.0010003641775854866,0.0010043777843004062,0.0010023376839275314,4.0136067149196e-06,-0.0020353423856926955,0.001968903667586286,-0.0006260079443454743,-0.0006137382006272674,1.2269743718206893e-05,0.0015368664495662816,0.0,-0.0015368664495662816,0.0013551590827046737,0.03163070071604634
2012,43,250,0.00016453750223195692,0.00016472828310644107,0.00016398670263018737,1.907808744841435e-07,-0.004522198839048919,-0.0033588064942782214,0.00011530387401580811,-0.0003917385183740407,-0.0005070423923898488,0.0004467011390597096,0.0,-0.0004467011390597096,0.0007506555800494397,0.012783709118652849
2012,44,250,0.00015183069231198092,0.00014797775133082263,0.00014867416553375956,-3.852940981158298e-06,0.004684164195149276,-0.021231171985321318,-0.0008256891220808029,0.0003313849738333374,0.0011570740959141405,0.0004891239852976322,0.0,-0.0004891239852976322,0.0012164555841103208,0.012132369980578666
2012,45,250,0.0011758914577927697,0.0011643119171112686,0.0011589156823442193,-1.157954068150115e-05,-0.004656279010854414,-0.014647981477144523,-0.004747656881809234,0.0015834190417081118,0.006331075923517346,0.0004559681248133528,0.0,-0.0004559681248133528,-0.0009122723768338546,0.03403062505236548
2012,47,250,0.00010937800185725598,0.00011165813085684857,0.00011058583038321301,2.2801289995925955e-06,-0.009696544936360407,0.010922091209801033,0.0014626262187957763,-0.0004143232920905575,-0.0018769495108863338,0.00024050461478936351,3.6622888230372935e-06,-0.00023684232596632622,0.0010795897662255812,0.01046041664179176
2012,48,250,0.00023011260291529265,0.0002312027929470692,0.00023175830460767444,1.0901900317765608e-06,0.0023969439263270553,0.0071009394686747385,-0.00022162166237831116,0.0005500195778440684,0.0007716412402223795,0.0013231230255340107,8.084291236921814e-06,-0.001315038734297089,0.0007733210277252454,0.015203956037681522
2012,49,250,0.00042958973157983856,0.0004269902151915402,0.0004279014430820844,-2.59951638829838e-06,0.0021295275004935554,-0.0039455078384260656,-0.0004327717870473862,0.000792741377139464,0.0012255131641868502,0.00079610431980579,2.7200885579992753e-07,-0.00079583231094999,0.0009713632601733906,0.02066295952904302
2012,50,250,0.00014883735046075227,0.0001429753682545823,0.00014323846512643673,-5.861982206169957e-06,0.0018367752797558978,-0.03908786183497148,-0.002080641068518162,0.0004486077814362943,0.002529248849954456,0.0005693764516320655,0.0,-0.0005693764516320655,0.0005175409707929219,0.01195703209287269
2012,51,250,0.00042031218355486044,0.0004211818877997943,0.0004215032691721707,8.697042449338751e-07,0.0007624647206356805,0.002825803984034425,-0.00034364520385861397,0.0011806201185099782,0.0015242653223685922,0.0009072338917777269,2.2243614692774553e-05,-0.0008849902770849523,0.0007162111754224014,0.02051804841412484
2012,52,250,9.824069604844606e-05,0.00010174576264193674,9.838118421916173e-05,3.5050665934906785e-06,-0.03419940966841595,0.0014279983701223076,-0.0005278873294591904,-0.0015643781516700983,-0.001036490822210908,0.0002516844931829971,0.0,-0.0002516844931829971,0.0002931834033774976,0.009914394974538068
2012,53,250,0.00047727650429403996,0.00047541614674556236,0.00047532898191810587,-1.8603575484776001e-06,-0.0001833778935691477,-0.004097209406578095,-0.0011715490445494653,-0.000387743697501719,0.0007838053470477463,0.00061556742035245,0.0,-0.00061556742035245,-8.147179167936258e-05,0.021801888548134227
2012,54,250,0.00021570860908345292,0.00021650006995401643,0.00021640043945360372,7.914608705635138e-07,-0.00046039878968939796,0.003196991521355552,-0.0011008559614419937,-6.195050809765235e-05,0.0010389054533443414,0.0009709714151371658,0.0,-0.0009709714151371658,0.0007731384124240321,0.014690224520028213
2012,55,250,0.0002494552164083924,0.00024216778735792167,0.0002397728991826865,-7.287429050470716e-06,-0.009988152053041155,-0.040381199287784275,-0.002209821730852127,-0.0007613444468006492,0.0014484772840514777,0.00044965310212607306,0.0,-0.00044965310212607306,0.0011921298015561206,0.015438643908029237
2012,57,250,0.00039236257467764645,0.0003823424373350843,0.000381223238911758,-1.0020137342562144e-05,-0.0029358084950990015,-0.02921998091639666,-0.002407683551311493,0.002128822496160865,0.004536506047472358,0.0007402579271156564,0.0,-0.0007402579271156564,0.0008015432951759038,0.019508479368154672
2012,58,250,0.00019355206946082456,0.0001948200105033447,0.0001969784324945484,1.2679410425201398e-06,0.010957656449334552,0.01739461011204191,0.001060309998691082,0.000648799876216799,-0.000411510122474283,0.0006663746530137652,0.0,-0.0006663746530137652,0.001987795748068848,0.013893419325655862
2012,59,250,0.0002211920433426459,0.00021615220937576775,0.00021750535097808546,-5.039833966878144e-06,0.006221187645420456,-0.016949892717498694,-0.0010398659110069275,0.0006266398704610765,0.001666505781468004,0.0007053443520164903,0.0,-0.0007053443520164903,0.0013930003594288252,0.014682128625533718
2012,60,250,0.0002625052312560962,0.0002628999539650743,0.0002621473698776918,3.9472270897808123e-07,-0.0028708435554154477,-0.0013651152730289606,-0.0003791702389717102,-0.000352042552549392,2.7127686422318237e-05,0.000706699779335731,0.0,-0.000706699779335731,0.000892860996524945,0.016166328250984397
2012,61,210,4.560883226882975e-05,4.4464406004521927e-05,4.4429417713515644e-05,-1.144426264307822e-06,-0.0007875028034778353,-0.026545802668832108,-0.00040766862886292595,-0.00020928721642121673,0.00019838141244170923,0.0005026045465639617,0.0,-0.0005026045465639617,-2.10544344317855e-05,0.006665506314174971
2012,63,250,0.00016114362224129463,0.00015585520112725988,0.00015618783419458815,-5.2884211140347506e-06,0.0021296989553862833,-0.03172966750106965,-0.002690608650445938,0.0003020529402419925,0.0029926615906879306,0.0013277937176718383,0.0,-0.0013277937176718383,0.0007016469458924348,0.012477801319058898
2012,64,250,0.0003625012247965576,0.00035965340939296786,0.0003560617793079047,-2.8478154035897502e-06,-0.010087098064960554,-0.01808519156751287,-0.000972009900957346,-0.0005569230997934937,0.0004150868011638522,0.0013318177752700223,0.0,-0.0013318177752700223,0.0029460680901870406,0.018638199004085303
2012,65,250,0.0003689317952898046,0.0003678350662064792,0.00036687518231007905,-1.0967290833253603e-06,-0.0026163772931058205,-0.005605756613940915,0.0008856945931911468,0.0014024052070453763,0.0005167106138542295,0.001270066441331216,0.0,-0.001270066441331216,0.0003589748751965942,0.01915062190502065
2012,66,250,0.0005695990744245679,0.0005725131512979096,0.0005657044671214896,2.9140768733416965e-06,-0.012035761730970762,-0.006884526337392227,-0.001372752010822296,-0.001989977831952274,-0.0006172258211299779,0.0016978979505998205,1.4686013214633856e-05,-0.0016832119373851866,0.0007049799800596191,0.023774092419043144
2012,67,250,0.00022929543702341937,0.00022078029800519383,0.00022055895482247462,-8.515139018225543e-06,-0.0010035556384340172,-0.03961064382072643,-0.0025112212002277373,0.0007746359915472567,0.003285857191774994,0.0004756997100956872,0.0,-0.0004756997100956872,0.00024444883843125354,0.014849215453614518
2012,68,250,0.00322539227298784,0.0031937412729885046,0.003197274943048118,-3.165099999933533e-05,0.0011052130713051778,-0.008794154534897958,-0.0038449722863733767,0.000562436762265861,0.004407409048639238,0.002378266636717615,0.0,-0.002378266636717615,0.0034226115978386105,0.056440771370512455
2012,69,250,0.0001706958180700651,0.0001667881062433052,0.0001679828106371507,-3.907711826759878e-06,0.007112063367162524,-0.0161505062489673,-0.000804879754781723,0.001273112604394555,0.002077992359176278,0.0008881621196550096,0.0,-0.0008881621196550096,0.001105762399804732,0.012913562643683143
2012,71,250,0.0005107575019805233,0.000508966932706002,0.0005083957223542408,-1.790569274521289e-06,-0.001123554598603027,-0.004645553694562432,-0.001339579775929451,0.00018849399930331856,0.0015280737752327695,0.0007203887127817684,0.0,-0.0007203887127817684,-0.0014209480566161829,0.022502813801270265
2012,72,250,0.0008328122002006156,0.0008623474773488229,0.0008524018550197281,2.953527714820729e-05,-0.011667762418072769,0.022981713030949646,0.00042576657235622405,-0.0014423156389966607,-0.0018680822113528847,0.0022605750880167687,0.0,-0.0022605750880167687,0.0027266389249135017,0.02906832116227001
2012,73,250,0.0007715197754163235,0.0007679380278767409,0.0007643833089040932,-3.581747539582649e-06,-0.004650440336987582,-0.009336240638825544,-0.0025338952392339707,0.0019319705595262349,0.004465865798760206,0.0011960337502723586,1.2561700928643637e-05,-0.001183472049343715,5.539145071001883e-05,0.027647427379256854
2012,74,250,0.00041977271846575917,0.00042470362790792164,0.0004179171792753532,4.930909442162469e-06,-0.01623874051872143,-0.00443996868858898,-0.00181968355178833,0.0022932731080800295,0.00411295665986836,0.001977693545226535,0.0,-0.001977693545226535,-0.0003330059291552061,0.020440310328527323
2012,76,250,4.167478196960588e-05,4.177499574228029e-05,4.164729692736397e-05,1.0021377267441006e-07,-0.003066196952446587,-0.0006599478062128128,-0.0001172715425491333,-0.00018361052207183093,-6.633897952269763e-05,0.00011198036644939479,0.0,-0.00011198036644939479,0.0002559384670341274,0.0064483945620949865
2012,77,250,0.00020748333858858935,0.00020970310636443635,0.0002053425016517817,2.2197677758469957e-06,-0.021235763066962843,-0.010425688396638266,-0.0005568215548992156,-0.0010122215608134866,-0.00045540000591427093,0.0007995780736314974,0.0,-0.0007995780736314974,0.0016478666102499062,0.014234712406178258
2012,78,250,0.00014937653681305159,0.00014899442228403226,0.00014322233315375603,-3.821145290193223e-07,-0.04030159964004798,-0.04296958109660687,0.0031564633175730707,0.003119132248684764,-3.7331068888306774e-05,0.0004802498899327412,4.714740354052717e-07,-0.0004797784158973359,0.0006342846144475942,0.011950732872156046
2012,79,250,0.0002396030207011271,0.00024168271250325942,0.00024055778696875806,2.0796918021323085e-06,-0.004676321430606922,0.003968968453118338,-0.0006920980513095855,0.0005037588416598737,0.0011958568929694591,0.0011959514474888862,0.0,-0.0011959514474888862,-0.0008646523811673035,0.015485805217311103
2012,81,250,0.0005929527229214239,0.0005936801589686271,0.0005873784541267797,7.27436047203182e-07,-0.010728525701910074,-0.009490080467679185,-0.001586262285709381,-0.001547881867736578,3.838041797280304e-05,0.0007060385621308786,0.0,-0.0007060385621308786,0.001261648788189035,0.024203030728857922
2012,82,250,0.0006816669620855238,0.0006787685391326381,0.0006783111343974486,-2.8984229528856986e-06,-0.0006743288028079331,-0.004947328029719422,0.000655541829764843,-0.0004982198006473482,-0.0011537616304121913,0.0012845668176787405,0.0,-0.0012845668176787405,0.00020992919707263978,0.02604356089573131
2012,83,250,9.889120402910982e-05,0.00010747635642555603,9.827355797020133e-05,8.585152396446211e-06,-0.09364470611866094,-0.0062849668991915575,-0.0006132115125656128,0.0031385079491883516,0.0037517194617539646,0.00025642952640041877,0.0,-0.00025642952640041877,0.00010314354818368087,0.009912765475823052
2012,84,250,4.520215900497334e-05,4.6374360125009024e-05,4.3946916570021645e-05,1.1722011200356866e-06,-0.05523581048330617,-0.02856269638284381,0.0011225272603332997,-0.0014478102093562484,-0.0025703374696895483,0.00021730111623993522,0.0,-0.00021730111623993522,0.00011441042152149806,0.006628259713187838
2012,85,250,0.0005634841965930475,0.0005666723701479453,0.0005695378563860326,3.188173554897881e-06,0.005031248065352489,0.010629073599072503,-0.0009499936625361442,-0.002146156970411539,-0.001196163307875395,0.0021846519339210994,0.0,-0.0021846519339210994,-0.0017406639129246458,0.023801427384261525
2012,86,250,5.7706400371121306e-05,5.005632550639876e-05,4.803429935788621e-05,-7.650074864722545e-06,-0.04209546460638802,-0.20135821990806546,-0.0026608395576477053,-0.001030118321068585,0.0016307212365791203,0.0009972384783740985,0.0,-0.0009972384783740985,0.00046639418669623466,0.006914967521290478
2012,88,250,0.0005449804491486129,0.0005463710459723239,0.0005461944062425864,1.3905968237109883e-06,-0.0003234008399182198,0.002222573281781992,-0.0016147610396146774,7.511592411901802e-05,0.0016898769637336954,0.0006565317996435811,0.0,-0.0006565317996435811,-0.001138222884741026,0.023343068669462425
2012,89,250,6.204014045096537e-05,6.145230715813644e-05,6.074695453249619e-05,-5.878332928289308e-07,-0.011611324897990327,-0.021288078199499072,-0.0009917566925287246,-0.0005693273269571364,0.0004224293655715882,0.00029368029408719334,0.0,-0.00029368029408719334,0.0003347977537434872,0.007786839217332312
2012,90,250,0.0004166297292701307,0.0004145221045829569,0.00042128028090271646,-2.107624687173787e-06,0.016041995379603824,0.011039091653235245,0.0009016138315200805,0.0014131746720522642,0.0005115608405321837,0.0014367609929763433,0.0,-0.0014367609929763433,0.0030977200294621953,0.020290007676730563
2012,93,250,0.0003173423576340388,0.00031256359225383394,0.00031254314817669447,-4.77876538020484e-06,-6.541201513687867e-05,-0.015355350086353914,0.0001476944237947464,-0.00011157098197145388,-0.00025926540576620027,0.0014977454282301648,0.0,-0.0014977454282301648,3.583365934582616e-05,0.017678853586292082
2012,94,250,0.00021303798846845754,0.00021260236725193296,0.00021137052107888477,-4.3562121652458317e-07,-0.005827899589595287,-0.007888836064090743,0.0009429821074008941,-0.0009574817377142608,-0.001900463845115155,0.0004930202328211294,0.0,-0.0004930202328211294,0.00016453310939573384,0.014537656273787647
2012,95,250,0.00010800892037316332,0.00010614268368524985,0.00010534538498353929,-1.8662366879134622e-06,-0.007568425535064094,-0.025283835547615263,-0.0008226590007543564,-0.00030977511778473854,0.0005128838829696179,0.00018006455627143561,0.0,-0.00018006455627143561,0.0011320116398102016,0.010201173198748931
2012,97,250,0.00022299514750116813,0.00022069512240112526,0.00022068913101824965,-2.3000251000428683e-06,-2.7148518134900712e-05,-0.010449162005752743,-0.001032139241695404,1.119475837185746e-05,0.0010433340000672614,0.0008504252014501997,0.0,-0.0008504252014501997,-0.00026200030699770593,0.01485329885437517
2012,98,250,5.822192564977326e-05,5.993372643206881e-05,5.838476491206925e-05,1.7118007822955535e-06,-0.026530234768134875,0.0027890711308203864,0.0002611628770828247,-0.000881521962583065,-0.0011426848396658897,0.00025316225154597337,0.0,-0.00025316225154597337,0.00043781129809940467,0.007628439301674082
2012,99,250,0.0004166323102795039,0.0004067731170362071,0.0004069513917181567,-9.859193243296827e-06,0.000438073651000237,-0.023788881813314955,0.0026644363552331923,0.0008815492619760334,-0.0017828870932571589,0.001329838643325373,0.0,-0.001329838643325373,0.0005418890494552641,0.020165756816351754
2012,100,250,0.0005627071589563213,0.0005619181519573362,0.0005620108673233999,-7.890069989851135e-07,0.00016497077094845825,-0.001238929126473165,-0.0002847995012998581,8.113972580758855e-05,0.00036593922710744664,0.001345088117897936,0.0,-0.001345088117897936,0.0006119013847997365,0.023698870100042322
2012,101,250,9.289775486707536e-05,9.18194438675845e-05,9.151802619628246e-05,-1.0783109994908548e-06,-0.003293533348889932,-0.01507603177360628,0.0003746751770377159,0.001545691629871726,0.00117101645283401,0.0013167898066844049,0.0,-0.0013167898066844049,0.000675343290668792,0.0095426378761866
2012,103,250,0.00030812900318755057,0.0003040226534244694,0.00030407562660960573,-4.1063497630811595e-06,0.00017421055981026168,-0.013330159418363463,-0.0018092909157276153,0.00032165118609555065,0.002130942101823166,0.0007798097842323064,2.6535754084447497e-07,-0.000779544426691462,0.0002432871949670101,0.01743606715834654
2012,104,250,0.00010716851262063983,0.00010302721500900673,0.00010314158585588952,-4.1412976116330915e-06,0.0011088722936895001,-0.039042707471812266,-0.0012885078191757202,8.1381578638684e-05,0.0013698893978144043,0.00027875530433716473,0.0,-0.00027875530433716473,0.0007433734405777983,0.010128621909407668
2012,105,250,0.00018448899242510134,0.00018421613678341157,0.00017820651187124904,-2.72855641689771e-07,-0.033722813207321956,-0.03525393369682961,-0.0014140197187662124,0.0028307306012138726,0.004244750319980085,0.0017676283102301855,7.451211311170033e-06,-0.0017601770989190155,0.0003547083383873968,0.013344687851947961
2012,106,250,0.00016461680651374587,0.00016456686932841394,0.0001632597892425881,-4.993718533192917e-08,-0.008006136060139335,-0.008312011656105733,-0.0003617076873779297,-0.0005072421045042574,-0.00014553441712632773,0.0007100571895453682,0.0,-0.0007100571895453682,0.0010347973126852564,0.012735343880879208
2012,107,250,9.664443103399855e-05,9.596360503726386e-05,9.731932866381229e-05,-6.808259967346878e-07,0.013930671791127391,0.006934877573448572,8.994394540786743e-05,0.0011496854713186622,0.0010597415259107948,0.00041670358783629276,0.0,-0.00041670358783629276,0.0011644490498947987,0.009796090397398923
2012,108,250,9.175219550708142e-05,9.047791568429394e-05,9.14851814035392e-05,-1.2742798227874743e-06,0.01101015163103003,-0.0029186596063510706,-0.00031057675927877426,0.0013551237061619759,0.0016657004654407502,0.00017380319541660183,0.0,-0.00017380319541660183,0.0010492126900728494,0.009507067588616865
2012,109,250,0.00021204920741432163,0.00021238077609613297,0.00021250397726126842,3.315686818113387e-07,0.0005797593377934174,0.0021400533430376845,0.0012498990818858146,8.623391477158293e-05,-0.0011636651671142317,0.0014377484699493795,0.0,-0.0014377484699493795,0.0007574598320070436,0.014557823733792228
2012,110,250,0.0002500006404614797,0.00024459144810429375,0.0002447192205029759,-5.409192357185954e-06,0.0005221183625035986,-0.021581549449400717,-0.0014468862414360047,0.0005848468863405287,0.0020317331277765333,0.0007247159704295988,0.0,-0.0007247159704295988,0.0004016592121098199,0.015638346791790467
2012,112,250,0.00014238183919404728,0.0001399592288521712,0.0001398526845046867,-2.4226103418760773e-06,-0.0007618326946090548,-0.018084420033251725,-0.0012596199810504913,-0.0001454195735277608,0.0011142004075227305,0.0006240828253447073,0.0,-0.0006240828253447073,0.00029362448619426115,0.011822286968509682
2012,113,250,0.0005250724352230567,0.0005291819271843842,0.0005271018118851812,4.10949196132744e-06,-0.0039463254580047735,0.0038500658058192583,-0.0009743533879518509,0.0006266792770475149,0.001601032664999366,0.00041013927709945917,0.0,-0.00041013927709945917,-0.001346293426895727,0.022919190777465914
2012,114,250,0.00028725784768789526,0.00028540346295737994,0.00028669963436963176,-1.854384730515322e-06,0.004521008249981584,-0.0019470318456835667,0.00039703840017318723,0.000492230465169996,9.519206499680879e-05,0.0006024224499488849,0.0,-0.0006024224499488849,0.0015627458598708444,0.01685993652856049
2012,115,250,0.00030135560148424376,0.00029820133268107887,0.0002987735900936089,-3.154268803164898e-06,0.0019153547418657713,-0.008642033553989403,-0.0008363161385059357,0.002447605598717928,0.0032839217372238635,0.00038168286711439417,0.0,-0.00038168286711439417,0.0013407042749950051,0.017232994578442223
2012,116,250,8.463359007885698e-05,8.088703978576346e-05,7.95756610038618e-05,-3.746550293093524e-06,-0.016479646733164044,-0.06356125743962981,-0.0016203980445861816,0.001727792201563716,0.0033481902461498974,0.0006979753731047681,0.0,-0.0006979753731047681,0.0004844005860102669,0.00890735746875215
2012,117,250,0.0003306032277627871,0.00033028841176927805,0.0003326065510723719,-3.1481599350904714e-07,0.006969614084929576,0.006023102380653067,0.0026216968074440957,0.0014384594978764653,-0.0011832373095676304,0.0011754946011159804,0.0,-0.0011754946011159804,0.0015250012379917734,0.018173632611464763
2012,118,250,8.641880954339246e-05,8.676536937712214e-05,8.643248100755027e-05,3.4655983372968043e-07,-0.003851426751741549,0.00015817507490745175,-0.00014090646058321,-0.00029587550164433194,-0.00015496904106112195,0.0005761344807282563,2.1270163334153692e-05,-0.0005548643173941026,0.0004167930889152984,0.009287559664873367
2012,119,250,0.0004555861192176177,0.00045928514720887674,0.00045489472176537616,3.699027991259016e-06,-0.009651519864776636,-0.0015199065171791482,-0.0002647525817155838,0.0018980578752234578,0.0021628104569390415,0.0008775538606934703,0.0,-0.0008775538606934703,-0.00020752837837198967,0.021327251434199074
2012,121,250,0.0012135489528844621,0.0012203900513716713,0.0012176043965303014,6.8410984872091084e-06,-0.0022878160175077156,0.0033306742792614807,-0.002524622902274132,0.000622953986749053,0.003147576889023185,0.0018410519485513254,0.0,-0.0018410519485513254,-0.0019243661833475017,0.03484108510541384
2012,122,250,0.00014255640506104152,0.0001429168527115377,0.00014178379436695493,3.6044765049618325e-07,-0.007991451700398722,-0.005449217222152969,0.00019847024232149123,0.002769542159512639,0.002571071917191148,0.00044050787373569504,0.0,-0.00044050787373569504,0.00118021410258757,0.01184866612910535
2012,123,123,8.095233899701028e-06,8.266675896000228e-06,6.8070968836473714e-06,1.7144199629920088e-07,-0.2144201907657861,-0.18923441785412765,0.0011816190903991219,-0.0011399869108572602,-0.002321606001256382,0.00017512544123311747,0.0,-0.00017512544123311747,7.018012834316454e-05,0.0026080973205064853
2012,124,250,0.00023518495451761796,0.00023506732968229572,0.00023441379979757668,-1.1762483532223498e-07,-0.0027879326442530328,-0.003289715540242044,-0.0004030523002147675,-0.0003618731861934066,4.1179114021360895e-05,0.0003762713978050419,0.0,-0.0003762713978050419,0.0007220453210832574,0.01529354276653642
2012,125,250,0.0011097178898646992,0.0010985030637823596,0.0010962885287579196,-1.1214826082339528e-05,-0.002020029368499543,-0.01224984185686484,-0.0031106930673122407,0.0003881985095795244,0.003498891576891765,0.0008385501777278603,0.0005185734834348612,-0.0003199766942929991,0.0006724244984452952,0.03310341937099263
2012,126,250,0.0005566025740375866,0.0005609237662434095,0.0005573131374239653,4.321192205822928e-06,-0.006478635756073103,0.0012749805067633346,-0.002170703411102295,0.0010362830944359303,0.003206986505538225,0.0007501630170229713,0.0,-0.0007501630170229713,-0.0012239638865336104,0.023575730101704738
2012,127,250,0.00016204361545081938,0.00015830506779125847,0.00015843854348933644,-3.7385476595609137e-06,0.0008424446169372768,-0.022753756012188875,0.0011596736907958985,-0.000648650573566556,-0.0018083242643624545,0.0006971389842809532,0.0,-0.0006971389842809532,-0.000427212498725666,0.012579985412164396
2012,129,250,0.00037390041199535296,0.0003767681663101382,0.0003764996366681501,2.8677543147852605e-06,-0.0007132268290204191,0.006903657851569434,0.0007886486607603728,-0.00010718328121583909,-0.0008958319419762119,0.0007253688546685862,0.0,-0.0007253688546685862,0.0011990740687353992,0.019366513833053083
2012,130,250,0.00028107021848072826,0.0002748571298973201,0.000275707782984186,-6.213088583408163e-06,0.0030853430311565955,-0.01944970663686285,-0.001077383264899254,-0.0004735046823043376,0.0006038785825949163,0.0011228175971017052,0.0,-0.0011228175971017052,-0.0011350043739792,0.016565613422244108
2012,131,250,0.00025636911422750283,0.00025505694459081944,0.0002538356040411985,-1.3121696366833933e-06,-0.00481154152599772,-0.009980909478298106,-0.0015842302404344081,0.0010127919958904386,0.002597022236324847,0.00040516797839603385,0.0,-0.00040516797839603385,-9.656125022456763e-05,0.015931926436126724
2012,132,250,0.00020571811149907074,0.00021112336180097724,0.00020731268376448844,5.4052503019065e-06,-0.01838130676470251,0.00769162907190557,0.0005078449472784996,0.002715467708185315,0.0022076227609068157,0.0005903909109731614,0.0,-0.0005903909109731614,0.0006560724008921994,0.014383401988725614
2012,133,250,0.00019179137538171922,0.00017485287917986536,0.00017381772500987136,-1.6938496201853863e-05,-0.005955400520488929,-0.10340516406383249,-0.004281266376376152,-0.0009832058567553759,0.0032980605196207763,0.0005356400186743276,0.0,-0.0005356400186743276,3.481489291657169e-05,0.013183949064415508
2012,134,250,0.0004808033529172473,0.00046686555806791134,0.00046777270209514486,-1.393779484933598e-05,0.0019392838085044994,-0.027856800458296194,-0.0025106052756309507,0.0016130172880366445,0.004123622563667596,0.0009003865778435152,0.0,-0.0009003865778435152,0.0010877034067655984,0.02160068525288157
2012,135,250,0.0001133391654502115,0.0001128312668288403,0.00011186162741718051,-5.0789862137119e-07,-0.008668204048592809,-0.013208622716712304,0.00017161029949784278,0.0008350800490006804,0.0006634697495028377,0.0006739176504981231,0.0,-0.0006739176504981231,-0.000163026720460266,0.010575209203869042
2012,136,250,0.000760955816962727,0.0007599356032122547,0.0007599058021375035,-1.0202137504723057e-06,-3.9216801171138016e-05,-0.0013817697170752652,-0.00027881773561239245,-0.0014629117213189602,-0.0011840939857065678,0.0011225406586710216,0.0,-0.0011225406586710216,-0.0007212703264551266,0.0275569514143651
2012,137,250,0.00038217057340785097,0.00038424181125406513,0.00038116975931178516,2.0712378462141605e-06,-0.008059537429796704,-0.0026256387649241653,-0.00044369393587112424,-0.0008737532943487167,-0.0004300593584775925,0.0015231643534411835,7.374128381275348e-07,-0.0015224269406030558,0.001320569381218405,0.01947885663536681
2012,138,250,0.00020507544262507075,0.00020223183502622022,0.0002029144125344169,-2.843607598850532e-06,0.0033638690306481145,-0.010649958589251662,-0.000757340207695961,-0.0006113224080763757,0.0001460177996195853,0.0013723224494257506,0.0,-0.0013723224494257506,-0.0008639406807750731,0.014218580063934613
2012,140,250,0.00010634533868496274,0.00011085318462900786,0.00010542018456131089,4.507845944045122e-06,-0.0515366207174226,-0.008775872737291524,-0.0005765499472618103,-0.0022406787611544132,-0.001664128813892603,0.0002219762912742708,0.0,-0.0002219762912742708,9.20164827188188e-05,0.010267020869182011
2012,141,250,0.0004356650912549915,0.0004387725183037187,0.00043564472087566326,3.1074270487272413e-06,-0.0071796977632794245,-4.675915568830291e-05,-0.0002442493438720703,0.0014526224695146084,0.0016968718133866787,0.001326655462891871,0.0,-0.001326655462891871,-0.0003502924574256667,0.020869164239852394
2012,143,250,0.00012462240910471895,0.00012510533061350438,0.00012466050968597977,4.829215087854297e-07,-0.0035682585338783213,0.0003056347303311835,0.0009082541689276695,0.0015334561467170715,0.000625201977789402,0.0008778463955858083,0.0,-0.0008778463955858083,0.0006216893878777228,0.011147825437769467
2013,0,249,0.0001390053982512246,0.0001381040824760595,0.00013885121976763175,-9.013157751651141e-07,0.005380847880361417,-0.001110386238240224,0.0007405474961522114,0.0008825746481306851,0.00014202715197847372,0.0004019328629737675,0.0,-0.0004019328629737675,0.0008645587681039195,0.011751755524351516
2013,1,249,0.00019175983430370902,0.00019339940867906509,0.00019827058010158513,1.6395743753560633e-06,0.02456830166141777,0.03283767967259843,0.0013553963517807573,0.0017192374216392636,0.0003638410698585063,0.0011232884838808977,0.0,-0.0011232884838808977,0.0022762850075186253,0.0138956506384599
2013,2,249,0.0014762274039317824,0.0014170723572652407,0.0014180133095109911,-5.9155046666541696e-05,0.0006635708137852081,-0.04105327787146562,0.004965319812492314,-0.0001559596712468192,-0.005121279483739133,0.0023938437769001598,0.0,-0.0023938437769001598,-0.003094632276058827,0.03752914281710903
2013,3,249,0.00019758547715612392,0.00019672986368270715,0.00019902758165831285,-8.556134734167783e-07,0.011544721372087952,0.007245752021771135,0.002016704290147766,0.0014160418650135398,-0.0006006624251342261,0.0003468428110700309,0.0,-0.0003468428110700309,0.0015193380384398761,0.014025661965955921
2013,4,249,5.163695908585679e-05,5.142846716501867e-05,5.169744362598137e-05,-2.0849192083812482e-07,0.005202896741059115,0.0011699715862580895,-0.00013165136268100585,-0.00038915223558433354,-0.00025750087290332766,0.00016751759739036258,0.0,-0.00016751759739036258,-0.0005401689685679184,0.007169774132521724
2013,5,249,0.0003036845925400447,0.0003022907282568654,0.00030227268981573223,-1.393864283179291e-06,-5.9676053248969296e-05,-0.004670956959999195,0.001381002486230858,0.0002907543384935707,-0.0010902481477372873,0.0002905182641352289,0.0,-0.0002905182641352289,0.00011435709706802185,0.01738561509610984
2013,7,249,0.00012524844900034217,0.00011023901690734363,0.00011091442472722385,-1.5009432092998539e-05,0.00608944978564574,-0.1292349873190124,0.003296961790945635,0.0008888976881280541,-0.002408064102817581,0.002185770834260895,0.0,-0.002185770834260895,0.0008243619819318357,0.010499278644267388
2013,8,249,0.00030685669784532655,0.0003057997931015113,0.00030606162439113,-1.0569047438152243e-06,0.000855485525634081,-0.0025977561080330336,0.0026869280750014216,0.00010188917076447979,-0.002585038904236942,0.0007385562599161086,0.0,-0.0007385562599161086,0.0013358274029316938,0.017443542918246475
2013,10,249,0.0003265188024232181,0.0003220580775621442,0.0003265282578652769,-4.460724861073855e-06,0.013690025887367563,2.8957500097015476e-05,0.0005177090535441555,0.0014705940927696754,0.0009528850392255199,0.0006232039846846652,0.0006445564809696204,2.135249628495517e-05,0.002245217307467253,0.017930065730708475
2013,12,249,0.00028704296913909183,0.00029042834565016573,0.0002907527271934414,3.385376511073901e-06,0.0011156612232215979,0.012759151359159615,0.0005085717243363101,0.00013114235480315983,-0.00037742936953315026,0.0013412593399942526,0.0,-0.0013412593399942526,0.0013023247180969555,0.017001666904220746
2013,13,249,0.00013364197191051495,0.0001326892475032302,0.00013220981195722454,-9.52724407284755e-07,-0.0036263234846802828,-0.010832478558806091,0.0005417169786121951,-0.00015838840045034885,-0.000700105379062544,0.0007137882755982278,0.0,-0.0007137882755982278,0.0014342864102308416,0.011408445750874728
2013,14,249,0.0002897763113622691,0.0002904668848212419,0.000287406571201056,6.905734589728214e-07,-0.010648029400987635,-0.008245253931773666,0.0003321904494580495,0.0012338089291006327,0.0009016184796425831,0.002382918659816731,0.0,-0.002382918659816731,-0.0006232849797003048,0.016941608159650488
2013,15,249,5.9946424120204267e-05,6.0862698446385716e-05,6.008123520232275e-05,9.1627432618145e-07,-0.01300677726467181,0.002243813424682606,0.00017554460310313595,-0.0006268213037401438,-0.0008023659068432797,0.0001923165095392161,0.0,-0.0001923165095392161,0.00030994343596963135,0.0077450093782268645
2013,16,249,0.00012685134826387134,0.00013062653742688954,0.00012654048536325706,3.7751891630182e-06,-0.032290472506903534,-0.0024566280089877157,0.00015158073071495118,0.0020965668372809887,0.0019449861065660376,0.0004058414472071386,0.0,-0.0004058414472071386,7.382078979070316e-05,0.011248779305073585
2013,17,249,0.00011558585052029833,0.0001097802115474976,0.00011043719391958934,-5.805638972800726e-06,0.005948923082653601,-0.046620675679769574,-0.0012467063843725197,0.0003611108404584229,0.0016078172248309426,0.00025530238566560893,0.0,-0.00025530238566560893,0.0010902240018450975,0.010452205774160313
2013,18,249,0.0006148739843148994,0.0005912658027672487,0.0006033581269703507,-2.360818154765066e-05,0.020041702701215414,-0.019086272032786455,-0.0014976014917993162,0.002227209275588393,0.003724810767387709,0.0025423933113003614,0.0,-0.0025423933113003614,0.0038282853675402056,0.024263189364035147
2013,19,249,0.00019642304870510761,0.00019760062406400816,0.00019623502603549435,1.1775753589005435e-06,-0.006958992266073771,-0.0009581504047053713,6.202232825708198e-05,-0.0004072070005349815,-0.0004692293287920635,0.00039115096169216817,0.0,-0.00039115096169216817,0.0014731825406397278,0.013930712804356015
2013,20,249,0.0006504273946338794,0.0006505887543989109,0.0006381921112464194,1.6135976503150063e-07,-0.019424626118113908,-0.019171787259425477,-0.0007278320106516881,-0.0020780160557478666,-0.0013501840450961785,0.0023168214866452937,0.0,-0.0023168214866452937,0.001943799327776975,0.02518757144743719
2013,21,249,0.00017721441189638023,0.00018079640626135753,0.00017943857315390124,3.581994364977299e-06,-0.00756711939685184,0.012395112257236773,0.00011887145509202797,-0.0006502740434370935,-0.0007691454985291215,0.0006539659672550037,0.0,-0.0006539659672550037,0.0007189098083527077,0.013376163195825456
2013,23,249,0.00045998416121238375,0.00046654097751687413,0.00045972490208242043,6.556816304490376e-06,-0.014826422070196354,-0.0005639440647851046,0.0011320988008056778,-0.001872519263997674,-0.0030046180648033516,0.00043509036615446174,0.0,-0.00043509036615446174,0.0008837684888071009,0.021422974941417733
2013,24,249,0.0002323401544545691,0.00024478942538290536,0.00023511516831137784,1.244927092833626e-05,-0.041146886187773735,0.01180278531895318,0.0006909453904772379,-0.0016097453190013766,-0.0023006907094786145,0.0007279886888581541,0.0,-0.0007279886888581541,0.002200030338921788,0.015174815808411037
2013,25,249,0.0001738956143897146,0.000180226520275843,0.00017552777060712632,6.330905886128401e-06,-0.026769266495349164,0.009298564049246005,0.0012795868288561043,-0.0011099696857854724,-0.002389556514641577,0.0004912165034381274,0.0,-0.0004912165034381274,0.0015616268668187064,0.013156332776878072
2013,26,249,0.00023537664381354702,0.00023906487173119871,0.0002351653873107287,3.6882279176516937e-06,-0.01658188079913958,-0.0008983316177357814,0.0007090175367263427,-0.0010941564105451107,-0.0018031739472714535,0.0005608418016182452,0.0,-0.0005608418016182452,0.0012348811119181932,0.015285301958095443
2013,28,249,0.00017303578677472812,0.00017787980432676902,0.00017028224886097944,4.844017552040899e-06,-0.04461742499062438,-0.016170434277014367,-0.0009352838149271816,-0.001972795696929097,-0.0010375118820019156,0.0002634522135481681,0.0,-0.0002634522135481681,0.0009391830613113492,0.013015382592852402
2013,29,249,0.00064816377960733,0.0006532268828821885,0.0006550888117980805,5.063103274858529e-06,0.0028422541834922654,0.010571134884356903,-0.0010352600870811078,-0.0011144422460347414,-7.918215895363358e-05,0.001755813476086261,0.0,-0.001755813476086261,-0.0013925846972707048,0.02555679008911346
2013,30,249,0.0001248844366957379,0.00012576631710462476,0.00012511777630102244,8.818804088868469e-07,-0.005183442535311666,0.0018649596578756977,0.002347743370566502,-0.00025208969600498676,-0.002599833066571489,0.0005979664856492599,0.0,-0.0005979664856492599,0.0011602846090910594,0.011125264757610439
2013,31,249,0.00026559095701133976,0.00026796400013740434,0.00026708466785133446,2.373043126064581e-06,-0.0032923353225178253,0.0055926491475959406,0.0007785956064860026,-0.0003976648731622845,-0.001176260479648287,0.00020772141991545656,0.0,-0.00020772141991545656,0.0009067873269616063,0.016317548976332086
2013,32,249,0.0001978215922340615,0.00019406282438489027,0.00019281727793424964,-3.7587678491712362e-06,-0.006459724273596201,-0.025953661173031994,0.0001908054567843556,-0.0004555344639811665,-0.0006463399207655221,0.0011078144337282887,0.0,-0.0011078144337282887,0.0011393592415530123,0.013839043986234648
2013,33,249,0.0004577686882955088,0.00045606310351296387,0.0004584016508290986,-1.7055847825449364e-06,0.005101524638720378,0.0013808033466830016,-6.38327594981136e-05,0.0008721997146494687,0.0009360324741475823,0.0006463671936775622,0.0,-0.0006463671936775622,0.0017767029765737997,0.02133647059291045
2013,34,249,0.00019945714649728503,0.00020062146048213168,0.00020532480376051051,1.164313984846645e-06,0.02290684414273103,0.028577440015817523,0.001136330157624984,0.0008307996904477477,-0.0003055304671772364,0.0006144411200612538,0.0,-0.0006144411200612538,0.00324601192443896,0.013956654697559533
2013,35,249,0.0003203313349340634,0.00032244815234488,0.0003218538309467103,2.1168174108166372e-06,-0.0018465568560162016,0.0047303958078379615,0.0018091795734133586,-0.00030697655165567994,-0.0021161561250690386,0.0009797962339699279,0.0,-0.0009797962339699279,0.0008145358207423991,0.017921784574741372
2013,36,249,0.00023550748509384994,0.0002325224860875496,0.00023235458699607769,-2.9849990063003564e-06,-0.0007225985664518486,-0.013569338735824,-0.0014127997090538822,-0.0005745238740928471,0.0008382758349610351,0.0009294285505709787,0.0,-0.0009294285505709787,-0.00014114173295853627,0.015242528202607833
2013,38,249,0.00029156033291057525,0.0002876369882931322,0.00028835950622614425,-3.923344617443058e-06,0.002505615099942071,-0.01110012541747385,-0.0011451215030677826,0.0005982791190035641,0.0017434006220713467,0.00030628299841048667,0.0,-0.00030628299841048667,0.0009029697033782443,0.016957126877538108
2013,39,249,0.00018580949255938664,0.00018658337496121,0.00018768106302583326,7.738824018233502e-07,0.005848688444780259,0.009972079421720959,0.0009351725948144155,0.002439427888020873,0.0015042552932064577,0.00036167553274308266,0.0,-0.00036167553274308266,0.0014447027764358338,0.013623285099915948
2013,41,249,0.00010044306264431048,9.927188663511482e-05,9.855824507743305e-05,-1.1711760091956549e-06,-0.007240810315982005,-0.01912389537168191,0.0016548134775525595,0.0013685149606317282,-0.0002862985169208314,0.0002830271192387071,0.0,-0.0002830271192387071,0.0004235217272510346,0.00991861252514581
2013,42,249,0.0004521691336027043,0.0004549332079925805,0.00044812509046592805,2.7640743898761926e-06,-0.015192448875321451,-0.009024362221208282,0.0012652119733842023,-0.0014854505425319076,-0.00275066251591611,0.0012737174135288793,0.0,-0.0012737174135288793,0.0015488749307333177,0.021112225768849524
2013,43,249,0.0002068677577710663,0.000206560501663791,0.0002063586339386599,-3.072561072753159e-07,-0.0009782373592910343,-0.002467179699191746,0.0011606372623558503,0.0014252017717808485,0.0002645645094249982,0.00030648861983369636,0.0,-0.00030648861983369636,0.0006417801329528639,0.014350844999497658
2013,44,249,0.00015381531212542548,0.00015823985718902824,0.00015676711266068984,4.4245450636027565e-06,-0.00939447377286351,0.018829207766639766,0.0012393838999022442,-0.0003952840925194323,-0.0016346679924216765,0.00039308616229792744,0.0,-0.00039308616229792744,0.0016652517005534071,0.012409433888558086
2013,45,249,0.0020388700817547865,0.0019046223062547018,0.0019120155261339307,-0.0001342477755000846,0.003866715399627463,-0.06634598615281861,-0.0056281504800999495,0.0007639570976607502,0.0063921075777607,0.005290449956894096,0.0,-0.005290449956894096,0.005220744954607217,0.04341381517734734
2013,47,249,0.00010359523023729678,0.00010399563495161705,0.00010304761977189967,4.0040471432026693e-07,-0.009199777557364675,-0.005314149580643024,0.0001596822796097721,0.002149763749912381,0.0019900814703026092,0.0001827688062763743,0.0,-0.0001827688062763743,0.0008543889999237903,0.010115218198769066
2013,48,249,9.603373115898532e-05,9.364565148592441e-05,9.459409122584145e-05,-2.3880796730609054e-06,0.01002641631867529,-0.015219131707780331,0.0006602293845400753,0.0016921126516535878,0.0010318832671135127,0.001315493837710438,0.0,-0.001315493837710438,0.0011263094576115578,0.00966051335238124
2013,49,249,0.0004204327460991015,0.0004160081915138632,0.0004181415959460295,-4.424554585238298e-06,0.005102110033658791,-0.005479364347592108,0.0013273250176964037,0.001716803526505828,0.00038947850880942424,0.0010312463466911346,0.0,-0.0010312463466911346,0.0014797321598968404,0.02039490104611926
2013,50,249,0.00015783059863594284,0.00016228451699504883,0.00015991332395719332,4.453918359105985e-06,-0.01482798918300432,0.013024088735770323,8.744622270266215e-05,-0.0007595201022922993,-0.0008469663249949614,0.0007873507323006412,0.0,-0.0007873507323006412,0.0011812210411902009,0.012590394783685016
2013,51,249,0.00023992813175250578,0.00024169279624708444,0.0002429314313601366,1.7646644945786569e-06,0.0050987025685281795,0.012362746108298128,0.00124087860905023,0.0003152645658701658,-0.0009256140431800641,0.000210199197005474,0.0,-0.000210199197005474,0.002122069849259485,0.015441122074350699
2013,52,249,0.00015351266762150803,0.00015302412129930253,0.000153033329101979,-4.885463222055052e-07,6.016860987412276e-05,-0.0031322491795864327,-0.00010122342341874977,0.0024205197114497423,0.002521743134868492,0.00030764247072108256,0.0,-0.00030764247072108256,0.0012121618858205335,0.012311132874944654
2013,53,249,0.00033148718415663503,0.00033370085468693275,0.0003271874729149238,2.213670530297723e-06,-0.019907185669368666,-0.013141429906851076,-0.000926150106282598,-0.001721758977510035,-0.000795608871227437,0.0005787108615127448,0.0,-0.0005787108615127448,0.0010306110906722482,0.018058939993662617
2013,54,249,0.00010083713233166637,0.00010586488554382627,0.00010310186880303863,5.0277532121598974e-06,-0.02679890066848345,0.021966007965371737,0.0006569972314149979,-0.0009243310196325183,-0.0015813282510475162,0.0004777698340103238,0.0,-0.0004777698340103238,0.0010324379829271153,0.010101284107203798
2013,55,249,0.0001979858464827537,0.0001961407135836593,0.000192474129997073,-1.8451328990944191e-06,-0.019049747551227014,-0.028636141832486972,0.0020697791593141824,-0.0019071835558861494,-0.003976962715200332,0.00043777925600049767,0.0,-0.00043777925600049767,7.664304427667633e-06,0.013873502486953704
2013,57,249,0.00023116294675796598,0.00023159879719049145,0.00023162781057704468,4.3585043252547225e-07,0.00012525864869572523,0.0020069430260580834,0.0008898232221962458,0.00015421301941387355,-0.0007356102027823722,0.0006522436042692381,0.0,-0.0006522436042692381,0.00017117569615969302,0.015218360932048133
2013,58,249,0.00037233243081661303,0.00036984362284122067,0.00037425089634561483,-2.4888079753923554e-06,0.011776253704210538,0.005126148120778606,0.0014820007240796186,0.0016979334177449346,0.000215932693665316,0.0008961623018096759,0.0,-0.0008961623018096759,0.0021468013172070534,0.019226079695300675
2013,59,249,0.00023945135464386555,0.0002397552005876372,0.00024257222880153496,3.0384594377165703e-07,0.011613152205492416,0.012865752081714255,0.0016764313820375495,0.001089970930479467,-0.0005864604515580826,0.0009095332795253959,0.0,-0.0009095332795253959,0.001837234705620268,0.015465988408052017
2013,60,249,0.00019279255975298033,0.00018459826809324556,0.00018757004292967674,-8.194291659734771e-06,0.01584354724248449,-0.027843021954532476,-0.0010017978857798748,0.0017914756899699569,0.0027932735757498317,0.00045478591473152455,0.0,-0.00045478591473152455,0.0017251587668175596,0.013586532676107958
2013,63,249,0.00015090600135410422,0.0001513705580723973,0.00015144266507325908,4.6455671829308915e-07,0.0004761339931973474,0.0035436758782293465,0.0006755577198353158,0.0001814198913052678,-0.000494137828530048,0.0003794949158821578,0.0,-0.0003794949158821578,0.0002894395346270684,0.01230280008083745
2013,64,249,0.0002957518120864612,0.0002957406917593446,0.00029976109421303034,-1.1120327116607986e-08,0.013412022211356733,0.013374924911769503,0.0025868470327981025,0.0014240160817280412,-0.0011628309510700614,0.0005050252424524943,0.0,-0.0005050252424524943,0.002123650263614429,0.017182875305689696
2013,65,249,0.00023525697810698878,0.0002424796891454854,0.0002421543426995796,7.222711038496615e-06,-0.001343549912335984,0.028483340483171915,0.0012067164552499012,-6.230924918781966e-05,-0.0012690257044377208,0.0007489967334728132,0.0,-0.0007489967334728132,0.002579584953770888,0.015346011995494414
2013,66,249,0.0003820858423297494,0.0003845690717336722,0.00038147219165988495,2.4832294039227884e-06,-0.008118232839756656,-0.0016086380168218728,0.0013641733451780066,-0.0004718407492263684,-0.001836014094404375,0.0006120059289778225,0.00041084849818635145,-0.00020115743079147106,0.0016954404047514048,0.019457586527979808
2013,67,249,0.00013433665610284226,0.00013404749543698835,0.00013396471861845604,-2.891606658539088e-07,-0.0006179001410666629,-0.002776383873470012,0.0003776728609449653,-0.00015493447426706553,-0.0005326073352120308,0.00048135771968671606,0.0,-0.00048135771968671606,0.00018966768853016151,0.011572758737067998
2013,68,249,0.0008061381102531691,0.0007712683942864532,0.0007576658619361939,-3.486971596671591e-05,-0.01795320738814654,-0.06397575864524985,0.0074695592529204,-0.00313241477124393,-0.01060197402416433,0.0012566768174371603,0.0,-0.0012566768174371603,0.0006050459993275667,0.027519080313028115
2013,69,249,0.0001224501227632062,0.00012596567965792759,0.00012407718628595045,3.515556894721387e-06,-0.015220311070117898,0.013113317374835454,0.0010160620821767065,-0.0005812879535369575,-0.001597350035713664,0.00024462966815401216,0.0,-0.00024462966815401216,0.0013337603829694433,0.011058854801776341
2013,71,249,0.00024026052593897304,0.00023687635643380937,0.00023421421293545063,-3.384169505163669e-06,-0.011366276473974812,-0.025815312092903442,-0.0013778469858159981,-0.0007792073884047568,0.0005986395974112413,0.0005302156778293778,0.0,-0.0005302156778293778,0.001318634406445399,0.015247144527339832
2013,72,249,0.0004591317533434544,0.0004559009496293771,0.00044846803687478945,-3.230803714077287e-06,-0.01657400782982199,-0.02377809696980071,0.0018549884209431797,-0.0026228432543575764,-0.004477831675300756,0.001087841130390484,0.0,-0.001087841130390484,0.00010553547504954564,0.021176800965639158
2013,73,249,0.00041658657174543765,0.0003996339959799999,0.00039972308777259827,-1.695257576543775e-05,0.00022288377960555383,-0.04218791580643688,-0.002191866770476462,1.9160277588525787e-05,0.0022110270480649877,0.0006372512965966492,0.0,-0.0006372512965966492,0.002334488851281845,0.019856315105674545
2013,74,249,0.00025675965007630356,0.00025354085879951025,0.0002466907359630233,-3.2187912767933104e-06,-0.02776805869805221,-0.040815939333812334,-0.0015922895292321362,-0.0012048769276589155,0.00038741260157322066,0.0005071788930856287,0.0,-0.0005071788930856287,0.0022402264919169556,0.015545807191263398
2013,76,249,8.12613221352596e-05,8.229394634640028e-05,8.174516436022568e-05,1.0326242111406887e-06,-0.006713326598210667,0.005918909439510567,0.00021404581122010588,-0.0005578172276727855,-0.0007718630388928914,0.0005734790772361261,0.0,-0.0005734790772361261,0.0002129926388947245,0.00903879408416866
2013,77,249,0.00019492475036825003,0.00020050578887353555,0.00019587551148477094,5.581038505285521e-06,-0.02363887835526901,0.004853904958889266,0.0012112435918435994,0.0025787134654819965,0.0013674698736383971,0.0007942787022780887,0.0,-0.0007942787022780887,0.0003915684653076582,0.013990074539535076
2013,78,249,0.000339654912491619,0.0003389104883706954,0.00033964322223365735,-7.444241209236075e-07,0.00215736341842232,-3.441922934532826e-05,-0.00022508203983306885,0.001092744513366177,0.0013178265531992458,0.0013720128611906753,1.4214943902503116e-06,-0.001370591366800425,0.0008804983474950481,0.01840836616578766
2013,79,249,0.00010702914224358275,0.00010105210546003293,0.00010077172738610029,-5.977036783549826e-06,-0.0027823088995824197,-0.06209494487980338,-0.0017617239680395547,-0.00015117556904442608,0.0016105483989951287,0.00030486222518724,0.0,-0.00030486222518724,0.0008517382235914964,0.010002313201683573
2013,80,249,0.0014850092342146046,0.0014444379603291346,0.0014499167316965982,-4.0571273885469956e-05,0.0037786800080944483,-0.024203115772685413,-0.0018842069256347585,0.0010366692440584302,0.0029208761696931885,0.0029126121035888304,0.0,-0.0029126121035888304,0.003160822280877604,0.037946356006938346
2013,81,249,0.00023136889232581618,0.00024140990218325537,0.00023091016851798916,1.0041009857439186e-05,-0.04547107532186567,-0.0019865898967168505,-0.0011209243265435055,0.0026119959075003862,0.0037329202340438917,0.0009268662842320938,0.0,-0.0009268662842320938,-0.000703908270665337,0.01517941638089153
2013,82,249,0.0003629406511904042,0.0003586209523055371,0.0003577788110310444,-4.3196988848671035e-06,-0.002353804217935185,-0.014427461884856774,-0.0012448608546132543,-0.00035763252526521683,0.0008872283293480374,0.0009276571277469272,0.0,-0.0009276571277469272,0.0009985672455761483,0.018888665238367346
2013,83,249,6.555175000324297e-05,6.579421378879267e-05,6.500089821643539e-05,2.424637855497075e-07,-0.012204686306268586,-0.008474525766911656,-0.0007728305476975728,-0.0008949097245931625,-0.00012207917689558974,0.00024615137453248094,0.0,-0.00024615137453248094,-4.217097326513895e-06,0.008062312350220967
2013,84,249,6.786712906613199e-05,6.666211296688935e-05,6.674790430422507e-05,-1.205016099242639e-06,0.0012853038343301204,-0.016767938612809452,0.0005175152505527299,-7.050509157124907e-05,-0.000588020342123979,0.0004555885298431498,0.0,-0.0004555885298431498,-0.0006436578071922279,0.008144544734450511
2013,85,249,0.0007871714725688445,0.0007730806000673312,0.0007711614885942627,-1.4090872501513335e-05,-0.0024885986935976323,-0.02076087072730526,0.0003342120852096971,0.0006060817977413535,0.0002718697125316564,0.004526397425341657,0.0,-0.004526397425341657,-0.001280170707400504,0.027740271295612386
2013,86,249,8.281902690003454e-05,8.847872488960959e-05,8.320109685958718e-05,5.6596979895750545e-06,-0.06343219295448832,0.004592126473974778,0.0007366491724778131,-0.001939781242981553,-0.002676430415459366,0.0006191074349125977,0.0,-0.0006191074349125977,0.00039047618510600697,0.009113101843414911
2013,88,249,0.000554013367585858,0.000548371222304183,0.0005498588512702343,-5.642145281675075e-06,0.002705474255101592,-0.0075556050539631325,-0.0011921520812444419,0.0003333795757498592,0.001525531656994301,0.0009557890188689524,0.0,-0.0009557890188689524,0.0023978237178790673,0.023326150404389723
2013,89,249,0.0001018422546329768,0.00010175356188205775,0.00010164302152457406,-8.869275091905092e-08,-0.0010875351384251886,-0.0019601257953019147,0.00025956068247796064,0.0017659171717241406,0.00150635648924618,0.00047567690241068347,0.0,-0.00047567690241068347,0.0008516603009669419,0.010045780022294485
2013,90,249,0.0002695841950640195,0.00023660509719130077,0.00023648706916339014,-3.29790978727187e-05,-0.0004990887168934144,-0.13995321612177603,0.006523466942061382,0.00217837980017066,-0.004345087141890722,0.000710283667706838,0.0,-0.000710283667706838,0.0010620991173163365,0.015341415013889234
2013,93,249,0.00039056290736866843,0.0003877573739331788,0.0003911224730284404,-2.805533435489612e-06,0.008603696609928324,0.0014306660914655822,0.0009380403352549756,0.0026947525329887867,0.0017567121977338112,0.0013140176220287725,0.0,-0.0013140176220287725,0.001971756252052851,0.019678278641967924
2013,94,249,0.00010000616189030215,0.0001050587724267271,9.956717098006446e-05,5.052610536424943e-06,-0.05515474018803013,-0.004408992501409692,-0.00035310553080106834,-0.0019326170440763235,-0.0015795115132752552,0.000407670769089272,0.0,-0.000407670769089272,0.0004544596181101424,0.009967980609710858
2013,95,249,0.0001789690521373419,0.0001789518693995215,0.00017915355102714355,-1.7182737820396277e-08,0.0011257473070767077,0.001029836633122061,0.000576878699612426,0.0008009499870240688,0.00022407128741164283,0.0005247866304876688,0.0,-0.0005247866304876688,0.0005263765047734258,0.01337447115972688
2013,97,249,0.00016328362083681177,0.0001632778154156825,0.000164214269944524,-5.805421129283575e-09,0.005702637956846668,0.005667285236700903,0.000481315693971383,0.0015072680544108152,0.0010259523604394323,0.0003103074229521389,0.0,-0.0003103074229521389,0.001064280340613704,0.012770339748851915
2013,98,249,7.797599281010206e-05,7.742259771881474e-05,7.657495119199637e-05,-5.533950912873159e-07,-0.011069501365963186,-0.018296343599264686,0.000858686714766016,0.0005221397150307894,-0.00033654699973522664,0.0005026729532497957,0.0,-0.0005026729532497957,-0.0005506348475827769,0.008733370051510692
2013,99,249,0.00035574319258772913,0.0003414641186726927,0.0003445546532368853,-1.4279073915036435e-05,0.008969649764293819,-0.03247246625675837,0.0016725935849798731,-0.0022287580650299788,-0.003901351650009852,0.0009046415527588949,0.0,-0.0009046415527588949,-0.0018077101330691398,0.018473950235715273
2013,100,249,0.00035802703839688346,0.00035836953981579735,0.000357692655404626,3.425014189138947e-07,-0.0018923631809149022,-0.000934833263152246,0.00142050455193443,0.0025805772747844458,0.0011600727228500158,0.0007829260511976079,0.0,-0.0007829260511976079,0.0011591388326983203,0.01887720987251974
2013,101,249,0.00014072239691399627,0.00014221752501275726,0.00014108534002461084,1.4951280987609943e-06,-0.008024823755245825,0.0025725076081700715,0.000831084281026599,-0.0004003412614110857,-0.0012314255424376846,0.0005909824092508354,0.0,-0.0005909824092508354,0.0012138542241844083,0.011815747879293993
2013,102,249,0.004238830813947244,0.004212252169832345,0.004200162022936773,-2.6578644114898763e-05,-0.0028784953603095964,-0.009206499844363947,0.0019683853973705605,-0.0020890063606202602,-0.004057391757990821,0.005149968934121503,0.0,-0.005149968934121503,0.0018492522250057935,0.06478226832355505
