bmulder03/bachelors-thesis/results/shrinkage_diagnostics_F1_L30/asset_year_stats.csv
test_year,asset_id,n_obs,mse_sep,mse_joint,delta_mse,mean_pred_sep,mean_pred_joint,delta_mean_pred,std_pred_sep,std_pred_joint,delta_std_pred,mean_true,std_true
2011,0,254,0.00044133329488985925,0.0004460737494860222,4.740454596162944e-06,-0.0012381465621585921,0.0020010294392704964,0.0032391760014290885,0.00011894175203567866,0.0,-0.00011894175203567866,-0.00031635381552758005,0.020992938916130896
2011,1,254,0.0004589040389566302,0.0004608457087468029,1.9416697901726934e-06,-0.00019313432056251474,0.0004810625105164945,0.0006741968310790093,7.517494867458623e-05,0.0,-7.517494867458623e-05,-0.0014662664290772155,0.02137881237926521
2011,3,254,0.0006548163224711824,0.0006615983957212092,6.782073250026803e-06,0.00025804748568009203,0.001609473954886198,0.001351426469206106,0.0002099951635257958,0.0,-0.0002099951635257958,-0.0013210038938836093,0.025554073947202185
2011,4,254,7.094424659615549e-05,7.108411264150907e-05,1.398660453535885e-07,0.0006007256763657247,0.0006447207365060357,4.399506014031104e-05,4.4666800181941624e-05,2.5940473790390394e-07,-4.440739544403772e-05,0.00011087411022314347,0.008414239420770839
2011,5,254,0.0006274343499219951,0.0006354465421415063,8.0121922195112e-06,0.0001560938581237643,0.001410984667018056,0.0012548908088942917,0.00044065704562409847,0.0,-0.00044065704562409847,-0.0007606921605777137,0.025114345738999243
2011,7,254,0.0005318416237741427,0.0005625187694260745,3.067714565193182e-05,0.0007039424999961703,0.00014106307935435325,-0.000562879420641817,0.004746935038350683,0.0,-0.004746935038350683,0.00016264436534428332,0.02371746832345665
2011,8,254,0.0010009930816861727,0.0009981943903976823,-2.798691288490463e-06,0.0006859569451001685,-0.002241265494376421,-0.0029272224394765894,0.0006084946140702993,0.0,-0.0006084946140702993,-0.0015346182837623836,0.03158631096088007
2011,10,254,0.0006763662745799093,0.0006995509223437581,2.3184647763848732e-05,0.0016128742612722352,0.004191005602478981,0.002578131341206746,0.00016381973427360416,0.0,-0.00016381973427360416,-0.0017163044255996422,0.025780896232984598
2011,12,254,0.000575381446499266,0.0005747397054648119,-6.41741034454078e-07,-0.0005909418797223117,-0.001099762856028974,-0.0005088209763066624,8.043497847339195e-05,0.0,-8.043497847339195e-05,-0.0017795261549306582,0.02396409037126755
2011,13,254,0.00032065051902370955,0.000321319651489243,6.691324655334592e-07,0.0009157292867504706,0.0011874641058966517,0.00027173481914618115,0.00027809258936473585,0.0,-0.00027809258936473585,-0.001179956176294687,0.017768370006748274
2011,14,254,4.6624181353913006e-05,4.688768052602251e-05,2.634991721095045e-07,-0.00046072425100747053,0.0005031973123550415,0.000963921563362512,0.0001572685406944971,0.0,-0.0001572685406944971,-0.00027828206665994897,0.006802717876422396
2011,15,254,0.00011276898736867716,0.00011269201336365419,-7.697400502297482e-08,0.00032287096150043445,0.00042415561620146036,0.00010128465470102591,0.0002865889913935373,0.0,-0.0002865889913935373,-0.00025341006236552727,0.01059400387553649
2011,16,254,0.00026530912274741513,0.000273241795287413,7.932672539997859e-06,0.0007064479190533556,0.002951171947643161,0.002244724028589805,0.00022881769558051867,0.0,-0.00022881769558051867,-0.00016610283885793193,0.016233434423832106
2011,17,254,0.00020829804178895887,0.0002065234592002541,-1.774582588704777e-06,0.0022330884858379214,0.0004159578529652208,-0.0018171306328727006,0.0003816330756508898,0.0,-0.0003816330756508898,0.0009090896157635795,0.014362460801157065
2011,18,254,0.00094674021636361,0.0009405619733783328,-6.178242985277211e-06,0.0012243975863212675,7.519022619817406e-05,-0.0011492073601230934,0.0006460495264987482,0.0,-0.0006460495264987482,-0.0018217654067847202,0.030609860056929797
2011,19,254,0.0004194431401937306,0.0004183850826130228,-1.0580575807078501e-06,0.0010177338950511977,0.0008790518040768802,-0.0001386820909743175,0.0002476169452213741,0.0,-0.0002476169452213741,0.0003069581875896326,0.020446461588915495
2011,20,254,0.0008367283028024568,0.0008362811230803202,-4.471797221366862e-07,-0.00043659763572018916,-0.0006671517039649189,-0.0002305540682447297,0.00026742434298403526,0.0,-0.00026742434298403526,-0.002956471667233794,0.028827766774172762
2011,21,254,0.0002692253990593354,0.000268485004734504,-7.403943248313559e-07,0.0009448680821366197,0.0005389399593695998,-0.0004059281227670199,7.941902045202578e-05,0.0,-7.941902045202578e-05,7.411202164594376e-05,0.01637891753818963
2011,23,254,0.0005298270687929277,0.0005310223781403602,1.1953093474324945e-06,0.0010881724173393776,0.0012357617961242795,0.00014758937878490194,0.00018095738857155336,0.0,-0.00018095738857155336,-0.002093888621940303,0.022802100917105043
2011,24,254,0.0008304368969593264,0.0008290935088933253,-1.343388066001104e-06,0.0022136800753788685,-0.0010629902826622128,-0.0032766703580410813,0.000334387271911354,0.0,-0.000334387271911354,0.00027476009157473323,0.028762891593675937
2011,25,254,0.0005466248295047647,0.0005392969108357407,-7.327918669023997e-06,0.002659510315109895,0.001176756341010332,-0.001482753974099563,0.0005145545433894802,0.0,-0.0005145545433894802,6.170925510203477e-05,0.023195981997577678
2011,28,254,0.00036142039322851365,0.00036409710667435063,2.676713445836981e-06,0.00028643339109702374,0.0015163510106503963,0.0012299176195533727,3.367668332357004e-05,0.0,-3.367668332357004e-05,-0.00017491500015196277,0.019006228609459976
2011,29,254,0.0009801684554422935,0.0009726735318842718,-7.494923558021651e-06,0.000985674193407607,-0.00010431218834128231,-0.0010899863817488893,0.0006055120988604032,0.0,-0.0006055120988604032,-0.003490600003501789,0.031003331864771687
2011,30,254,0.0002515854198733305,0.0002515507111736959,-3.470869963461505e-08,0.0012238177463529617,-0.0010063776280730963,-0.002230195374426058,4.246157422615096e-05,0.0,-4.246157422615096e-05,9.327576723489357e-05,0.015822182958867698
2011,31,254,0.0006044733743443488,0.0006024086961526142,-2.0646781917346224e-06,0.00122217335334913,-0.0009492543758824468,-0.0021714277292315767,0.00011429856790918091,0.0,-0.00011429856790918091,-0.00034279172489799136,0.024536521742202465
2011,32,254,0.0011043469825113275,0.001098550268394318,-5.796714117009419e-06,0.0006450090234673868,-0.0006999194156378508,-0.0013449284391052374,0.00025102951922838224,0.0,-0.00025102951922838224,-0.002059238864026747,0.03311649919649644
2011,34,254,0.00047911756796881015,0.0004762357951449847,-2.8817728238254305e-06,0.0012642264835477815,0.0004310430376790464,-0.0008331834458687351,0.00047839546037567823,0.0,-0.00047839546037567823,-0.0009254261078936398,0.02178062870079957
2011,35,254,0.0006132295271361954,0.0006099422063979127,-3.2873207382827594e-06,0.0024711113335110072,0.0021173518616706133,-0.00035375947184039394,0.00014696213202053092,0.0,-0.00014696213202053092,-0.00012096037337334035,0.024595368766016992
2011,36,254,0.000463083526901298,0.00046441640443488597,1.3328775335879435e-06,-0.0001411213150878591,0.00015799503307789564,0.00029911634816575473,0.00014983596482552757,0.0,-0.00014983596482552757,-0.001970162135194858,0.02144498429708017
2011,38,254,0.0007218964691015968,0.0007443422841138695,2.2445815012272683e-05,-0.001385578416346565,0.003252880647778511,0.004638459064125076,0.00032480397088234357,0.0,-0.00032480397088234357,-0.0016482961992865654,0.026838791880926072
2011,39,254,0.0007541160281462493,0.0007469350518955885,-7.180976250660792e-06,0.0015512728462303718,-0.0014170482754707336,-0.0029683211217011053,0.00035307165899380765,0.0,-0.00035307165899380765,-0.0009993040210875403,0.02732691972457779
2011,41,254,0.0003170182463446734,0.00031508400291628194,-1.9342434283914703e-06,0.0018643399509857958,0.001268523190661854,-0.0005958167603239417,0.00026717147555796743,1.864718779762061e-08,-0.0002671528283701698,-0.0005273706708957903,0.017659524421505174
2011,42,254,0.0008198233714028292,0.0008186326137954584,-1.190757607370807e-06,1.3255990865662342e-05,-0.002297320868819952,-0.0023105768596856143,0.0003690443011249577,0.0,-0.0003690443011249577,-0.0018240991414227273,0.028607842893028066
2011,43,254,0.0002773034916847074,0.0002683652533791725,-8.938238305534866e-06,0.0031203742058375688,5.095847518532537e-05,-0.0030694157306522434,0.00036537797576627546,0.0,-0.00036537797576627546,-4.942666514396686e-05,0.016381549871815348
2011,44,254,0.00025515878082815383,0.0002538331832165914,-1.3255976115624413e-06,0.001286335157479827,-0.0008962006540969014,-0.0021825358115767283,0.00015186945929642368,0.0,-0.00015186945929642368,3.7465313950649686e-05,0.015904761899402996
2011,45,141,0.0017733980946555506,0.0012484839582338108,-0.0005249141364217398,0.018207661305547605,-0.002095489064231515,-0.02030315036977912,0.000377696086962765,0.0,-0.000377696086962765,-0.004837902233659018,0.03522730657092535
2011,46,82,0.0002532276697310807,0.00025362435225131214,3.966825202314137e-07,0.0008568068648256907,-0.0006646827096119523,-0.0015214895744376429,8.017525857074893e-05,0.0,-8.017525857074893e-05,0.0003075985757621355,0.015895880641015877
2011,47,254,0.00027507500732699394,0.00027165392638324345,-3.4210809437504883e-06,0.0009869739237263447,-0.000797953107394278,-0.0017849270311206227,0.00014697116756745492,0.0,-0.00014697116756745492,-0.0006047737070721356,0.016480795129560185
2011,48,254,0.000607464420619523,0.0006142365209316016,6.772100312078572e-06,0.001622829146272554,-0.0037139211781322956,-0.00533675032440485,0.00010906077942079229,0.0,-0.00010906077942079229,-0.00047202375070754763,0.024570849028913468
2011,49,254,0.0006580244848586185,0.0006557788479134184,-2.2456369452001452e-06,0.001296786723409112,0.0008824904798530042,-0.00041429624355610777,0.0002810040248625807,0.0,-0.0002810040248625807,-0.0012005333881158562,0.02552331991491095
2011,50,254,0.00031408106084238334,0.0003150635855489867,9.825247066033737e-07,0.0011603742045915033,0.0014233516994863749,0.00026297749489487157,5.887039633064876e-05,0.0,-5.887039633064876e-05,-0.0004753191108598343,0.017648190692049013
2011,51,254,0.0006829046569787938,0.0006728016608086693,-1.0102996170124477e-05,0.0021923600923357987,0.000617978279478848,-0.0015743818128569507,0.0003163195293040011,0.0,-0.0003163195293040011,-0.0014336824020734803,0.025857152767782478
2011,52,254,0.0002374591395882908,0.00023667836830764346,-7.807712806473435e-07,0.0010390272877347751,0.0007506714318878949,-0.00028835585584688025,0.0002156179948383162,0.0,-0.0002156179948383162,-0.0003000884279908931,0.015348428975778296
2011,53,254,0.0005990259826348904,0.0006073220283362857,8.296045701395227e-06,-1.041652766738351e-05,0.001948263612575829,0.0019586801402432124,3.8184012947772383e-05,0.0,-3.8184012947772383e-05,-0.0011359616771437272,0.024450144840031926
2011,54,254,0.00040928362897354467,0.00040839120621148536,-8.924227620593053e-07,0.0001349393718355284,-0.00014577203546650708,-0.00028071140730203547,0.00031009982283391324,0.0,-0.00031009982283391324,-0.0006178101450653975,0.020203177627159834
2011,55,254,0.00046461046832366887,0.0004649237993380368,3.133310143679292e-07,-0.0003492389842281191,-0.00021338251826819032,0.0001358564659599288,5.7019290365313313e-05,0.0,-5.7019290365313313e-05,-0.0009838089900803986,0.021548323424098865
2011,57,254,0.0004993018063015059,0.000490803034361996,-8.49877193950983e-06,0.0019112146774849553,0.0005423503462225199,-0.0013688643312624355,0.00011312991211618824,0.0,-0.00011312991211618824,-0.001740874604448699,0.022036104877827842
2011,59,254,0.0005526902514500879,0.0005488824381162622,-3.807813333825622e-06,0.0021116970414955783,0.0005917539820075035,-0.0015199430594880748,0.00031581909731172796,0.0,-0.00031581909731172796,-0.00014083594180163244,0.02341678351353565
2011,60,254,0.0004396657043318619,0.0004390849586506073,-5.807456812545616e-07,0.0014246840059287905,0.0012383131543174386,-0.0001863708516113519,6.882959543464174e-05,0.0,-6.882959543464174e-05,-0.000884983896033121,0.02084650014478639
2011,61,254,0.0005872639526843791,0.00058763705029134,3.730976069609435e-07,0.000438950193209911,0.00048398787367036637,4.5037680460455394e-05,0.000134816714276158,6.186377431215753e-08,-0.00013475485050184585,-0.0015046137830534293,0.024159521796983642
2011,63,254,0.00020130536127293392,0.00019821727835579088,-3.088082917143036e-06,0.0021129991477868686,0.0011594138341024518,-0.0009535853136844168,8.704330853469431e-05,0.0,-8.704330853469431e-05,0.00011068156288989529,0.014039851814713284
2011,64,254,0.0007234588937878164,0.0007227434759283272,-7.154178594891798e-07,-0.00027412868390871785,-0.0005512690986506641,-0.00027714041474194624,0.00023001856059261215,0.0,-0.00023001856059261215,-0.003443091354652608,0.02672790377055445
2011,65,254,0.0008591141048474345,0.0008572154372844422,-1.8986675629922584e-06,0.0013943488496964372,0.0010981233790516853,-0.0002962254706447519,0.0001229634717848622,0.0,-0.0001229634717848622,-0.0010411074156823485,0.02919998508375138
2011,66,254,0.0010414413768745719,0.0010460212775032765,4.579900628704642e-06,-9.367758716185262e-05,0.00011799053754657507,0.0002116681247084277,0.0002925243480779507,0.0,-0.0002925243480779507,-0.003007915891741725,0.032190836995931144
2011,67,254,0.0003888097740008562,0.0003960409251861215,7.231151185265329e-06,0.0008144454927895013,0.0024776961654424667,0.0016632506726529655,6.087330477571306e-05,0.0,-6.087330477571306e-05,-0.0005896044450180425,0.019662975160213928
2011,68,254,0.0064989766805710935,0.006482379496993731,-1.6597183577362652e-05,-0.0004895860329270363,-0.0007955402252264321,-0.0003059541922993958,0.0007825129242797391,0.0,-0.0007825129242797391,-0.0037047368939998244,0.0804606492127433
2011,69,254,0.000600620067537412,0.0005746006943402287,-2.601937319718329e-05,0.0038522328983435013,-0.00034757936373353004,-0.004199812262077031,0.000682759991681999,0.0,-0.000682759991681999,-0.0014317314851215036,0.023946300518408244
2011,71,254,0.000707660371701253,0.0007134282487786515,5.767877077398503e-06,0.0004171985164871366,0.0013403291681114086,0.000923130651624272,0.00012063076875989667,2.079333549541726e-07,-0.0001204228354049425,-0.0018455154844054852,0.0265193732835427
2011,72,254,0.001732510469124973,0.0017430231229230236,1.0512653798050485e-05,-0.003617737940915926,-0.0052321371622383595,-0.0016143992213224333,0.0003729771067525735,0.0,-0.0003729771067525735,-0.0012156856610195375,0.04155588093472909
2011,73,254,0.0010084579834098541,0.001018462424065069,1.000444065521488e-05,0.000638917645835501,0.0016283279983326793,0.0009894103524971782,0.00032089718488851926,0.0,-0.00032089718488851926,-0.002715003532023185,0.0316164181286003
2011,74,254,0.00046845958144333256,0.000468824455573122,3.648741297894247e-07,0.0003007665995185769,-0.0003469720541033894,-0.0006477386536219664,0.00039926453782357894,0.0,-0.00039926453782357894,-0.0007913073909951812,0.021647794845699904
2011,76,254,4.554731272299626e-05,4.5665458702138506e-05,1.1814597914224797e-07,0.0004578355670444609,0.0004683801089413464,1.0544541896885518e-05,6.649866193551074e-05,0.0,-6.649866193551074e-05,7.098062360119826e-05,0.006745927093527607
2011,77,254,0.00023015878505694323,0.00022724882088388917,-2.9099641730540547e-06,0.0015378777289719093,-0.0018433522200211883,-0.0033812299489930976,0.00011955817028788706,0.0,-0.00011955817028788706,-0.0005911212266973501,0.015022674143548749
2011,78,254,0.0009102002312726644,0.0009090012805305068,-1.1989507421576338e-06,0.0025757022026016954,0.0023922608233988285,-0.00018344137920286692,0.00011113757422578028,0.0,-0.00011113757422578028,0.0007490653834618298,0.03010483664258412
2011,79,254,0.0003686327636532193,0.0003661161398371998,-2.5166238160194985e-06,0.0018898107580781922,0.00042150638182647526,-0.001468304376251717,0.00014809262578510576,0.0,-0.00014809262578510576,0.00019012564689087932,0.0191327625499482
2011,81,254,0.0014721955413776213,0.001451330146224067,-2.0865395153554312e-05,0.0041152207899516026,0.0010505336103960872,-0.0030646871795555154,0.0006748652925525082,0.0,-0.0006748652925525082,-0.0015094516398203106,0.038010217333537315
2011,82,254,0.001003237933584568,0.0010036473179594043,4.0938437483625627e-07,0.0007419445676597084,0.0007152531761676073,-2.6691391492101126e-05,0.00014279667963997057,0.0,-0.00014279667963997057,-0.0006158519829936692,0.031652416606234954
2011,83,254,0.0002209655467378142,0.00021948781340524725,-1.4777333325669527e-06,0.0012998372815021379,-0.0012348797172307968,-0.0025347169987329347,6.54363034216322e-05,0.0,-6.54363034216322e-05,-0.0003191012132354954,0.01478679015665223
2011,84,254,0.0001074278546972521,0.00010796126181018351,5.334071129314095e-07,0.00036279516895924965,-0.000463943462818861,-0.0008267386317781107,0.0001270416520627254,0.0,-0.0001270416520627254,0.00041716831057806954,0.010353014239967252
2011,85,254,0.0005196472057091148,0.0005172627197779819,-2.3844859311329203e-06,0.0010794929309388783,2.1817257220391184e-05,-0.0010576756737184871,0.00024185408933925594,0.0,-0.00024185408933925594,-0.0007208839120286344,0.02273128053478681
2011,86,254,0.00011490531261022506,0.00011499797076917038,9.265815894532437e-08,0.00016934523500106114,-0.00028613552152762173,-0.0004554807565286829,2.9655000219438826e-05,2.7329908706917367e-08,-2.9627670310731908e-05,-1.2339857230329035e-05,0.010720216644765187
2011,88,254,0.0007405594663028578,0.0007408901656708136,3.30699367955792e-07,-0.0028937007410554435,-0.0004500877112150192,0.0024436130298404243,0.0003563612558108455,0.0,-0.0003563612558108455,-0.001422313496156119,0.027201929025234762
2011,89,254,0.0001832801245876021,0.0001831758682132968,-1.0425637430531423e-07,-6.499334319135335e-05,0.0007084650108975717,0.000773458354088925,0.00023712617759257996,2.2851434865125957e-07,-0.0002368976632439287,1.455227846186962e-05,0.013516446081719046
2011,90,254,0.0008651965624069111,0.0008711460940006864,5.949531593775286e-06,0.0014654910118561092,-0.0023443943355232477,-0.003809885347379357,0.0004949943082937446,0.0,-0.0004949943082937446,0.0005067175373250759,0.029377155326702223
2011,93,254,0.0006215291769673724,0.0006144437563989401,-7.085420568432284e-06,0.0023106083596550575,-0.0015207446413114667,-0.003831353000966524,4.731027822112548e-05,0.0,-4.731027822112548e-05,-0.0005401459798184895,0.024768572479333943
2011,94,254,0.00038909120646480184,0.00038637670580404397,-2.7145006607578754e-06,-0.00021737639418267828,-0.0005381252849474549,-0.00032074889076477665,0.0006535492446025153,0.0,-0.0006535492446025153,-0.000705443451878736,0.019655755147921918
2011,97,254,0.0006090946905765609,0.0005990593621743367,-1.0035328402224178e-05,0.0023400067227093255,-0.00019011262338608503,-0.0025301193460954105,6.349087029268128e-05,0.0,-6.349087029268128e-05,-0.0008730010279303388,0.024466160826767967
2011,98,254,0.00012139066408894359,0.00012118864201633374,-2.0202207260984885e-07,0.0008430924398575242,0.0006808934849686921,-0.00016219895488883218,7.90018487043759e-05,0.0,-7.90018487043759e-05,0.0004049207473634181,0.011005111588004563
2011,99,254,0.000838595600534624,0.000841282643073596,2.6870425389719345e-06,-0.0008702814381012298,-0.0016192616894841194,-0.0007489802513828897,0.0002305455759684401,0.0,-0.0002305455759684401,0.0012919826735053174,0.028858400845032228
2011,100,254,0.0008788260349467742,0.0008613557562675895,-1.7470278679184662e-05,0.002980281173537566,-0.00026763498317450285,-0.0032479161567120687,0.00016823948694752962,0.0,-0.00016823948694752962,-0.001606165300106738,0.029318323500129445
2011,101,254,0.00019038898879335624,0.0001907739722662074,3.84983472851146e-07,-0.00041309697828512256,-0.0005470511969178915,-0.00013395421863276894,0.00011976198429178037,0.0,-0.00011976198429178037,0.0007566838867610726,0.013750427160557296
2011,103,254,0.0005579998497755884,0.000547830125267437,-1.0169724508151475e-05,0.0033677235451035612,0.0019510743441060185,-0.0014166492009975427,0.00014581099342528508,0.0,-0.00014581099342528508,-0.0007905558554898853,0.023244646461413446
2011,104,254,0.0002851472049005317,0.000283973358901751,-1.1738459987806703e-06,0.0014044715487581537,0.0002497366804163903,-0.0011547348683417634,0.0002719529220370244,0.0,-0.0002719529220370244,0.00015087450223088186,0.016851219100453094
2011,105,254,0.0004030197114086526,0.00040647637249585286,3.45666108720027e-06,0.0012929464688553936,0.0018938332796096802,0.0006008868107542865,3.99477366035214e-05,0.0,-3.99477366035214e-05,-0.0012964930319423614,0.01990723965098306
2011,106,254,0.00028669793398313756,0.00028819511835557744,1.4971843724398849e-06,0.00022880463882928758,-0.0012162427883595228,-0.0014450474271888105,0.00020914019718907217,0.0,-0.00020914019718907217,0.00016550945228083596,0.01691998460699839
2011,107,254,0.0002637448202443373,0.00026631519983878044,2.5703795944431425e-06,0.0010791476082614088,0.0017970189219340682,0.0007178713136726594,0.0002469278147586194,0.0,-0.0002469278147586194,0.00012277896024113867,0.0162330564093596
2011,108,254,0.00023890079023994266,0.00023900921924915961,1.0842900921695158e-07,0.0002489758758094367,0.00021214011940173805,-3.6835756407698666e-05,5.2626922008899825e-05,0.0,-5.2626922008899825e-05,7.5529335060641334e-06,0.015458569252441415
2011,109,254,0.0005014001682825336,0.0005067256988311561,5.325530548622539e-06,0.0011901485029696011,0.0023604976013302803,0.0011703490983606792,0.0001373578561661671,0.0,-0.0001373578561661671,-0.0002601569324502548,0.02235750139540935
2011,110,254,0.0007235804931691873,0.0007232850869774237,-2.9540619176358397e-07,-0.000129439450037761,1.1583340892684646e-05,0.00014102279093044566,0.00035999694017856815,0.0,-0.00035999694017856815,-0.00047507747343060843,0.026889556490006024
2011,111,104,0.00025693140052312596,0.0002555651497069746,-1.3662508161513633e-06,-0.00012803439480754046,9.558305464452133e-06,0.0001375927002719926,0.0003473438968561363,0.0,-0.0003473438968561363,-6.094731618260924e-06,0.015986397489409696
2011,112,254,0.00015435690612316212,0.00015337678981525263,-9.801163079094916e-07,8.731384534300782e-05,-0.0005714033031836152,-0.000658717148526623,4.5749943511033264e-05,0.0,-4.5749943511033264e-05,-0.0010056903618145508,0.012376921449454148
2011,113,254,0.0004161135200576599,0.0004172380226727278,1.1245026150679175e-06,-0.00023521023883124975,0.0004982779501006007,0.0007334881889318504,0.00014230861174061217,0.0,-0.00014230861174061217,-0.0007144625692258455,0.0203903723140484
2011,114,254,0.0007558727638296211,0.0007502028600762715,-5.669903753349531e-06,0.0023067493182350332,0.00119902438018471,-0.0011077249380503232,8.00019517235308e-05,0.0,-8.00019517235308e-05,-0.0008074289155937179,0.027316240686597607
2011,115,254,0.0005319951757502692,0.0005276120464902657,-4.383129260003473e-06,0.0017038431517251832,-0.0006151983980089426,-0.002319041549734126,7.838593882089669e-05,0.0,-7.838593882089669e-05,-0.00027327266389950343,0.022967262206946195
2011,116,254,0.00010054040953700969,0.00010182393495012659,1.2835254131168984e-06,0.00015673701152733462,0.0008262857445515692,0.0006695487330242346,2.823813424721285e-05,0.0,-2.823813424721285e-05,-0.0004928722504636995,0.010004186980175541
2011,117,254,0.00063861266773565,0.0006382794031332644,-3.3326460238561426e-07,0.0002659433704661572,0.00018776800425257534,-7.817536621358186e-05,0.00018248117255019724,0.0,-0.00018248117255019724,-0.0012652237522046577,0.02522237534588943
2011,118,254,5.867507240921304e-05,6.02170969540799e-05,1.5420245448668577e-06,0.0003836129381372703,0.0013761918769056695,0.0009925789387683992,3.134292805474686e-05,2.9523957637061036e-07,-3.104768847837625e-05,8.36352819017361e-05,0.00765153204849139
2011,119,254,0.000789750508536696,0.0007863041753004271,-3.446333236268922e-06,0.0015533870364737323,0.0005922371638007462,-0.0009611498726729861,0.00039077028746210276,0.0,-0.00039077028746210276,-0.0016964470558283357,0.027947559819119224
2011,121,254,0.0013500867671886114,0.0013493958102853204,-6.909569032910023e-07,8.4741972386837e-05,-0.0006464911857619882,-0.0007312331581488252,0.00017687123852579714,0.0,-0.00017687123852579714,-0.0012179746102244956,0.036729677605185765
2011,122,254,0.00030950167482272375,0.0003104906520745636,9.88977251839833e-07,-0.00024308378654202138,-0.0010588067816570401,-0.0008157229951150188,0.00016499221131036667,0.0,-0.00016499221131036667,0.0002615401663976133,0.01757120758545997
2011,123,254,0.00011467446438896848,0.00011448897216137312,-1.854922275953524e-07,-0.00021385037024894098,-0.00016970763681456447,4.414273343437652e-05,0.000165962980393577,0.0,-0.000165962980393577,0.0009190845925233401,0.010644411850483166
2011,124,254,0.00046865400199977214,0.000468643352854062,-1.064914571016198e-08,6.753831045834098e-05,-0.0009202997898682952,-0.000987838100326636,6.729146249361993e-05,0.0,-6.729146249361993e-05,-0.0004025310619949581,0.021641979308706913
2011,125,254,0.0014730965729617073,0.0014296049445286284,-4.34916284330789e-05,0.004357255819275623,2.8004109481116757e-05,-0.004329251709794506,0.00020338553661801526,0.0,-0.00020338553661801526,-0.002697111222766537,0.03771178451034341
2011,126,254,0.0007824293709933696,0.0007684795530870147,-1.3949817906354811e-05,0.002689645075657236,8.329965203301981e-05,-0.0026063454236242164,0.00042068801859011,0.0,-0.00042068801859011,-0.001239686907907958,0.02768987648309813
2011,127,254,0.0004480761789609472,0.00044036958060523205,-7.706598355715138e-06,0.002864795128308882,0.0006263607647269964,-0.0022384343635818856,8.935006682258507e-05,0.0,-8.935006682258507e-05,-0.00014086655153784446,0.020970954743416155
2011,129,254,0.0006823616075196431,0.0006797022267729594,-2.6593807466837637e-06,0.0012223246529346377,0.0003876437549479306,-0.0008346808979867071,9.689546163953847e-05,0.0,-9.689546163953847e-05,-0.0008449918623949592,0.02604194378704893
2011,130,254,0.00026637225053421064,0.00026542264956219295,-9.496009720176817e-07,-0.0016653232393771644,0.001080662477761507,0.0027459857171386716,0.00014624407733767618,0.0,-0.00014624407733767618,-0.00023528249400697862,0.01623856331063403
2011,131,254,0.0005377014014441209,0.0005273731861465402,-1.0328215297580748e-05,0.0019817378841281877,0.0001876576425274834,-0.0017940802416007043,8.942400111955656e-05,0.0,-8.942400111955656e-05,-0.0017041304617586134,0.022886553342847893
2011,132,254,0.00028332069906871214,0.00028361342099026847,2.9272192155632443e-07,0.0013049099682353614,0.0015165205113589764,0.00021161054312361497,6.533573587464434e-05,0.0,-6.533573587464434e-05,0.0003389741402882773,0.016799607302977252
2011,133,254,0.0004490889472634262,0.0004499958786084773,9.06931345051056e-07,-0.0009719355867838296,0.0005561983562074602,0.0015281339429912898,0.00022519081294876847,0.0,-0.00022519081294876847,4.796775708351533e-05,0.021207017241153724
2011,134,254,0.00041302338017904763,0.00041704197312457907,4.0185929455314345e-06,0.0010023936335965403,0.0016729809576645494,0.000670587324068009,0.0001170267870289347,0.0,-0.0001170267870289347,-0.0023308921346841057,0.020025258384973342
2011,135,254,0.0003323848957467843,0.00033066990254709746,-1.7149931996868185e-06,0.0017055569612604426,-0.0010010921396315098,-0.002706649100891952,0.0002828605808930351,0.0,-0.0002828605808930351,0.0001427351037496171,0.018148321183635584
2011,136,254,0.0006488684212178892,0.0006462730580443939,-2.595363173495276e-06,-0.00036492559501505274,-0.0012925479095429182,-0.0009276223145278655,0.00013444979034576287,0.0,-0.00013444979034576287,-0.0021298665124354233,0.025408108068127454
2011,137,254,0.00036687627692190324,0.00035827907084145437,-8.597206080448875e-06,0.001389521958790426,-0.0008041338878683746,-0.0021936558466588004,9.015073808288804e-05,0.0,-9.015073808288804e-05,-0.001742527004847509,0.018904985829126145
2011,138,254,0.0002807371998620576,0.00028188174803478,1.1445481727223985e-06,0.0006025516552718605,0.0007282302831299603,0.00012567862785809977,0.00018379319395056526,0.0,-0.00018379319395056526,-0.0011382094778806054,0.016685267473232155
2011,140,254,0.00017624925882639485,0.00017590585217890103,-3.4340664749381517e-07,0.0001791509997656965,-0.00036453496431931853,-0.0005436859640850151,0.00012915960680277543,0.0,-0.00012915960680277543,-0.000171797188935104,0.013261549846410895
2011,141,254,0.00042531522829475203,0.0004204351948246269,-4.88003347012513e-06,0.002541442409040421,0.0011212230892851949,-0.0014202193197552261,0.00013504918273838208,0.0,-0.00013504918273838208,8.77289429018812e-05,0.020478454157333705
2011,143,254,0.00045095316798382816,0.0004455490948194397,-5.404073164388479e-06,0.002000786224746798,-0.00014643094618804753,-0.0021472171709348456,5.881439361102575e-05,0.0,-5.881439361102575e-05,-0.0002733128085946027,0.02110765254149385
2012,0,250,0.000176989485797605,0.00017846346582196533,1.4739800243603204e-06,7.409849762916565e-05,-0.0009874132229015231,-0.0010615117205306887,5.150012978113675e-05,0.0,-5.150012978113675e-05,0.0002658529737279878,0.013300104874111004
2012,1,250,0.0002926077100973051,0.000285924723918281,-6.682986179024064e-06,-0.0012560221068561078,0.0005052646738477051,0.001761286780703813,0.00021364341814409656,0.0,-0.00021364341814409656,0.0012513764814994345,0.01689283993556926
2012,3,250,0.00040173906759411745,0.0003941796105523528,-7.55945704176465e-06,-0.0018258575797080994,0.0005963901057839394,0.0024222476854920388,8.630522095625859e-05,0.0,-8.630522095625859e-05,0.0009352173481304789,0.01985106563014177
2012,4,250,3.955337621688603e-05,4.040444263213578e-05,8.510664152497468e-07,0.00019499653577804564,0.0011098518734797835,0.0009148553377017379,8.992667963971475e-05,0.0,-8.992667963971475e-05,0.0001657497305377973,0.006285945734400516
2012,5,250,0.0005784952382442914,0.0005792869717768343,7.917335325428529e-07,-0.0013603219501674175,-0.0006549089448526502,0.0007054130053147673,0.0003764285650962894,0.0,-0.0003764285650962894,0.0009868749727032337,0.024012320115825724
2012,7,250,0.00019824298431870698,0.0001947551059111868,-3.487878407520186e-06,-0.0005449208468198776,0.0009189132833853364,0.001463834130205214,0.00018495164836424493,0.0,-0.00018495164836424493,0.001735418480130093,0.013931562194344018
2012,8,250,0.0005664962806951193,0.0005905196248416265,2.402334414650727e-05,3.9290666580200195e-05,-0.0036544494796544313,-0.0036937401462346317,0.0003228480904366998,0.0,-0.0003228480904366998,0.0014047843426870656,0.023768125251531772
2012,10,250,0.0002887093530167814,0.0002877505036271257,-9.588493896556835e-07,-0.0019966720938682557,-0.001672397367656231,0.0003242747262120248,0.0001757447540291496,0.0,-0.0001757447540291496,0.00019162970737106376,0.016860483584129213
2012,12,250,0.0003929867820567962,0.0003922643900631378,-7.223919936583828e-07,-0.0015183544903993606,-0.0014015124179422855,0.00011684207245707509,0.00011536710296000986,0.0,-0.00011536710296000986,0.0005078273398008549,0.019713417049122623
2012,13,250,0.00019664337129359007,0.00019161126642733221,-5.0321048662578505e-06,-0.0014753224551677705,8.026988507481292e-05,0.0015555923402425834,5.9043318502934005e-05,0.0,-5.9043318502934005e-05,0.0008967866368361683,0.013818269313536516
2012,14,250,5.143501488723056e-05,5.263255897482405e-05,1.19754408759349e-06,-0.0003536875694990158,0.000608320813626051,0.0009620083831250667,3.786183811718083e-05,0.0,-3.786183811718083e-05,-0.0005436172300349966,0.007162792592166164
2012,15,250,8.810419373677094e-05,9.21589468747089e-05,4.054753137937959e-06,-0.001280966717749834,-0.0022565603721886873,-0.0009755936544388532,6.795888522247226e-05,0.0,-6.795888522247226e-05,0.00022007366178586097,0.009274978745876874
2012,16,250,0.00014672215825289547,0.0001455870335716554,-1.1351246812400589e-06,0.00184377521276474,0.0013296070974320173,-0.0005141681153327227,6.467583068748466e-05,0.0,-6.467583068748466e-05,0.00020998712809073083,0.012013887160112147
2012,17,250,0.00010506586754977896,0.00010384697374717487,-1.2188938026040874e-06,0.0010603753328323365,-0.00026338384486734867,-0.0013237591776996851,5.911144568737521e-05,0.0,-5.911144568737521e-05,-0.00014422531913191962,0.010189836848199253
2012,18,250,0.00046490895793722053,0.00043892198203747586,-2.5986975899744674e-05,-0.004106269940733909,0.0008523666765540838,0.004958636617287993,0.00013991292578543427,0.0,-0.00013991292578543427,0.0010112032065706415,0.020949862839508223
2012,19,250,0.00016173692501526642,0.0001687044360737083,6.967511058441879e-06,-0.0006661643385887146,0.0030005425214767456,0.0036667068600654603,9.627316937065627e-05,0.0,-9.627316937065627e-05,0.00021750721199630617,0.012686967744102348
2012,20,250,0.0004210132424460369,0.00041910118370051374,-1.912058745523167e-06,-0.003230674684047699,-0.00025767041370272636,0.0029730042703449725,5.4170870666377216e-05,0.0,-5.4170870666377216e-05,-0.0014620472237059517,0.020436503130429124
2012,21,250,9.249798279227865e-05,9.432250054995782e-05,1.8245177576791663e-06,0.00019356924295425414,-0.0008291770936921239,-0.001022746336646378,5.0853017259044274e-05,0.0,-5.0853017259044274e-05,0.0005754154765267146,0.009609870980488957
2012,23,250,0.0005902457815066944,0.0005856361600343541,-4.609621472340315e-06,-0.0014943045526742936,-4.415720468387008e-06,0.0014898888322059066,0.00040955774570601745,0.0,-0.00040955774570601745,0.0006481286729111559,0.024191121219344552
2012,24,250,0.00044847046905739044,0.00045610473865861863,7.634269601228185e-06,-0.00034461140632629394,-0.0018298944924026728,-0.0014852830860763789,0.0004195977691619848,0.0,-0.0004195977691619848,0.0012681630535637397,0.021130706994809692
2012,25,250,0.00034641317933696385,0.00035011652393106653,3.7033445941026845e-06,0.0011196679323911666,0.002543914131820202,0.0014242461994290352,7.259749046392557e-05,0.0,-7.259749046392557e-05,0.0005236546623476386,0.018602018052003726
2012,26,250,0.0003317902490237016,0.00033164667996847145,-1.435690552301582e-07,0.0004925238490104675,0.0006721328827552497,0.0001796090337447822,0.00011774897876847279,0.0,-0.00011774897876847279,0.001088351415709937,0.018206412115002124
2012,28,250,0.0002883942167673815,0.00028805142463163324,-3.427921357482353e-07,-0.000643136203289032,-0.00036440585972741246,0.0002787303435616195,8.220411978610188e-05,0.0,-8.220411978610188e-05,-2.3513077385331372e-05,0.01696865394610249
2012,29,250,0.0007840052274506643,0.0007740628049303774,-9.942422520286859e-06,-0.0033116816878318786,-0.0008412398165091872,0.0024704418713226914,0.0007628224392453102,0.0,-0.0007628224392453102,-0.0002287113297218184,0.027815240674551982
2012,30,250,0.00010838467896330314,0.00010852937630637268,1.4469734306953703e-07,0.0008116968274116517,0.0010380815947428346,0.0002263847673311829,4.911666921918781e-05,0.0,-4.911666921918781e-05,0.0004732589976190411,0.010402420475069774
2012,31,250,0.00030298380357540245,0.0003078123929250999,4.828589349697423e-06,0.0003274703025817871,-0.00272369384765625,-0.003051164150238037,0.00028306551026870456,0.0,-0.00028306551026870456,-0.0005261402642713194,0.01740641120889806
2012,32,250,0.00045026438902567395,0.0004419513531561591,-8.31303586951485e-06,-0.0027300219535827635,-0.0015280101215466857,0.0012020118320360778,4.561063553321189e-05,0.0,-4.561063553321189e-05,0.001368367364967071,0.02082216008515387
2012,33,250,0.0004854275906459377,0.00047890837907129524,-6.519211574642432e-06,-0.002583207681775093,4.3062820623163134e-05,0.0026262705023982562,0.0005367606915258938,0.0,-0.0005367606915258938,0.00010340100165676347,0.021883892212657338
2012,34,250,0.00018929521770516696,0.000191134482304095,1.8392645989280347e-06,0.0016476957611739635,0.0003156609018333256,-0.0013320348593406379,3.5858790604444916e-05,0.0,-3.5858790604444916e-05,0.0016395191285676276,0.013761608979316425
2012,35,250,0.0003609242265706191,0.00036877614648930346,7.851919918684376e-06,0.0005892259711399675,-0.0012057197745889425,-0.00179494574572891,8.252972710296059e-05,0.0,-8.252972710296059e-05,0.0018559673032446397,0.01895790649641278
2012,36,250,0.0004124077247473612,0.0004226794395574331,1.027171481007193e-05,-0.0019897934794425964,0.002398389857262373,0.00438818333670497,4.0290520575835255e-05,0.0,-4.0290520575835255e-05,-0.0009501185378013872,0.020284647669743253
2012,38,250,0.0004708301654662832,0.00046811389710828315,-2.7162683580000393e-06,-0.0012917895913124085,0.00010038540494861081,0.0013921749962610194,0.00011078545264403676,0.0,-0.00011078545264403676,0.0003693261340479239,0.02163426837201837
2012,39,250,0.0003242298023238953,0.00032427628943938416,4.64871154888611e-08,-0.0006633357033133506,-0.0005775806494057178,8.575505390763277e-05,0.0001439506180528948,0.0,-0.0001439506180528948,0.0020105260759137734,0.017820718083672717
2012,41,250,8.548268369652463e-05,8.798242923271209e-05,2.4997455361874636e-06,-0.0008373747915029526,-0.0014916512882336974,-0.0006542764967307448,1.9210830851520112e-05,0.0,-1.9210830851520112e-05,0.0007340675432261321,0.009112003342624339
2012,42,250,0.0010100780229773865,0.0010006188364871124,-9.459186490274035e-06,-0.001755471795797348,0.0010122178355231881,0.002767689631320536,0.0002688216339035659,0.0,-0.0002688216339035659,0.0013551590827046737,0.03163070071604634
2012,43,250,0.00016438772033386807,0.00016353609050652666,-8.516298273414131e-07,-0.0002271866025403142,0.000414691778132692,0.0006418783806730062,5.3779045782111264e-05,0.0,-5.3779045782111264e-05,0.0007506555800494397,0.012783709118652849
2012,44,250,0.00014871100293329103,0.00014762380093830878,-1.0872019949822488e-06,-2.4745613336563112e-05,0.0005611696979030967,0.0005859153112396598,7.074381790880543e-05,0.0,-7.074381790880543e-05,0.0012164555841103208,0.012132369980578666
2012,45,250,0.0011880990556124309,0.001162663415118632,-2.5435640493798924e-05,-0.006509611606597901,-0.0030523596797138453,0.0034572519268840553,0.00026894495279712437,0.0,-0.00026894495279712437,-0.0009122723768338546,0.03403062505236548
2012,47,250,0.00010955141941256041,0.0001097963125180409,2.448931054804869e-07,0.0006745204329490662,0.001692775054834783,0.0010182546218857169,9.653914816875525e-05,0.0,-9.653914816875525e-05,0.0010795897662255812,0.01046041664179176
2012,48,250,0.00023214755688481055,0.00023136156725072162,-7.859896340889241e-07,-0.00042231085896492004,0.001221972401253879,0.001644283260218799,0.0001349716614041152,0.0,-0.0001349716614041152,0.0007733210277252454,0.015203956037681522
2012,49,250,0.0004303137152208712,0.0004270429176520177,-3.2707975688534507e-06,-0.0007575110271573067,0.0006797793903388083,0.0014372904174961149,0.00013124479222016358,0.0,-0.00013124479222016358,0.0009713632601733906,0.02066295952904302
2012,50,250,0.00014374350753810738,0.00014298123992737618,-7.622676107311998e-07,-0.0003481691256165504,0.0006206111283972859,0.0009687802540138364,2.251817153270616e-05,0.0,-2.251817153270616e-05,0.0005175409707929219,0.01195703209287269
2012,51,250,0.0004233804829168387,0.00042510206156302086,1.7215786461821777e-06,-0.0009184010736644268,-0.001311534084379673,-0.00039313301071524623,9.335259367415856e-05,0.0,-9.335259367415856e-05,0.0007162111754224014,0.02051804841412484
2012,52,250,9.805654451901847e-05,9.830750641475267e-05,2.50961895734199e-07,-3.41438353061676e-05,0.0004039927152916789,0.0004381365505978465,0.00010164272087375576,0.0,-0.00010164272087375576,0.0002931834033774976,0.009914394974538068
2012,53,250,0.0004760927507745947,0.0004754151558746391,-6.775948999555577e-07,-0.00039382162690162657,-0.0003861217701341957,7.699856767430882e-06,0.00020588311180040058,0.0,-0.00020588311180040058,-8.147179167936258e-05,0.021801888548134227
2012,54,250,0.0002174813544203061,0.000215839830636057,-1.6415237842490804e-06,-0.0005273681879043579,0.0005804360844194889,0.0011078042723238468,6.181753201410586e-05,0.0,-6.181753201410586e-05,0.0007731384124240321,0.014690224520028213
2012,55,250,0.00024758501705032213,0.00024171962474932334,-5.865392300998787e-06,-0.001836388736963272,-0.0006430538487620652,0.001193334888201207,0.00015006772697104373,0.0,-0.00015006772697104373,0.0011921298015561206,0.015438643908029237
2012,57,250,0.00038105431145528195,0.0003806194550054818,-4.3485644980013416e-07,2.8844200074672697e-05,0.0009982353076338768,0.0009693911075592041,0.00016757809207255763,0.0,-0.00016757809207255763,0.0008015432951759038,0.019508479368154672
2012,58,250,0.00019591274232008644,0.00020149842241557026,5.585680095483817e-06,0.0003954629153013229,-0.0009227577829733491,-0.001318220698274672,0.00010005277220364243,0.0,-0.00010005277220364243,0.001987795748068848,0.013893419325655862
2012,59,250,0.00021949532852173791,0.0002155701256200417,-3.925202901696205e-06,-0.0006444046944379806,0.0014652820536866784,0.002109686748124659,0.00012402411538302044,0.0,-0.00012402411538302044,0.0013930003594288252,0.014682128625533718
2012,60,250,0.0002759272498260763,0.00026172585033415674,-1.4201399491919561e-05,-0.0028890430331230165,0.0002799326030071825,0.003168975636130199,0.00016259997073444992,0.0,-0.00016259997073444992,0.000892860996524945,0.016166328250984397
2012,61,210,4.6188013298883315e-05,4.850960974599323e-05,2.3215964471099164e-06,-0.0013386407246192297,0.0019990038126707077,0.0033376445372899372,7.22968468093598e-05,0.0,-7.22968468093598e-05,-2.10544344317855e-05,0.006665506314174971
2012,63,250,0.00015502629650750556,0.0001572165855280583,2.190289020552748e-06,0.001071787938475609,-0.0005316655733622611,-0.00160345351183787,0.0001140469470256412,0.0,-0.0001140469470256412,0.0007016469458924348,0.012477801319058898
2012,64,250,0.0003868168602384564,0.0003545959256754275,-3.2220934563028866e-05,-0.003364933490753174,0.00026027890271507204,0.003625212393468246,0.00044056714568060516,0.0,-0.00044056714568060516,0.0029460680901870406,0.018638199004085303
2012,65,250,0.0003699601948439327,0.0003667483281416298,-3.211866702302951e-06,-0.001256655126810074,0.0004037944308947772,0.001660449557704851,0.00019981848483986752,0.0,-0.00019981848483986752,0.0003589748751965942,0.01915062190502065
2012,66,250,0.0005774105306032809,0.0005674343694228435,-9.97616118043746e-06,-0.002790926456451416,0.0021972598042339087,0.004988186260685324,0.00011349101121886777,0.0,-0.00011349101121886777,0.0007049799800596191,0.023774092419043144
2012,67,250,0.00022266763180871552,0.0002214587567002001,-1.20887510851543e-06,-0.001334999054670334,-0.0007351210224442184,0.0005998780322261155,0.00012121256257801059,0.0,-0.00012121256257801059,0.00024444883843125354,0.014849215453614518
2012,68,250,0.003244495428056889,0.0031881214677180643,-5.637396033882471e-05,-0.004094143569469452,0.0018223632359877229,0.005916506805457175,0.00045551797474699916,0.0,-0.00045551797474699916,0.0034226115978386105,0.056440771370512455
2012,69,250,0.00017291891180034973,0.00016839391832076023,-4.5249934795895015e-06,-0.001353029415011406,-0.00017244656919501722,0.0011805828458163888,7.220935960203376e-05,0.0,-7.220935960203376e-05,0.001105762399804732,0.012913562643683143
2012,71,250,0.0005087873324185928,0.0005077831036671294,-1.0042287514633883e-06,-0.0027099712789058687,-0.00023499919916503131,0.0024749720797408374,0.00033147638383315686,0.0,-0.00033147638383315686,-0.0014209480566161829,0.022502813801270265
2012,72,250,0.0008712892029961423,0.000857649737432816,-1.363946556332625e-05,-0.0022060886025428773,-0.00083460274618119,0.0013714858563616873,0.0003879814815442458,0.0,-0.0003879814815442458,0.0027266389249135017,0.02906832116227001
2012,73,250,0.0007701246038069039,0.0007648823273941286,-5.242276412775293e-06,-0.002260007530450821,-0.0006531893159262836,0.0016068182145245373,0.0010338900762986143,0.0,-0.0010338900762986143,5.539145071001883e-05,0.027647427379256854
2012,74,250,0.0004178935032077738,0.00042074046715497303,2.846963947199222e-06,-0.001080041229724884,0.0013799391454085708,0.0024599803751334547,0.0002253564284245381,0.0,-0.0002253564284245381,-0.0003330059291552061,0.020440310328527323
2012,76,250,4.155076175246273e-05,4.2149323578965765e-05,5.98561826503035e-07,0.00019338351488113403,0.001009285100735724,0.0008159015858545899,3.608512973509462e-05,0.0,-3.608512973509462e-05,0.0002559384670341274,0.0064483945620949865
2012,77,250,0.00020704707023291302,0.00020362837145657432,-3.4186987763386995e-06,-0.0004328086823225021,0.0006471997476182878,0.00108000842994079,0.00016059765286160918,0.0,-0.00016059765286160918,0.0016478666102499062,0.014234712406178258
2012,78,250,0.00014280180353154294,0.00014376646072942779,9.646571978848436e-07,0.000526150643825531,0.001607138430699706,0.001080987786874175,6.920659424693634e-05,0.0,-6.920659424693634e-05,0.0006342846144475942,0.011950732872156046
2012,79,250,0.00024191439121600295,0.0002508598936792174,8.945502463214458e-06,0.0006794195175170898,0.0024594611022621393,0.0017800415847450495,0.00011791448348160203,0.0,-0.00011791448348160203,-0.0008646523811673035,0.015485805217311103
2012,80,250,0.0008097258291078832,0.0008451551878568009,3.542935874891763e-05,-0.001010816216468811,0.0032251288648694754,0.0042359450813382864,0.000735828778673791,0.0,-0.000735828778673791,-0.0025854933544408143,0.028484940886041133
2012,81,250,0.0006001399954028475,0.0005931161934830016,-7.023801919845839e-06,-0.0025222256779670717,-0.0014456555945798755,0.0010765700833871962,0.00012635264141375648,0.0,-0.00012635264141375648,0.001261648788189035,0.024203030728857922
2012,82,250,0.0006813736742639991,0.0006786705766120026,-2.7030976519964653e-06,0.0008249835520982743,-0.00042529712663963437,-0.0012502806787379086,0.0002474057793527729,0.0,-0.0002474057793527729,0.00020992919707263978,0.02604356089573131
2012,83,250,9.847504240523642e-05,9.941912228872285e-05,9.440798834864324e-07,-0.000369503915309906,-0.0009721252135932446,-0.0006026212982833386,0.0001329383343346664,0.0,-0.0001329383343346664,0.00010314354818368087,0.009912765475823052
2012,84,250,4.410539571654142e-05,4.414884697620074e-05,4.3451259659318584e-08,0.0005693766735494136,0.0005781130748800933,8.7364013306797e-06,6.640315667049622e-05,0.0,-6.640315667049622e-05,0.00011441042152149806,0.006628259713187838
2012,85,250,0.0005661063961248416,0.0005665553309154846,4.489347906430109e-07,-0.0011627960950136185,-0.0019583457615226507,-0.0007955496665090322,0.00010023161063678739,0.0,-0.00010023161063678739,-0.0017406639129246458,0.023801427384261525
2012,86,250,4.838712066725277e-05,4.7829232790410394e-05,-5.578878768423758e-07,0.00017631110548973084,0.000578004983253777,0.0004016938777640462,0.00021277986970880212,0.0,-0.00021277986970880212,0.00046639418669623466,0.006914967521290478
2012,88,250,0.0005474070072830356,0.0005450439642648183,-2.3630430182172615e-06,-0.0018064589500427245,-0.0015191551065072417,0.0002873038435354828,0.0003162492689227711,0.0,-0.0003162492689227711,-0.001138222884741026,0.023343068669462425
2012,89,250,6.0747781895247095e-05,6.0639623034109235e-05,-1.0815886113786036e-07,0.0006520245373249053,0.0002658192242961377,-0.00038620531302876765,0.00011507243451813809,0.0,-0.00011507243451813809,0.0003347977537434872,0.007786839217332312
2012,90,250,0.0004206701798776134,0.00043360835429342016,1.2938174415806766e-05,0.00012190565466880798,-0.0015845809830352664,-0.0017064866377040743,0.00015611017264313703,0.0,-0.00015611017264313703,0.0030977200294621953,0.020290007676730563
2012,93,250,0.00031375115882688553,0.0003147600354215196,1.0088765946340535e-06,-0.0011505851596593857,-0.0014535189839079976,-0.0003029338242486119,0.00017308341182673378,0.0,-0.00017308341182673378,3.583365934582616e-05,0.017678853586292082
2012,94,250,0.00021161730205857522,0.00021285981085849098,1.2425087999157593e-06,-0.0002867916598916054,-0.0010668729664757848,-0.0007800813065841794,0.00016190481098662777,0.0,-0.00016190481098662777,0.00016453310939573384,0.014537656273787647
2012,95,250,0.00010428703871491665,0.00010480401571088811,5.169769959714629e-07,0.0008003083392977714,0.00027173198759555817,-0.0005285763517022133,7.220974999646863e-05,0.0,-7.220974999646863e-05,0.0011320116398102016,0.010201173198748931
2012,97,250,0.0002210987858356847,0.00022069385954349817,-4.0492629218652704e-07,-0.0010474895387887955,8.873623301042244e-06,0.0010563631620898377,0.00011491545901779889,0.0,-0.00011491545901779889,-0.00026200030699770593,0.01485329885437517
2012,98,250,5.8542357488308144e-05,5.843787456389739e-05,-1.0448292441075159e-07,0.0007297457158565522,0.0009325722348876297,0.00020282651903107758,0.00016916972793490527,0.0,-0.00016916972793490527,0.00043781129809940467,0.007628439301674082
2012,99,250,0.0004073310971458325,0.00040833343095559124,1.0023338097587533e-06,0.0010564762949943542,-0.0007525926921516657,-0.00180906898714602,9.092598635394744e-05,0.0,-9.092598635394744e-05,0.0005418890494552641,0.020165756816351754
2012,100,250,0.0005683626340910115,0.0005630888917674575,-5.273742323553946e-06,-0.0017911922633647918,-0.0005932740168645978,0.001197918246500194,0.000259000740011446,0.0,-0.000259000740011446,0.0006119013847997365,0.023698870100042322
2012,101,250,9.101221037922081e-05,9.53237463866723e-05,4.311536007451484e-06,0.0006939262002706528,-0.0013890715781599283,-0.002082997778430581,3.4370778695519705e-05,0.0,-3.4370778695519705e-05,0.000675343290668792,0.0095426378761866
2012,103,250,0.00030617392762467664,0.000306318679687038,1.447520623613788e-07,-0.0012321899756789208,0.0017606011824682355,0.0029927911581471562,4.750094180343732e-05,0.0,-4.750094180343732e-05,0.0002432871949670101,0.01743606715834654
2012,104,250,0.00010308395623470144,0.00010682921159237985,3.745255357678415e-06,2.041298896074295e-05,-0.0013158083893358707,-0.0013362213782966137,3.5477825364371716e-05,0.0,-3.5477825364371716e-05,0.0007433734405777983,0.010128621909407668
2012,105,250,0.0001789327375549744,0.0001785950239254595,-3.377136295149041e-07,-0.0005399839878082275,-0.0003624597447924316,0.00017752424301579594,5.749713290318269e-05,0.0,-5.749713290318269e-05,0.0003547083383873968,0.013344687851947961
2012,106,250,0.00016321645640693302,0.00017000776581221325,6.791309405280229e-06,0.00015529060363769532,-0.0017614112002775073,-0.0019167018039152027,0.0001533675803296811,0.0,-0.0001533675803296811,0.0010347973126852564,0.012735343880879208
2012,107,250,9.919172998993254e-05,9.596466441797821e-05,-3.2270655719543212e-06,-0.0006334295943379402,0.0012001889990642667,0.001833618593402207,5.02050047904101e-05,0.0,-5.02050047904101e-05,0.0011644490498947987,0.009796090397398923
2012,108,250,9.148415352586232e-05,9.12865493247994e-05,-1.9760420106291836e-07,2.121084928512573e-05,9.93626017589122e-05,7.815175247378648e-05,0.00014256857650149046,0.0,-0.00014256857650149046,0.0010492126900728494,0.009507067588616865
2012,109,250,0.00021257792305730123,0.00021220430308667885,-3.7361997062238406e-07,7.205960154533386e-05,0.0002339417114853859,0.00016188210994005204,9.600616079869226e-05,0.0,-9.600616079869226e-05,0.0007574598320070436,0.014557823733792228
2012,110,250,0.00024435652466041374,0.0002451181534036416,7.616287432278394e-07,-0.00036863180994987487,-0.0003468479844741523,2.1783825475722544e-05,0.0002783607890738343,0.0,-0.0002783607890738343,0.0004016592121098199,0.015638346791790467
2012,112,250,0.00014245545554721257,0.0001397806049887707,-2.6748505584418835e-06,-0.0013929065763950347,0.0004125186533201486,0.0018054252297151833,2.774527906641194e-05,0.0,-2.774527906641194e-05,0.00029362448619426115,0.011822286968509682
2012,113,250,0.0005249985288344396,0.0005296755904889528,4.677061654513224e-06,-0.0014131343960762024,0.0007480524363927543,0.0021611868324689565,7.423426636583627e-05,0.0,-7.423426636583627e-05,-0.001346293426895727,0.022919190777465914
2012,114,250,0.0002940392226566028,0.00029001180513872496,-4.027417517877836e-06,-0.0015746147334575653,-0.0008360758074559271,0.0007385389260016382,9.620438283935554e-05,0.0,-9.620438283935554e-05,0.0015627458598708444,0.01685993652856049
2012,115,250,0.00030115897275960376,0.00030377753455618705,2.6185617965832878e-06,-0.0005147003829479217,-0.0012672513257712126,-0.0007525509428232908,0.00032105217286209183,0.0,-0.00032105217286209183,0.0013407042749950051,0.017232994578442223
2012,116,250,7.998452926625585e-05,8.038011851321268e-05,3.955892469568366e-07,-0.0002837568074464798,0.0015037638368085027,0.0017875206442549826,0.0001394275698768894,0.0,-0.0001394275698768894,0.0004844005860102669,0.00890735746875215
2012,117,250,0.00034140415554363387,0.00033262127179364576,-8.782883749988105e-06,-0.0017789771556854248,-4.8188485379796475e-06,0.0017741583071474451,0.00014693948324756312,0.0,-0.00014693948324756312,0.0015250012379917734,0.018173632611464763
2012,118,250,8.650613471838367e-05,8.629219905902071e-05,-2.1393565936295579e-07,0.0007206265330314636,0.00023394197341986,-0.0004866845596116036,6.287949706137701e-05,0.0,-6.287949706137701e-05,0.0004167930889152984,0.009287559664873367
2012,119,250,0.0004576148877079729,0.00045536390580807934,-2.2509818998935603e-06,0.0013899611216038465,0.000508189492393285,-0.0008817716292105614,0.00021148529967806069,0.0,-0.00021148529967806069,-0.00020752837837198967,0.021327251434199074
2012,121,250,0.001214998807676325,0.0012264911863077044,1.1492378631379387e-05,-0.0010912784337997437,0.0016238692915067077,0.0027151477253064514,0.0001217293956203902,0.0,-0.0001217293956203902,-0.0019243661833475017,0.03484108510541384
2012,122,250,0.00014154159638129075,0.0001408226244754063,-7.189719058844424e-07,9.288935363292694e-05,0.0018372798804193735,0.0017443905267864467,6.153014817329768e-05,0.0,-6.153014817329768e-05,0.00118021410258757,0.01184866612910535
2012,123,123,7.764452126875246e-06,6.8230205552217395e-06,-9.414315716535065e-07,0.0010590094436959522,0.00021457168622873724,-0.000844437757467215,3.5936231149446896e-05,0.0,-3.5936231149446896e-05,7.018012834316454e-05,0.0026080973205064853
2012,124,250,0.00023928147194220167,0.0002442026649092735,4.921192967071808e-06,-0.0015341276675462723,-0.0024889069609344006,-0.0009547792933881282,0.00010972391968110228,0.0,-0.00010972391968110228,0.0007220453210832574,0.01529354276653642
2012,125,250,0.001115982474084555,0.001095850125551422,-2.013234853313309e-05,-0.0030753363370895387,0.0007896912866272032,0.003865027623716742,0.0005898048077536495,0.0,-0.0005898048077536495,0.0006724244984452952,0.03310341937099263
2012,126,250,0.0005552713515851593,0.0005727015852902037,1.7430233705044386e-05,-0.0006870703771710395,0.0028853591065853834,0.003572429483756423,0.0005121837192255314,0.0,-0.0005121837192255314,-0.0012239638865336104,0.023575730101704738
2012,127,250,0.00015919314067446512,0.0001589676588408242,-2.2548183364093062e-07,-0.0013667562156915664,0.000416366703575477,0.0017831229192670434,5.527924330140559e-05,0.0,-5.527924330140559e-05,-0.000427212498725666,0.012579985412164396
2012,129,250,0.0003795102431681481,0.00038510527724575707,5.595034077608956e-06,-0.0008458163142204284,-0.001970061333850026,-0.0011242450196295977,0.0003087925196014696,0.0,-0.0003087925196014696,0.0011990740687353992,0.019366513833053083
2012,130,250,0.0002751796022458117,0.00027928631361463915,4.106711368827428e-06,-0.00013153982162475585,0.001071070320904255,0.0012026101425290107,0.00011276681905263124,0.0,-0.00011276681905263124,-0.0011350043739792,0.016565613422244108
2012,131,250,0.0002555085965034653,0.0002542035910376641,-1.3050054658012076e-06,-0.000792136549949646,0.0005176952690817416,0.0013098318190313874,0.00039612963385968696,0.0,-0.00039612963385968696,-9.656125022456763e-05,0.015931926436126724
2012,132,250,0.00020663448467839077,0.00020688313205712545,2.486473787346869e-07,-0.00011703911423683167,0.0006264196126721799,0.0007434587269090116,0.00016993289322744497,0.0,-0.00016993289322744497,0.0006560724008921994,0.014383401988725614
2012,133,250,0.00017376907442609338,0.00017909421624751577,5.325141821422398e-06,-0.00012392584979534148,-0.002262510359287262,-0.0021385845094919207,6.813615354653954e-05,0.0,-6.813615354653954e-05,3.481489291657169e-05,0.013183949064415508
2012,134,250,0.0004802015131150093,0.00046904143840775277,-1.1160074707256516e-05,-0.0026217372566461564,-0.0004781302413903177,0.0021436070152558388,0.00019618280618137728,0.0,-0.00019618280618137728,0.0010877034067655984,0.02160068525288157
2012,135,250,0.0001119260748566504,0.00011422698382495998,2.3009089683095717e-06,0.0004534221589565277,0.0013835611753165722,0.0009301390163600445,0.0002044922486302555,0.0,-0.0002044922486302555,-0.000163026720460266,0.010575209203869042
2012,136,250,0.0007636021644327058,0.0007617135195646587,-1.8886448680471108e-06,-0.0025551515221595763,0.0008044912246987224,0.0033596427468582987,0.00037705150482374617,0.0,-0.00037705150482374617,-0.0007212703264551266,0.0275569514143651
2012,137,250,0.00038849646972234457,0.0003796488138185636,-8.847655903780974e-06,-0.0016955078840255736,0.0008483850979246199,0.0025438929819501938,0.00012378564193490197,0.0,-0.00012378564193490197,0.001320569381218405,0.01947885663536681
2012,138,250,0.00020241202807587047,0.00020221027571824023,-2.0175235763023676e-07,-0.001298174574971199,-0.0006583763752132654,0.0006397981997579335,7.072120350983784e-05,0.0,-7.072120350983784e-05,-0.0008639406807750731,0.014218580063934613
2012,140,250,0.00010565776812528984,0.00010599705360718058,3.3928548189074285e-07,-0.0003104982674121857,-0.0006730561144649982,-0.00036255784705281255,3.4364132428347576e-05,0.0,-3.4364132428347576e-05,9.20164827188188e-05,0.010267020869182011
2012,141,250,0.0004361554256009525,0.00043578516814011544,-3.7025746083707177e-07,-0.00042612515389919283,-0.0008632759563624859,-0.00043715080246329305,0.00011671442058484604,0.0,-0.00011671442058484604,-0.0003502924574256667,0.020869164239852394
2012,143,250,0.00012518811361026197,0.00012481087311229586,-3.772404979661057e-07,-0.000374995157122612,-0.00011101868585683405,0.00026397647126577794,6.11953738666971e-05,0.0,-6.11953738666971e-05,0.0006216893878777228,0.011147825437769467
2013,0,249,0.00013815586678576997,0.00013811030347745605,-4.5563308313925155e-08,0.001282821757247649,0.000782425546210753,-0.0005003962110368961,8.909038015246906e-05,7.052963986771204e-07,-8.838508375379195e-05,0.0008645587681039195,0.011751755524351516
2013,1,249,0.0001945583901814679,0.00019382404328937213,-7.343468920957606e-07,0.0010632380439215396,0.0014190005604177713,0.00035576251649623177,4.799261656861666e-05,0.0,-4.799261656861666e-05,0.0022762850075186253,0.0138956506384599
2013,2,249,0.0014315545644271559,0.001429291700268329,-2.2628641588267988e-06,0.0016285957671312921,0.001472110510803759,-0.00015648525632753303,0.00042765291412506876,0.0,-0.00042765291412506876,-0.003094632276058827,0.03752914281710903
2013,3,249,0.00019945214895239098,0.00019868394580321722,-7.682031491737561e-07,3.0503148235470417e-05,0.00011764184455387294,8.713869631840252e-05,0.00018997981786708043,0.0,-0.00018997981786708043,0.0015193380384398761,0.014025661965955921
2013,4,249,5.1798992231721456e-05,5.174774299503385e-05,-5.124923668760686e-08,4.261378273667102e-05,-0.0011250466341152787,-0.0011676604168519497,4.1383353124654206e-05,0.0,-4.1383353124654206e-05,-0.0005401689685679184,0.007169774132521724
2013,5,249,0.000302079520605338,0.000303864598870475,1.7850782651370172e-06,0.00040660388618109217,-0.001152523560449481,-0.0015591274466305732,4.777426086407882e-05,0.0,-4.777426086407882e-05,0.00011435709706802185,0.01738561509610984
2013,7,249,0.00011021971665800172,0.00011055753908984693,3.3782243184520856e-07,0.0009565373665716754,0.000256306491792202,-0.0007002308747794734,4.1805084497852065e-05,0.0,-4.1805084497852065e-05,0.0008243619819318357,0.010499278644267388
2013,8,249,0.00030567452978146867,0.0003094625637341052,3.7880339526365583e-06,2.1342337729940453e-05,-0.0009413142688572407,-0.0009626566065871811,7.826229186174634e-05,0.0,-7.826229186174634e-05,0.0013358274029316938,0.017443542918246475
2013,10,249,0.00032543623524205426,0.00032355750771271094,-1.8787275293433267e-06,0.0002990114132323897,0.0008063807617872953,0.0005073693485549056,4.770396841334874e-05,0.0,-4.770396841334874e-05,0.002245217307467253,0.017930065730708475
2013,12,249,0.0002890979446727852,0.000290781213786896,1.6832691141108148e-06,0.0006914543638746422,-1.0891282727243379e-05,-0.0007023456466018856,0.00015626583789378682,0.0,-0.00015626583789378682,0.0013023247180969555,0.017001666904220746
2013,13,249,0.00012973941534546478,0.00013206974810931154,2.3303327638467643e-06,0.0008109890552888434,4.968767461832613e-05,-0.0007613013806705173,0.0002263526303033933,0.0,-0.0002263526303033933,0.0014342864102308416,0.011408445750874728
2013,14,249,0.00028878173875705726,0.00028978748324820025,1.0057444911429911e-06,0.0004341399720701647,0.0010408653179183602,0.0006067253458481956,0.00030028496996007764,0.0,-0.00030028496996007764,-0.0006232849797003048,0.016941608159650488
2013,15,249,6.026643673083625e-05,6.050935326669885e-05,2.429165358626016e-07,-0.00020399284231136124,0.0010339482687413692,0.0012379411110527306,5.779502802402912e-05,0.0,-5.779502802402912e-05,0.00030994343596963135,0.0077450093782268645
2013,16,249,0.00012657288695967558,0.00012675790218683868,1.8501522716310318e-07,0.0001485582336364501,0.000545907998457551,0.0003973497648211009,6.455735086778377e-05,0.0,-6.455735086778377e-05,7.382078979070316e-05,0.011248779305073585
2013,17,249,0.00011042893956703726,0.00011547642523755603,5.04748567051877e-06,9.328424631352406e-05,0.0035857839975506067,0.0034924997512370826,0.0001383448197330024,0.0,-0.0001383448197330024,0.0010902240018450975,0.010452205774160313
2013,18,249,0.0005908598528890936,0.0005967383589460971,5.878506057003553e-06,0.0024785148241673128,0.0009935012785717845,-0.0014850135455955283,0.00016699546673482838,0.0,-0.00016699546673482838,0.0038282853675402056,0.024263189364035147
2013,19,249,0.00019978194746414734,0.00020429081498977883,4.5088675256314825e-06,-0.0009659791297941323,-0.0017246379284188151,-0.0007586587986246828,0.00013777878295534614,0.0,-0.00013777878295534614,0.0014731825406397278,0.013930712804356015
2013,20,249,0.0006480816361846302,0.0006355401926791407,-1.2541443505489414e-05,-0.001589493728785151,0.0008824618416838348,0.002471955570468986,0.00024136558040235227,0.0,-0.00024136558040235227,0.001943799327776975,0.02518757144743719
2013,21,249,0.0001790780262838344,0.00018033781208552876,1.259785801694367e-06,0.0007476785021972465,0.0019088973058387637,0.0011612188036415174,6.439978558126942e-05,0.0,-6.439978558126942e-05,0.0007189098083527077,0.013376163195825456
2013,23,249,0.0004597208841095412,0.00045965452491831654,-6.635919122467866e-08,-0.00011635896372029101,4.0756283851806074e-05,0.0001571152475720971,5.9776280983576784e-05,0.0,-5.9776280983576784e-05,0.0008837684888071009,0.021422974941417733
2013,24,249,0.00023450219719306687,0.00023159673701045541,-2.905460182611459e-06,8.888598007849422e-05,0.0010503772646188736,0.0009614912845403794,0.00010363129815360391,0.0,-0.00010363129815360391,0.002200030338921788,0.015174815808411037
2013,25,249,0.00017435375272437556,0.00017406939254424088,-2.84360180134686e-07,0.00041492898989633386,0.0005715256556868553,0.00015659666579052146,4.8519848583581246e-05,0.0,-4.8519848583581246e-05,0.0015616268668187064,0.013156332776878072
2013,26,249,0.00023348722201862446,0.0002336896201318635,2.0239811323905323e-07,0.0011513141473852486,0.0010131511371582747,-0.00013816301022697396,4.675280883428333e-05,0.0,-4.675280883428333e-05,0.0012348811119181932,0.015285301958095443
2013,28,249,0.00017133774175377142,0.00017215172908789753,8.139873341261124e-07,-0.0004773928099367992,-0.0007195951184257865,-0.0002422023084889873,8.965830097978824e-05,0.0,-8.965830097978824e-05,0.0009391830613113492,0.013015382592852402
2013,29,249,0.0006533985228129042,0.0006618358617414883,8.43733892858412e-06,-0.0026100606444370315,0.0015546754002571106,0.004164736044694142,0.0008683274156598824,0.0,-0.0008683274156598824,-0.0013925846972707048,0.02555679008911346
2013,30,249,0.00012528945050773363,0.00012854133427286584,3.2518837651322155e-06,-0.00012301527203086867,0.003344275988638401,0.0034672912606692695,0.00010237050922398149,0.0,-0.00010237050922398149,0.0011602846090910594,0.011125264757610439
2013,31,249,0.00026528990982786175,0.0002665476672821175,1.2577574542557354e-06,-0.0019419947003264982,0.0003726874419953674,0.0023146821423218654,0.002438293346917481,0.0,-0.002438293346917481,0.0009067873269616063,0.016317548976332086
2013,32,249,0.00019155232662364333,0.00019230217852893346,7.498519052901288e-07,0.0012877590086565439,0.000254463724559173,-0.001033295284097371,4.6199120599812434e-05,0.0,-4.6199120599812434e-05,0.0011393592415530123,0.013839043986234648
2013,33,249,0.0004585890199468264,0.00046523541771299623,6.6463977661698455e-06,-4.732616275668623e-05,-0.0013840628089383245,-0.0013367366461816382,0.00027897216593473367,0.0,-0.00027897216593473367,0.0017767029765737997,0.02133647059291045
2013,34,249,0.00019562214443301373,0.00021424444389978744,1.862229946677371e-05,0.0023843624131626873,-0.0011649101506918669,-0.003549272563854554,0.00010061837609439347,0.0,-0.00010061837609439347,0.00324601192443896,0.013956654697559533
2013,35,249,0.0003230180550092069,0.0003232464647273308,2.284097181239151e-07,0.002246656593488881,0.0022484473884105682,1.7907949216872804e-06,0.00010597815360224127,0.0,-0.00010597815360224127,0.0008145358207423991,0.017921784574741372
2013,36,249,0.00023202101430034675,0.00023397550384237178,1.954489542025029e-06,-0.00027513484953038664,0.001139810192398727,0.0014149450419291135,0.00011701202733974257,0.0,-0.00011701202733974257,-0.00014114173295853627,0.015242528202607833
2013,38,249,0.00028766894189029323,0.0002886008523029545,9.319104126612968e-07,0.0010105207652212627,-0.00012498961586970836,-0.001135510381090971,6.969529025119426e-05,0.0,-6.969529025119426e-05,0.0009029697033782443,0.016957126877538108
2013,39,249,0.0001858612405371702,0.00018631092688244005,4.4968634526983847e-07,0.002314079956836011,0.0005979265552014112,-0.0017161534016346,0.0002074394503322895,0.0,-0.0002074394503322895,0.0014447027764358338,0.013623285099915948
2013,41,249,9.889356234840881e-05,0.00010287656474291452,3.983002394505715e-06,0.0011269751801548235,0.0025442976038903,0.0014173224237354763,0.0002421456255490957,0.0,-0.0002421456255490957,0.0004235217272510346,0.00991861252514581
2013,42,249,0.0004476546780869573,0.00044575522930980453,-1.8994487771527855e-06,0.00020600378094428037,0.0017196156550198793,0.001513611874075599,3.8439761416337216e-05,0.0,-3.8439761416337216e-05,0.0015488749307333177,0.021112225768849524
2013,43,249,0.00020628355897782502,0.0002068975418815855,6.139829037604737e-07,0.0009392572484581346,0.001616864581592381,0.0006776073331342464,0.00015844064486520817,0.0,-0.00015844064486520817,0.0006417801329528639,0.014350844999497658
2013,44,249,0.00015505593845641463,0.00015819310283299122,3.1371643765765937e-06,0.000593560272790342,-0.00038390749250538647,-0.0009774677652957284,0.0003448170394367192,0.0,-0.0003448170394367192,0.0016652517005534071,0.012409433888558086
2013,45,249,0.0019295301269333209,0.0019105015936409168,-1.9028533292404087e-05,-0.0002169373602303396,0.00014706331421621144,0.00036400067444655103,0.00171122048671538,0.0,-0.00171122048671538,0.005220744954607217,0.04341381517734734
2013,47,249,0.00010256149189409159,0.0001042204096954646,1.6589178013730045e-06,0.0011750259043940578,-0.0005250204703770578,-0.0017000463747711156,6.66421328317634e-05,0.0,-6.66421328317634e-05,0.0008543889999237903,0.010115218198769066
2013,48,249,9.666093485764671e-05,9.346806035494169e-05,-3.192874502705025e-06,-0.0007329529757241169,0.0015038569690659642,0.002236809944790081,9.711140616420135e-05,0.0,-9.711140616420135e-05,0.0011263094576115578,0.00966051335238124
2013,49,249,0.0004180190233923298,0.0004159522121380579,-2.0668112542718796e-06,3.050732235592532e-05,0.0014647836796939373,0.001434276357338012,0.0002514506309026892,0.0,-0.0002514506309026892,0.0014797321598968404,0.02039490104611926
2013,50,249,0.00015887670804019553,0.00015883405640941339,-4.26516307821406e-08,0.0007845165439877644,0.0006190683925524354,-0.00016544815143532902,5.316296046065218e-05,0.0,-5.316296046065218e-05,0.0011812210411902009,0.012590394783685016
2013,51,249,0.00024077901752260112,0.00024463881155996033,3.859794037359212e-06,0.0008253429279509319,-0.0003700297966133803,-0.0011953727245643123,0.00019580021300817123,0.0,-0.00019580021300817123,0.002122069849259485,0.015441122074350699
2013,52,249,0.0001522511289201282,0.00015158471883316188,-6.664100869663346e-07,0.0003989141183834239,0.001068196026608348,0.000669281908224924,2.3160304945397332e-05,0.0,-2.3160304945397332e-05,0.0012121618858205335,0.012311132874944654
2013,53,249,0.0003265987153864185,0.0003267880257076606,1.8931032124211303e-07,0.0012129078578039345,0.00021653983276337385,-0.0009963680250405606,9.90171770436611e-05,0.0,-9.90171770436611e-05,0.0010306110906722482,0.018058939993662617
2013,54,249,0.00010197188260698747,0.00010351539725885972,1.5435146518722479e-06,0.0006906812988131879,-0.00018389118486084044,-0.0008745724836740283,9.213934498314593e-05,0.0,-9.213934498314593e-05,0.0010324379829271153,0.010101284107203798
2013,55,249,0.00019539957442696383,0.00019264717271698362,-2.7524017099802114e-06,0.0016431826574495997,-0.0004083903331775218,-0.0020515729906271218,9.877527087285568e-05,0.0,-9.877527087285568e-05,7.664304427667633e-06,0.013873502486953704
2013,57,249,0.00023255283684967337,0.00023295411945100392,4.012826013305459e-07,0.0012738465529728126,-0.000993130961433053,-0.002266977514405866,0.0002637701280244606,0.0,-0.0002637701280244606,0.00017117569615969302,0.015218360932048133
2013,58,249,0.0003711306125530867,0.00037295703901799396,1.8264264649072446e-06,0.0031784686342210895,0.00032611502683721483,-0.0028523536073838747,0.0001354637530398424,0.0,-0.0001354637530398424,0.0021468013172070534,0.019226079695300675
2013,59,249,0.000242593623882033,0.00023928368960012886,-3.309934281904125e-06,-6.995167598188163e-07,0.0015424599405378103,0.0015431594572976291,8.604816682870634e-05,0.0,-8.604816682870634e-05,0.001837234705620268,0.015465988408052017
2013,60,249,0.00018498227742249222,0.00018486333254995622,-1.189448725359948e-07,0.0009974876201775179,0.0022442564368247986,0.0012467688166472807,5.0523124448406154e-05,0.0,-5.0523124448406154e-05,0.0017251587668175596,0.013586532676107958
2013,63,249,0.00015102580111285346,0.00015140981681945455,3.840157066010877e-07,0.000309630151254585,0.0005151096265763044,0.00020547947532171943,0.00013438759803861833,0.0,-0.00013438759803861833,0.0002894395346270684,0.01230280008083745
2013,64,249,0.00029585778177170256,0.0002966006905732631,7.42908801560564e-07,0.0027152899069240294,0.0009619761258363724,-0.001753313781087657,0.00010260436033380728,0.0,-0.00010260436033380728,0.002123650263614429,0.017182875305689696
2013,65,249,0.0002422988661069059,0.00025902010360528423,1.6721237498378336e-05,-1.522900029852328e-05,-0.002270159311592579,-0.0022549303112940557,0.00021056375949993114,0.0,-0.00021056375949993114,0.002579584953770888,0.015346011995494414
2013,66,249,0.00038268577834634654,0.0003786070711265126,-4.078707219833935e-06,-9.351555841514864e-05,0.0015984990168362856,0.0016920145752514343,0.0001711239015554261,0.0,-0.0001711239015554261,0.0016954404047514048,0.019457586527979808
2013,67,249,0.00013622997188319355,0.00013461518466560487,-1.6147872175886844e-06,-0.0013081411659029353,-0.0006388489855453372,0.0006692921803575981,0.00010909023530605543,0.0,-0.00010909023530605543,0.00018966768853016151,0.011572758737067998
2013,68,249,0.0007662493950013551,0.0007573062729200493,-8.943122081305757e-06,0.0036769404289234116,0.0006856167456135154,-0.0029913236833098962,0.00034260624137346073,0.0,-0.00034260624137346073,0.0006050459993275667,0.027519080313028115
2013,69,249,0.000124088676065451,0.0001231314005251605,-9.57275540290506e-07,2.1522068025836024e-05,0.002246520482003689,0.0022249984139778526,3.015014595998076e-05,0.0,-3.015014595998076e-05,0.0013337603829694433,0.011058854801776341
2013,71,249,0.000248643448047783,0.000235713561603208,-1.2929886444575008e-05,-0.0027250531447460375,-0.0004808503435924649,0.0022442028011535726,7.375855225324164e-05,0.0,-7.375855225324164e-05,0.001318634406445399,0.015247144527339832
2013,72,249,0.00045162064057915864,0.0004489092262677988,-2.7114143113598187e-06,0.0020596077403869017,0.0007780881715007126,-0.001281519568886189,9.41887979415721e-05,0.0,-9.41887979415721e-05,0.00010553547504954564,0.021176800965639158
2013,73,249,0.00039883495532318794,0.00039660370022684844,-2.231255096339505e-06,0.0002011638807963176,0.0008079074905253947,0.0006067436097290771,9.775789057602294e-05,0.0,-9.775789057602294e-05,0.002334488851281845,0.019856315105674545
2013,74,249,0.0002443925151543889,0.000247373840282913,2.9813251285241375e-06,0.0006805429885904473,-0.00014760077465325594,-0.0008281437632437032,0.0001493235999381215,0.0,-0.0001493235999381215,0.0022402264919169556,0.015545807191263398
2013,76,249,8.173262477608229e-05,8.176264695673236e-05,3.0022180650069114e-08,0.0004039352168759189,-3.770331386476755e-05,-0.00044163853074068643,5.2557307491901196e-05,0.0,-5.2557307491901196e-05,0.0002129926388947245,0.00903879408416866
2013,77,249,0.00019941774007263273,0.00019683207973786182,-2.5856603347709024e-06,0.002336799320446918,-0.0006619466585107148,-0.002998745978957633,6.337562527481295e-05,0.0,-6.337562527481295e-05,0.0003915684653076582,0.013990074539535076
2013,78,249,0.0003385252703616876,0.00034005571755374957,1.5304471920619934e-06,0.00046446554392695903,0.0019703481812030077,0.0015058826372760486,0.0002195332885398585,0.0,-0.0002195332885398585,0.0008804983474950481,0.01840836616578766
2013,79,249,0.00010386411822832888,0.00010074413791965658,-3.1199803086723e-06,-0.0011868104488255988,1.6352962120436132e-05,0.001203163410946035,9.351328885567267e-05,0.0,-9.351328885567267e-05,0.0008517382235914964,0.010002313201683573
2013,80,249,0.0014754474672736809,0.0014542728554208467,-2.117461185283413e-05,-0.002883665106562247,-0.0006269107107073069,0.00225675439585494,0.00032954582764772823,0.0,-0.00032954582764772823,0.003160822280877604,0.037946356006938346
2013,81,249,0.00023330738300539558,0.00023180821737925342,-1.4991656261421622e-06,0.0010120798066916715,0.0004765728663187474,-0.0005355069403729241,0.00034832742786091857,0.0,-0.00034832742786091857,-0.000703908270665337,0.01517941638089153
2013,82,249,0.0003570931563790085,0.0003599033506787128,2.8101942997043185e-06,0.0009193540023392942,-0.0007682593422941864,-0.0016876133446334805,7.02335917412241e-05,0.0,-7.02335917412241e-05,0.0009985672455761483,0.018888665238367346
2013,83,249,6.604856770184455e-05,6.501258088998034e-05,-1.0359868118642036e-06,0.001005607571108753,0.0001039515555021353,-0.0009016560156066176,4.4271395301935706e-05,0.0,-4.4271395301935706e-05,-4.217097326513895e-06,0.008062312350220967
2013,84,249,6.705459090933088e-05,6.648133473569464e-05,-5.732561736362414e-07,0.00024614488354409076,-0.0002593066601548344,-0.0005054515436989252,2.8218094581472252e-05,0.0,-2.8218094581472252e-05,-0.0006436578071922279,0.008144544734450511
2013,85,249,0.0007698289461013224,0.0007719887739330268,2.159827831704395e-06,-0.0017444773700581975,0.0002902185369748622,0.0020346959070330598,8.701508764652691e-05,0.0,-8.701508764652691e-05,-0.001280170707400504,0.027740271295612386
2013,86,249,8.334450096901628e-05,8.340687306287039e-05,6.23720938541149e-08,-0.00014201508288881387,0.000989014282822609,0.001131029365711423,6.017071312055535e-05,0.0,-6.017071312055535e-05,0.00039047618510600697,0.009113101843414911
2013,88,249,0.000563413548557356,0.0005448294653096156,-1.858408324774039e-05,-0.0019545848874083483,0.0015491938684135675,0.003503778755821916,7.55792521192166e-05,0.0,-7.55792521192166e-05,0.0023978237178790673,0.023326150404389723
2013,89,249,0.00010185632262088528,0.00010798566152897787,6.129338908092584e-06,-0.0001133036721183593,-0.0018069042125716805,-0.0016936005404533212,3.8642187634440415e-05,0.0,-3.8642187634440415e-05,0.0008516603009669419,0.010045780022294485
2013,90,249,0.00023867441096096385,0.00023988725203982276,1.2128410788589047e-06,0.002880587530543048,-0.001065866439603269,-0.0039464539701463165,2.733720334139655e-05,0.0,-2.733720334139655e-05,0.0010620991173163365,0.015341415013889234
2013,93,249,0.00038880967589588467,0.00038862864574914103,-1.8103014674363937e-07,0.0008236020055401277,0.0007910804124549031,-3.252159308522458e-05,0.0001558859392979478,0.0,-0.0001558859392979478,0.001971756252052851,0.019678278641967924
2013,94,249,0.00010066065705289785,0.00010100996491941197,3.493078665141216e-07,-0.0006693050669259336,-0.0008298018365167081,-0.00016049676959077456,1.98664723561182e-05,0.0,-1.98664723561182e-05,0.0004544596181101424,0.009967980609710858
2013,95,249,0.000180306020644934,0.00017956832698144738,-7.376936634866257e-07,0.0011427500135598172,-0.0003053976106457412,-0.0014481476242055584,0.00039368921724674096,0.0,-0.00039368921724674096,0.0005263765047734258,0.01337447115972688
2013,97,249,0.0001651266115380447,0.00016700465459148467,1.8780430534399615e-06,-0.0003873852781023845,-0.0009163956274278462,-0.0005290103493254617,3.575655626787406e-05,0.0,-3.575655626787406e-05,0.001064280340613704,0.012770339748851915
2013,98,249,7.712278231358563e-05,7.7142895303543e-05,2.0112989957372994e-08,0.00031171927610075615,0.00038271548692137003,7.099621082061388e-05,7.398250597226464e-05,0.0,-7.398250597226464e-05,-0.0005506348475827769,0.008733370051510692
2013,99,249,0.00035112132976513916,0.0003413117921208267,-9.80953764431248e-06,0.0013533125170525238,-0.001649739220738411,-0.0030030517377909348,8.323852981088268e-05,0.0,-8.323852981088268e-05,-0.0018077101330691398,0.018473950235715273
2013,100,249,0.00035594605638594967,0.0003574395731643864,1.4935167784367554e-06,0.0002325807649447736,0.00011485889262985438,-0.00011772187231491921,0.0003312933565904813,0.0,-0.0003312933565904813,0.0011591388326983203,0.01887720987251974
2013,101,249,0.00013992847793440586,0.0001460137651473263,6.085287212920432e-06,0.00035807013092749567,-0.001316336914896965,-0.0016744070458244607,0.0002698175736779858,0.0,-0.0002698175736779858,0.0012138542241844083,0.011815747879293993
2013,102,249,0.004199036486640092,0.004200012186313288,9.75699673196398e-07,0.0003042939047976191,4.096652628504671e-05,-0.0002633273785125724,0.0005885144469617265,0.0,-0.0005885144469617265,0.0018492522250057935,0.06478226832355505
2013,103,249,0.00016259502526312135,0.00016272946101935493,1.344357562335825e-07,0.0004292196149088771,0.0001522209931863472,-0.00027699862172252994,8.835481841534613e-05,0.0,-8.835481841534613e-05,0.0006804195259638298,0.012745605804720565
2013,104,249,0.00011132121271357833,0.00010945852559931034,-1.8626871142679932e-06,0.0015549087994189627,-0.0006358837126754224,-0.002190792512094385,7.697651993921353e-05,0.0,-7.697651993921353e-05,7.608497962369556e-05,0.010437989566027362
2013,105,249,0.00011355268415692973,0.00011451640214577657,9.637179888468409e-07,0.0004714471951919986,-0.00014940332039259374,-0.0006208505155845923,0.00015491675547809903,0.0,-0.00015491675547809903,0.0010571157183833922,0.010633001173462159
2013,106,249,0.00026877041470010633,0.000270329679244452,1.5592645443456747e-06,0.0010519547230867018,0.0004646513843908906,-0.0005873033386958112,0.00017405093528588585,0.0,-0.00017405093528588585,0.0018734381937286974,0.016381239237929703
2013,107,249,0.00014121337507913583,0.00014220985198484543,9.964769057096002e-07,0.0019434517601048611,0.0021399061661213636,0.00019645440601650252,0.00018414535749652065,0.0,-0.00018414535749652065,1.5271453616193124e-05,0.011734384488470764
2013,108,249,0.0001031756750207231,0.0001029317959902524,-2.4387903047070453e-07,0.0013421176667194289,0.0013849134556949139,4.2795788975484974e-05,7.974230536755741e-05,0.0,-7.974230536755741e-05,0.0015376335730118602,0.010144381329387168
2013,109,249,0.0001934187055105213,0.00019395298830854823,5.342827980269176e-07,-0.0007407569352642121,-0.0007595650968141854,-1.880816154997331e-05,0.00011426273762940265,0.0,-0.00011426273762940265,0.00163419044869845,0.01371943594674634
2013,110,249,0.00018092014948259467,0.00018139495777304607,4.7480829045139857e-07,0.00017661589336203764,0.00151273631490767,0.0013361204215456323,2.821218052882967e-05,0.0,-2.821218052882967e-05,0.0006691143365128871,0.013441847333257994
2013,112,249,0.0001784339608178633,0.0001785460693748648,1.1210855700149731e-07,0.000582170743779485,0.0004939521313644946,-8.82186124149904e-05,6.436404095410704e-05,0.0,-6.436404095410704e-05,-0.00032629519091594066,0.013336913574930165
2013,113,249,0.0003236797414667015,0.00032356217489238985,-1.1756657431166283e-07,0.0004524537306054529,0.001044740783981979,0.000592287053376526,0.00033007537552245275,0.0,-0.00033007537552245275,0.0016576310609280908,0.017977389699308805
2013,114,249,0.0002654252391838578,0.00026592859285507267,5.033536712148782e-07,0.001649394122711626,0.001987569499760866,0.00033817537704924016,0.00014761355285839104,0.0,-0.00014761355285839104,-1.2982229303058985e-05,0.016184139941140263
2013,115,249,0.00020667191730565598,0.00020690193408187714,2.300167762211622e-07,0.0012306277621462643,0.0014123850269243121,0.00018175726477804785,0.00011127676160082954,0.0,-0.00011127676160082954,0.0008694638505505092,0.014373836324312383
2013,116,249,7.331267151261479e-05,7.86959976747442e-05,5.3833261621294084e-06,0.00030065348828174025,-0.0016237503150478005,-0.0019244038033295408,0.00010346273839097219,0.0,-0.00010346273839097219,0.0006772122395855934,0.008567471563823198
2013,117,249,0.00020767725023377448,0.00020698516021572255,-6.920900180519313e-07,0.0007339847988512622,0.0011721341870725155,0.0004381493882212533,2.5221864705889047e-05,0.0,-2.5221864705889047e-05,0.0017060281076278197,0.014377069155336082
2013,118,249,8.918493650364848e-05,8.87409718354746e-05,-4.439646681738828e-07,0.0004483286635463975,-0.0008556849206797779,-0.0013040135842261754,4.266504698374938e-05,0.0,-4.266504698374938e-05,-0.000369958499992682,0.009407711819551077
2013,119,249,0.0003965773933300345,0.0003966180963434257,4.070301339118704e-08,-0.00112445274345487,-0.0010603362461552024,6.41164972996675e-05,0.0001614948006907986,0.0,-0.0001614948006907986,0.001321061428787977,0.01977238077362461
2013,121,249,0.0012577030975865558,0.00124887741192175,-8.825685664805814e-06,-0.0018904197317768771,-0.0008932612254284322,0.0009971585063484449,0.00017250042045950425,0.0,-0.00017250042045950425,0.002017791471731108,0.035219358087791836
2013,122,249,0.00011679767083841805,0.00011593034784155426,-8.673229968637832e-07,0.0016999509237916116,0.0013980738585814834,-0.0003018770652101282,5.0870683764248515e-05,0.0,-5.0870683764248515e-05,-7.194543387728981e-05,0.010666273534902113
2013,124,249,0.00021626822823244576,0.0002216749062471357,5.406678014689947e-06,0.001250605282175493,-0.0008609049255028367,-0.00211151020767833,0.00012412310202633185,0.0,-0.00012412310202633185,0.0014941718563817941,0.014701310132044811
2013,125,249,0.00044530149159459955,0.00047631671302559415,3.1015221430994594e-05,0.000545214906514409,-0.0037282246630638838,-0.004273439569578293,8.46724220236316e-05,0.0,-8.46724220236316e-05,0.0020697400523612187,0.021040444819068808
2013,126,249,0.0014319776556638633,0.0014268812800902338,-5.096375573629495e-06,-0.0027277326907020017,0.0011617073323577642,0.003889440023059766,0.0001204584945011107,0.0,-0.0001204584945011107,-0.0002510042748621843,0.03774765590079812
2013,127,249,0.00013419938400144736,0.0001347092450194001,5.098610179527278e-07,-0.0002190874044196194,0.00043390519567765296,0.0006529926000972724,0.00020720137794168862,0.0,-0.00020720137794168862,0.0002543189765041744,0.011605041740953925
2013,128,249,0.00042893859108115014,0.0004205298263928706,-8.408764688279554e-06,0.00014781178420327274,0.0016622513066977262,0.0015144395224944535,0.00011207069865104125,0.0,-0.00011207069865104125,0.003882009246642914,0.020386331231511977
2013,129,249,0.00023908907264466402,0.00024032448617972602,1.2354135350619991e-06,0.0007967569502481974,-0.0004879985935986042,-0.0012847555438468016,0.000221144123728628,0.0,-0.000221144123728628,0.0006751778851076612,0.015458703265769425
2013,130,249,0.00020916448069897844,0.00020927888248669385,1.1440178771540905e-07,-0.0005805128549476225,0.00026012214948423207,0.0008406350044318546,4.2278888974736866e-05,0.0,-4.2278888974736866e-05,-0.00018074317170395176,0.014459755193476385
2013,131,249,0.00017918722448154943,0.00017420720574599935,-4.9800187355500815e-06,-0.0009177268209706349,0.0008411415037699044,0.0017588683247405394,0.0003866557391170675,0.0,-0.0003866557391170675,0.0013052225806541578,0.0131905964421658
2013,132,249,0.00017944710673183786,0.0001798328262551858,3.8571952334792996e-07,0.0013025868384833317,0.0002337116893613711,-0.0010688751491219606,5.205935309562928e-05,0.0,-5.205935309562928e-05,0.000970279309147616,0.013389932576255497
2013,133,249,0.0001848043527680186,0.00019067348334920182,5.869130581183217e-06,-5.979173214560053e-05,0.0030198185704648495,0.00307961030261045,3.8752322809214815e-05,0.0,-3.8752322809214815e-05,0.0005309660409545505,0.013582308214569115
2013,134,249,0.00018216587309944986,0.00017778608753244536,-4.379785567004506e-06,0.003923481951157252,0.0005109087796881795,-0.003412573171469073,7.523118243812416e-05,0.0,-7.523118243812416e-05,0.0015949883262379187,0.013289501836758137
2013,135,249,0.00015072044808657915,0.00015086079868464994,1.4035059807079343e-07,0.00022664523298242484,5.974532541586086e-05,-0.00016689990756656398,0.0002674222306666954,0.0,-0.0002674222306666954,0.002157019721280889,0.012102158435299833
2013,136,249,0.0005685406220190066,0.0005861600693049551,1.7619447285948482e-05,-0.0010593674785221916,0.0031832209788262844,0.004242588457348476,0.0001222114598204494,0.0,-0.0001222114598204494,-0.000978519625107881,0.023850366547508654
2013,137,249,0.00020912186940293866,0.00021042530529556913,1.3034358926304731e-06,0.0007214616295922712,-0.00010235396621283144,-0.0008238155958051026,0.00011786443143303465,0.0,-0.00011786443143303465,0.0010616816806764938,0.014459264376459124
2013,138,249,0.00018636959105756875,0.0001787716672210394,-7.597923836529359e-06,-0.0011663363730332937,0.0010689877672120929,0.002235324140245387,2.5089860939225605e-05,0.0,-2.5089860939225605e-05,0.0016480653363331757,0.013358006452685227
2013,139,249,0.00016347435353313055,0.00016707887803134915,3.604524498218608e-06,0.001042996507033287,-0.00024343554105143994,-0.0012864320480847269,0.00018537270774807447,0.0,-0.00018537270774807447,0.0016261272976475555,0.012789980954774904
2013,140,186,0.00014272316413580066,0.00014214412064133872,-5.790434944619475e-07,0.00019666308196642065,0.0010789274238049984,0.0008822643418385777,0.00026076038685287224,0.0,-0.00026076038685287224,0.00021579393590318764,0.011891136246103698
2013,141,249,0.00023990582044436544,0.00024091712559670006,1.0113051523346153e-06,-0.0006193983028212704,-0.0012565032811835408,-0.0006371049783622704,8.437681033181777e-05,0.0,-8.437681033181777e-05,-0.0002532381650612602,0.015489047249701068
2013,143,249,0.00010716836919452356,0.00010894960614432906,1.7812369498054954e-06,0.00018210447277409964,0.0015547594521194696,0.00137265497934537,5.1207118410709155e-05,0.0,-5.1207118410709155e-05,0.00021128658370506997,0.010351071770409255
2014,0,249,0.00013803809091845676,0.00014035057704179276,2.3124861233360036e-06,0.001038782378980314,0.0017253821715712547,0.0006865997925909408,4.9285717974724426e-05,0.0,-4.9285717974724426e-05,-0.0004866920653587687,0.011638612658392897
2014,1,249,0.0003354498594848358,0.00033470145989841814,-7.48399586417679e-07,0.0028803323107550903,0.0020124204456806183,-0.000867911865074472,0.0005216296598168324,0.0,-0.0005216296598168324,0.0018876116196469023,0.01829442217331179
2014,2,249,0.0039725045951725275,0.003971987649230178,-5.169459423495087e-07,-0.001022307643569617,-0.0012493487447500229,-0.00022704110118040594,0.0005794094304331008,0.0,-0.0005794094304331008,-6.527338479211675e-05,0.0630125829876233
2014,3,249,0.00021086991515362096,0.00020842944160631593,-2.4404735473050306e-06,0.0021598062825849257,-0.0017035637283697724,-0.003863370010954698,8.081921069824425e-05,0.0,-8.081921069824425e-05,-8.170465309329112e-05,0.014345696732688134
2014,4,249,4.1217982519716596e-05,4.14448819669328e-05,2.2689944721620485e-07,-0.0006821116649482144,0.0017941357800737023,0.002476247445021917,4.585414004707102e-05,0.0,-4.585414004707102e-05,0.0005011328973464734,0.006306585883993955
2014,5,249,0.00021040188836315117,0.00022280157457547865,1.2399686212327481e-05,-0.0009058906386295954,0.0018632273422554135,0.002769117980885009,0.0028189391361150514,0.0,-0.0028189391361150514,0.00046453713000607085,0.014860862702603655
2014,6,249,0.0005508926369681953,0.0005471429532228637,-3.7496837453315605e-06,0.0007161788126251783,0.0018745322013273835,0.0011583533887022052,0.00017056934473035272,0.0,-0.00017056934473035272,0.0021983323264835697,0.023388845775322315
2014,7,249,0.0001509029852156845,0.00015189410919138124,9.911239756967515e-07,0.0007438469214372367,1.1400774383218959e-05,-0.0007324461470540177,0.00010701511606489673,0.0,-0.00010701511606489673,0.0007596012492422032,0.012301800894210646
2014,8,249,0.00048053016095518826,0.00047531201272033475,-5.218148234853513e-06,0.0014210338423769158,-0.0003922616015188396,-0.0018132954438957554,0.00013710579565676435,0.0,-0.00013710579565676435,-0.0007583949975862127,0.021798576996139428
2014,9,249,0.0001698567653930543,0.0001690011804504924,-8.555849425619078e-07,0.0015100914364059765,-0.00015342989354394376,-0.0016635213299499203,7.959772173942878e-05,0.0,-7.959772173942878e-05,0.0004370130181034094,0.012986629956173295
2014,10,249,0.0003250619768217502,0.0003273294673380881,2.2674905163379126e-06,0.0013782404153701291,0.0020759650506079197,0.0006977246352377906,0.00023123268138188733,0.0,-0.00023123268138188733,0.00026817237503529157,0.01800170416877897
2014,12,249,0.00023159971838950194,0.00023037066493132496,-1.2290534581769835e-06,0.0015042820369383417,0.0007479561609216034,-0.0007563258760167383,0.00010112109655115011,0.0,-0.00010112109655115011,0.00011536975068355942,0.01516477824977692
2014,13,249,0.00011412913963130712,0.00011359753641202983,-5.31603219277289e-07,0.0013284041101195247,0.00014161095896270126,-0.0011867931511568234,5.505438552948976e-05,0.0,-5.505438552948976e-05,0.00048624795172095517,0.01065264106948377
2014,14,249,0.000197094139980744,0.0001978702737872149,7.761338064709157e-07,-0.0005331986460341029,0.0004816381842829287,0.0010148368303170316,8.22476603857381e-05,0.0,-8.22476603857381e-05,-0.0001408651876591442,0.014052856056301697
2014,15,249,4.536115162883988e-05,4.63206731834875e-05,9.595215546476235e-07,5.312222074792088e-05,0.000810802448540926,0.0007576802277930051,9.865462890970549e-05,0.0,-9.865462890970549e-05,-0.000142086424557729,0.006738892785837468
2014,16,249,7.080475223852953e-05,7.082315389683584e-05,1.8401658306304463e-08,0.0005487097973325645,0.00030628382228314877,-0.00024242597504941577,3.963184250962363e-05,0.0,-3.963184250962363e-05,0.0004365842752825043,0.008414640556125019
2014,17,249,0.00014441453548449406,0.00014443467211018313,2.0136625689077614e-08,0.0010899828380370236,0.0011396057670935988,4.9622929056575196e-05,7.405279788865703e-05,0.0,-7.405279788865703e-05,-0.00045727284150499204,0.011911534360424908
2014,18,249,0.0005160003539437178,0.0004927252479870561,-2.327510595666175e-05,0.0045052725133527234,-2.950179623439908e-05,-0.0045347743095871225,0.0001542461072103627,0.0,-0.0001542461072103627,-0.00031278471230021624,0.022195607646030367
2014,19,249,0.0001550278295830902,0.0001553084209862622,2.8059140317200333e-07,0.0007645601863004118,0.0002747785474639386,-0.0004897816388364732,0.0001978323235719615,0.0,-0.0001978323235719615,-0.00015947865079617,0.012454711625405915
2014,20,249,0.0006269287239003268,0.0006305774225957429,3.6486986954160612e-06,0.00041301435151373046,-0.0014166984474286437,-0.0018297127989423741,0.00047630613079242275,0.0,-0.00047630613079242275,0.0005239020087071753,0.025036203635243656
2014,21,249,0.0002322321677956935,0.00023285335930079332,6.211915050998026e-07,0.000723849106804434,-0.00021456522517837584,-0.0009384143319828099,0.0002054135647686399,0.0,-0.0002054135647686399,0.00018126077453133166,0.015254398745238922
2014,23,249,0.0004706409145704933,0.000468951128715168,-1.6897858553253432e-06,-0.0003269970132763606,0.0008540001581422985,0.001180997171418659,0.00010574855841130692,0.0,-0.00010574855841130692,0.0010705414026720406,0.021654196789642997
2014,24,249,0.00031730321908568374,0.00031342298900138697,-3.880230084296772e-06,0.0025138904950226166,-0.0008746058447286487,-0.0033884963397512653,5.0432418413047795e-05,0.0,-5.0432418413047795e-05,0.0002537482719936546,0.017667761770769452
2014,25,249,0.00018262338623638966,0.00018390840298762563,1.285016751235963e-06,0.0006720565362781077,0.0012217973126098514,0.0005497407763317436,5.52960317891676e-05,0.0,-5.52960317891676e-05,-0.0002078694209630346,0.013485713033375006
2014,26,249,0.0002234106078644139,0.00022441902708953315,1.0084192251192607e-06,0.00048040796864224245,0.0009801095584407449,0.0004997015897985024,0.00015738847150610188,0.0,-0.00015738847150610188,-0.00015691340763056736,0.014937409610242309
2014,27,249,0.00015856919246490535,0.0001641366459211957,5.567453456290362e-06,0.0005085603539723469,0.0029932805337011814,0.0024847201797288344,0.0001086153104692296,0.0,-0.0001086153104692296,0.0005853886270318643,0.012583270738841787
2014,28,249,0.0005610432349234922,0.0005700709035621523,9.027668638660058e-06,0.0003682271274457495,-0.0011843811953440309,-0.0015526083227897804,0.00023371801469866408,0.0,-0.00023371801469866408,0.0023715921070960925,0.023609869915662086
2014,29,249,0.000529029713365234,0.0005046824852808229,-2.4347228084411142e-05,-0.004543389369505477,-0.001239538541994989,0.0033038508275104878,0.00017912161891496246,0.0,-0.00017912161891496246,0.0008286373541484339,0.02236973700657731
2014,30,249,0.00011535960584975012,0.00011291783190422083,-2.4417739455292862e-06,0.0026228632553514227,0.001402329420670867,-0.0012205338346805558,6.323257200631846e-05,0.0,-6.323257200631846e-05,0.0009613123039130698,0.010617124648743051
2014,31,249,0.00019840236809677813,0.00019896472530885794,5.623572120798067e-07,0.0007709651646843875,0.0008763800724409521,0.00010541490775656454,0.00010814861654507596,0.0,-0.00010814861654507596,0.00012310151529881753,0.01408535752915799
2014,32,249,0.00016058035007615308,0.00016411229435584675,3.531944279693667e-06,0.0010201371981796012,-0.0020354900043457747,-0.003055627202525376,3.433022323346927e-05,0.0,-3.433022323346927e-05,6.59820313031271e-05,0.012637092610218227
2014,33,249,0.00021504101538440175,0.00021630781095108444,1.266795566682693e-06,0.001795150339603424,0.00022787670604884624,-0.0015672736335545778,0.0001251899824370604,0.0,-0.0001251899824370604,0.0014180990506857814,0.014659167156472808
2014,34,249,0.00030203909479705924,0.00030000069374502256,-2.038401052036683e-06,0.0027625420875099288,0.0007608336163684726,-0.002001708471141456,0.00010977565805919375,0.0,-0.00010977565805919375,0.0013652571057617222,0.017309978798094813
2014,35,249,0.00013802146586726902,0.0001371091784673362,-9.122873999328123e-07,0.0009399338599189697,0.0002645167987793684,-0.0006754170611396013,0.0004546665319736598,0.0,-0.0004546665319736598,-2.9386249125882405e-05,0.011705673815110685
2014,36,249,0.00016089293519815364,0.00016521889878215332,4.325963583999684e-06,-0.0008989913411528231,0.0015136164147406816,0.0024126077558935047,0.00011928506981139501,0.0,-0.00011928506981139501,-0.0006119532798949292,0.0126767839870923
2014,37,249,0.0005517175938710167,0.0005500683077874416,-1.6492860835750668e-06,0.003361190957237918,0.001676243613474071,-0.0016849473437638468,0.0005259551149910421,0.0,-0.0005259551149910421,0.002398989173615851,0.023442396350261147
2014,38,249,0.000152189728121102,0.00015140126754554207,-7.884605755599159e-07,0.0005073271033514934,-0.0003865626349579543,-0.0008938897383094477,0.00011126793514390665,0.0,-0.00011126793514390665,-0.00042195795364122603,0.012304471330250527
2014,39,249,0.00019760602264512226,0.0001986021989570591,9.96176311936827e-07,0.0016962573321229483,0.0018788630841299891,0.0001826057520070408,0.0002507553744892576,0.0,-0.0002507553744892576,0.00021761499200931257,0.01399437221648346
2014,41,249,0.00010104776037103484,0.00010190337228683015,8.556119157953148e-07,0.00031117376792861754,0.001752229523845017,0.0014410557559163995,2.4007592544543704e-05,0.0,-2.4007592544543704e-05,0.0007063562014329608,0.010040394478320903
2014,42,249,0.0002548637517472145,0.0002614177305234559,6.553978776241442e-06,0.00018956244410759952,0.002377074211835861,0.0021875117677282617,0.00027470124942882175,0.0,-0.00027470124942882175,-0.0002803826601614398,0.015948531389972247
2014,43,249,0.0002146121599154661,0.00021637446353367932,1.7623036182132137e-06,0.0008582546558964204,-0.00024021977151278406,-0.0010984744274092045,0.00012152194920888644,0.0,-0.00012152194920888644,0.0012429604326624133,0.01463470669387064
2014,44,249,0.0001789981482286545,0.00017854123250924615,-4.5691571940836536e-07,0.0016426202882245842,0.0010682314168661833,-0.0005743888713584009,0.00018728811016497477,0.0,-0.00018728811016497477,0.0008849213622953456,0.013360674755907326
2014,45,249,0.0006565579072327031,0.000651552780083749,-5.005127148954109e-06,0.0036569100554030105,0.0016647964948788285,-0.001992113560524182,0.0005077972390299015,0.0,-0.0005077972390299015,0.0014497553894917143,0.02552462609729559
2014,47,249,0.00010217962480297254,0.00010146954039057261,-7.100844123999334e-07,0.0015819322048540574,0.0011563405860215425,-0.00042559161883251487,0.00014072807460626966,0.0,-0.00014072807460626966,0.0010467270870784919,0.010072612633841429
2014,48,249,0.00024262165364224853,0.00024283180642891263,2.1015278666409814e-07,0.0014450266418686833,0.0007538966019637883,-0.000691130039904895,9.142265377514126e-05,0.0,-9.142265377514126e-05,0.0011373227676691566,0.015578343647652825
2014,49,249,0.00017777526482481252,0.00017587216237655183,-1.9031024482606888e-06,0.002354777638751819,0.0018997726729139686,-0.0004550049658378504,0.00010523685193670512,0.0,-0.00010523685193670512,0.00023385181170558874,0.013156628369789208
2014,50,249,0.00011625707346005136,0.00011586872078316947,-3.883526768818903e-07,0.0015767075151324752,0.0013289751950651407,-0.00024773232006733447,5.1010542693133516e-05,0.0,-5.1010542693133516e-05,0.0008969219781837487,0.010755559065011536
2014,51,249,0.00021235790192099217,0.00021417389272150795,1.8159908005157784e-06,0.0006309257648197044,0.0014602807350456715,0.0008293549702259671,0.00016131103017104803,0.0,-0.00016131103017104803,5.4806883306501405e-05,0.014567035936441734
2014,52,249,9.968211913275718e-05,9.968958327188565e-05,7.464139128472843e-09,0.0016084392536356747,0.0018683047965168953,0.00025986554288122063,0.000221856835592817,0.0,-0.000221856835592817,0.00143878855753671,0.009975224261756628
2014,53,249,0.00039990719817642917,0.00039314446194657567,-6.762736229853504e-06,0.001789076156525248,-0.0003950648824684322,-0.0021841410389936804,0.00024643769605893836,0.0,-0.00024643769605893836,-0.0007526795451220467,0.019824645613468875
2014,54,249,0.00010338511760766447,0.00010489330174379838,1.508184136133912e-06,0.0007640599167015568,-0.0010995672782883048,-0.0018636271949898616,0.00011484735365512845,0.0,-0.00011484735365512845,0.0002026108513022625,0.010158623620481979
2014,55,249,0.0001963928498719988,0.00019694611524817128,5.532653761724864e-07,0.00012749468956337157,0.0010932915611192584,0.0009657968715558868,8.208332632452954e-05,0.0,-8.208332632452954e-05,0.00023373071922687958,0.014007400558535351
2014,57,249,0.00022578235093918554,0.00022649190318039787,7.095522412123366e-07,0.00030310738394149096,-0.0008013155893422663,-0.0011044229732837573,0.00012141668877864174,0.0,-0.00012141668877864174,0.00016773680839028666,0.015018416715181606
