bmulder03/bachelors-thesis/results/shrinkage_diagnostics_F3_L30/asset_year_stats.csv
test_year,asset_id,n_obs,mse_sep,mse_joint,delta_mse,mean_pred_sep,mean_pred_joint,delta_mean_pred,std_pred_sep,std_pred_joint,delta_std_pred,mean_true,std_true
2011,0,254,0.0004403213943357564,0.0004422785137692203,1.9571194334639004e-06,2.3125546185050426e-06,0.0009386479505337775,0.0009363353959152724,0.0006023936298533084,0.0,-0.0006023936298533084,-0.00031635381552758005,0.020992938916130896
2011,1,254,0.00045669381920891656,0.00045949037203020466,2.7965528212881008e-06,-0.0011991742177037742,9.474391117691994e-05,0.0012939181288806941,0.001434774843678271,0.0,-0.001434774843678271,-0.0014662664290772155,0.02137881237926521
2011,3,254,0.0006584553707701437,0.0006530560790777904,-5.39929169235333e-06,-1.9643822406220623e-05,-0.0011079692048951983,-0.0010883253824889778,0.0011826389482879694,0.0,-0.0011826389482879694,-0.0013210038938836093,0.025554073947202185
2011,4,254,7.160578833793335e-05,7.096357878268604e-05,-6.42209555247312e-07,0.0005554168624436761,0.0005160330329090357,-3.9383829534640454e-05,0.0008776128048777688,0.0,-0.0008776128048777688,0.00011087411022314347,0.008414239420770839
2011,5,254,0.0006300929941263447,0.0006308977817543406,8.047876279958927e-07,0.0002908570999939611,-0.0011698618764057755,-0.0014607189763997366,0.0009855923444458145,0.0,-0.0009855923444458145,-0.0007606921605777137,0.025114345738999243
2011,7,254,0.0005732886935782386,0.0005629267133519969,-1.036198022624172e-05,0.0020660158598751533,-0.0004764250188600272,-0.0025424408787351805,0.002591181194350293,0.0,-0.002591181194350293,0.00016264436534428332,0.02371746832345665
2011,8,254,0.0010059837483489078,0.0010010529977201642,-4.930750628743619e-06,0.0010659385795199026,0.0002978548000101,-0.0007680837795098025,0.0006283561735283514,0.0,-0.0006283561735283514,-0.0015346182837623836,0.03158631096088007
2011,10,254,0.0006769606752011606,0.0006713898144066949,-5.570860794465752e-06,0.0018565090681154897,0.0008789226994849741,-0.0009775863686305156,0.0016374566020031646,0.0,-0.0016374566020031646,-0.0017163044255996422,0.025780896232984598
2011,12,254,0.0005702598478312868,0.000577828229150659,7.568381319372243e-06,-0.0009481765725833225,0.00010477791511220858,0.0010529544876955311,0.0012492003729878223,0.0,-0.0012492003729878223,-0.0017795261549306582,0.02396409037126755
2011,13,254,0.00031737123371003434,0.00032676245025987493,9.391216549840592e-06,-7.104009800539241e-05,0.0021438184194266796,0.002214858517432072,0.00045265277029051134,0.0,-0.00045265277029051134,-0.001179956176294687,0.017768370006748274
2011,14,254,4.609123374019519e-05,4.628443100655713e-05,1.9319726636193987e-07,-0.0005635931119909437,-0.00019190787861589342,0.00037168523337505026,0.0005096981729540749,0.0,-0.0005096981729540749,-0.00027828206665994897,0.006802717876422396
2011,15,254,0.00011035429649662773,0.0001127029088011268,2.348612304499067e-06,-7.532800980440275e-06,0.00043214860488660634,0.0004396814058670466,0.0006766453482253021,0.0,-0.0006766453482253021,-0.00025341006236552727,0.01059400387553649
2011,16,254,0.00026490476131814345,0.00027420778627664454,9.303024958501088e-06,0.0008290316176226758,0.003102443180978298,0.0022734115633556225,0.0006423620543689578,0.0,-0.0006423620543689578,-0.00016610283885793193,0.016233434423832106
2011,17,254,0.00021084156539518873,0.00020630729526607377,-4.534270129114953e-06,-0.00027556615463626667,0.0007447272073477507,0.0010202933619840172,0.001437419839454265,0.0,-0.001437419839454265,0.0009090896157635795,0.014362460801157065
2011,18,254,0.0009403575006827729,0.0009371485775465907,-3.2089231361821747e-06,0.0004961601069827718,-0.0022519337944686413,-0.002748093901451413,0.0010407170468523749,0.0,-0.0010407170468523749,-0.0018217654067847202,0.030609860056929797
2011,19,254,0.0004222366329184145,0.00041806863998907016,-4.167992929344339e-06,0.0021786251816693254,0.0002028021408477798,-0.0019758230408215456,0.0009619436782190486,0.0,-0.0009619436782190486,0.0003069581875896326,0.020446461588915495
2011,20,254,0.0008359475550127362,0.0008424118555506559,6.464300537919717e-06,-0.0009106488854397,0.0004157261864747852,0.001326375071914485,0.0011135338083761933,0.0,-0.0011135338083761933,-0.002956471667233794,0.028827766774172762
2011,21,254,0.00026794441340757965,0.000268352247627862,4.0783422028232855e-07,0.001165408655766427,-0.00021451906650327146,-0.0013799277222696985,0.0006516306692261318,0.0,-0.0006516306692261318,7.411202164594376e-05,0.01637891753818963
2011,23,254,0.0005600408709260431,0.0005270786723593349,-3.29621985667082e-05,0.0024068254801466707,0.0005787254776805639,-0.0018281000024661068,0.0016740756398884763,0.0,-0.0016740756398884763,-0.002093888621940303,0.022802100917105043
2011,24,254,0.0008289315329715063,0.0008320883293590065,3.156796387500144e-06,0.001965120376095058,-0.0019125662511214614,-0.0038776866272165196,0.0007469312273364215,0.0,-0.0007469312273364215,0.00027476009157473323,0.028762891593675937
2011,25,254,0.0005398285473207907,0.0005411180809403798,1.2895336195890752e-06,0.0014164419038089242,0.0018122806213796139,0.00039583871757068964,0.0013449151921862328,0.0,-0.0013449151921862328,6.170925510203477e-05,0.023195981997577678
2011,28,254,0.00036116675586656173,0.0003613705591102414,2.038032436796843e-07,0.00012115973568572773,0.00019091714057140052,6.975740488567279e-05,0.0016663649222212536,0.0,-0.0016663649222212536,-0.00017491500015196277,0.019006228609459976
2011,29,254,0.0010258450096505259,0.0009634090703459845,-6.243593930454138e-05,0.004118183686390636,-0.002006523311138153,-0.006124706997528789,0.0016931328135017533,0.0,-0.0016931328135017533,-0.003490600003501789,0.031003331864771687
2011,30,254,0.00025263100342401814,0.0002505265584349429,-2.104444989075216e-06,0.0007050231421791663,0.00052349065663293,-0.00018153248554623623,0.0006053261392046074,0.0,-0.0006053261392046074,9.327576723489357e-05,0.015822182958867698
2011,31,254,0.0006093761090916478,0.0006024864074968029,-6.8897015948449864e-06,0.001586512581804606,0.00032467234996147454,-0.0012618402318431315,0.0022513066389081046,0.0,-0.0022513066389081046,-0.00034279172489799136,0.024536521742202465
2011,32,254,0.0011071768122827236,0.00109670492131356,-1.0471890969163643e-05,0.0013413586191774354,-0.002010225784033537,-0.0033515844032109723,0.0005052627152751156,0.0,-0.0005052627152751156,-0.002059238864026747,0.03311649919649644
2011,34,254,0.0004774914795487774,0.00047451015449211787,-2.981325056659531e-06,-0.002360967112573113,-0.0005872428882867098,0.0017737242242864032,0.0006446164973182378,0.0,-0.0006446164973182378,-0.0009254261078936398,0.02178062870079957
2011,35,254,0.0006124643702170812,0.0006058296527856553,-6.6347174314259445e-06,0.0018126323496497523,0.0008263980853371322,-0.00098623426431262,0.0007753920771221968,0.0,-0.0007753920771221968,-0.00012096037337334035,0.024595368766016992
2011,36,254,0.0004815962933196719,0.00046186313921881363,-1.973315410085829e-05,0.0023910798513748516,-0.0005645349738188088,-0.0029556148251936604,0.0016802665251224324,0.0,-0.0016802665251224324,-0.001970162135194858,0.02144498429708017
2011,38,254,0.0007395055573768516,0.0007266546692393334,-1.2850888137518187e-05,-0.004687823201199685,0.0008684317581355572,0.005556254959335242,0.001936183151824836,0.0,-0.001936183151824836,-0.0016482961992865654,0.026838791880926072
2011,39,254,0.0007519272954952155,0.0007544961519597949,2.568856464579372e-06,0.0011651629479381982,0.0017819924978539348,0.0006168295499157366,0.0003438806558094054,0.0,-0.0003438806558094054,-0.0009993040210875403,0.02732691972457779
2011,41,254,0.0003175809110238667,0.0003121445062841411,-5.4364047397255605e-06,0.001804479903827502,-0.0010618830565363169,-0.0028663629603638188,0.00022801532806302765,0.0,-0.00022801532806302765,-0.0005273706708957903,0.017659524421505174
2011,43,254,0.00026949400074777397,0.0002685754048997983,-9.185958479756488e-07,0.0005711972068144581,0.00041985863936133683,-0.00015133856745312127,0.0009917080497885181,0.0,-0.0009917080497885181,-4.942666514396686e-05,0.016381549871815348
2011,44,254,0.00025706360146508,0.0002529830824456072,-4.080519019472801e-06,0.0016867445092501603,0.0001845413789851591,-0.0015022031302650012,0.00042351441885866455,0.0,-0.00042351441885866455,3.7465313950649686e-05,0.015904761899402996
2011,45,122,0.0018372135182073055,0.0014026581522931067,-0.0004345553659141988,0.018780828591008655,0.006723571629797826,-0.012057256961210829,0.0036630186879744145,0.0013150770281577478,-0.0023479416598166667,-0.005610845215760953,0.035329589916932594
2011,46,82,0.0002599117922076154,0.00025636902007033943,-3.5427721372759797e-06,0.001908084741089402,-0.0016133383614942431,-0.0035214231025836452,0.0011445609159777053,0.0,-0.0011445609159777053,0.0003075985757621355,0.015895880641015877
2011,47,254,0.0002724803345443788,0.0002762752930156457,3.7949584712668703e-06,0.0001472939304479464,0.0015536249848082662,0.0014063310543603199,0.0005300899533425247,0.0,-0.0005300899533425247,-0.0006047737070721356,0.016480795129560185
2011,48,254,0.0006068647908913849,0.0006068818274714865,1.7036580101628847e-08,-0.00017306842936540214,0.00036363098719963935,0.0005366994165650414,0.0009856249793843423,0.00042201203729899087,-0.0005636129420853515,-0.00047202375070754763,0.024570849028913468
2011,49,254,0.0006526000992998353,0.0006515464272247625,-1.0536720750727773e-06,0.000432941798619398,-0.0015269805444404483,-0.0019599223430598464,0.0004894895930705837,0.0,-0.0004894895930705837,-0.0012005333881158562,0.02552331991491095
2011,50,254,0.00031727709758467453,0.00031170472050291286,-5.572377081761669e-06,0.0016828524902110964,-0.0009713894687592983,-0.0026542419589703947,0.0006249133868029194,0.0,-0.0006249133868029194,-0.0004753191108598343,0.017648190692049013
2011,51,254,0.000698237224934646,0.0006786500035308694,-1.9587221403776552e-05,0.004144026743849431,0.0017376980977132916,-0.0024063286461361395,0.0007549972355397207,0.0,-0.0007549972355397207,-0.0014336824020734803,0.025857152767782478
2011,52,254,0.00023760113507379597,0.00023565927030917607,-1.941864764619898e-06,0.000994100979727319,-8.543775038560852e-06,-0.0010026447547658798,0.0006685254161081894,0.0,-0.0006685254161081894,-0.0003000884279908931,0.015348428975778296
2011,53,254,0.0006062413712848456,0.0005995255294933689,-6.715841791476713e-06,0.0017518720875574847,0.00017397984629496932,-0.0015778922412625154,0.0012063477575647633,0.0,-0.0012063477575647633,-0.0011359616771437272,0.024450144840031926
2011,54,254,0.00041145780970817735,0.0004140042572302962,2.5464475221188354e-06,0.00040140902022207817,-0.003033564891666174,-0.003434973911888252,0.0006529940791712869,0.0,-0.0006529940791712869,-0.0006178101450653975,0.020203177627159834
2011,55,254,0.0004638827785983961,0.00047240703286860133,8.524254270205248e-06,-0.0003430559923212359,0.001858160481788218,0.0022012164741094537,0.0007115903939895962,0.0,-0.0007115903939895962,-0.0009838089900803986,0.021548323424098865
2011,57,254,0.0005006538565907044,0.0004887570918930968,-1.18967646976076e-05,0.0022428899592771305,3.8780897739343345e-05,-0.002204109061537787,0.0005305799369509954,0.0,-0.0005305799369509954,-0.001740874604448699,0.022036104877827842
2011,59,254,0.0005652479650291619,0.0005489458057237176,-1.630215930544432e-05,0.0037922688767196627,0.0006337966187857091,-0.0031584722579339536,0.0006361435836330897,0.0,-0.0006361435836330897,-0.00014083594180163244,0.02341678351353565
2011,60,254,0.00044275902403171085,0.00044612876590618375,3.3697418744729063e-06,0.0008317229345323532,0.0025138685014098883,0.001682145566877535,0.0013218335081020447,0.0,-0.0013218335081020447,-0.000884983896033121,0.02084650014478639
2011,61,254,0.000575049828459097,0.000588584778305399,1.3534949846302031e-05,-0.0023970958285444363,0.0007094966131262481,0.0031065924416706844,0.002183343079763781,0.0,-0.002183343079763781,-0.0015046137830534293,0.024159521796983642
2011,63,254,0.00020273417999211338,0.00019750861306933612,-5.225566922777256e-06,0.0018239873424759061,0.0007361206808127463,-0.0010878666616631599,0.0010885581483443738,0.0,-0.0010885581483443738,0.00011068156288989529,0.014039851814713284
2011,64,254,0.0007345705251852639,0.0007327178994580984,-1.852625727165498e-06,0.0006961272369454226,0.0008390879374928772,0.0001429607005474546,0.0008819940468287393,0.0,-0.0008819940468287393,-0.003443091354652608,0.02672790377055445
2011,65,254,0.0008722808500764035,0.0008526430522686058,-1.9637797807797665e-05,-0.0009050186811469671,-0.0009784705471247435,-7.345186597777634e-05,0.004934125482048755,0.0,-0.004934125482048755,-0.0010411074156823485,0.02919998508375138
2011,66,254,0.0010396952863816042,0.0010483178496108895,8.622563229285273e-06,-0.0007023635489030147,0.0004659671103581786,0.0011683306592611934,0.0007404417695788534,0.0,-0.0007404417695788534,-0.003007915891741725,0.032190836995931144
2011,67,254,0.0003901595105171795,0.0003976859544687657,7.526443951586209e-06,0.0013596715596247847,0.002735055284574628,0.0013753837249498432,0.00017212410385946834,0.0,-0.00017212410385946834,-0.0005896044450180425,0.019662975160213928
2011,68,254,0.006491787611058963,0.006503441722132542,1.1654111073578985e-05,0.001618880272556947,-0.004421307707176082,-0.006040187979733029,0.0022167186245118852,0.0016957807289204672,-0.000520937895591418,-0.0037047368939998244,0.0804606492127433
2011,69,254,0.0005815115507861384,0.0005761871162398358,-5.324434546302606e-06,-0.00020177374909243246,0.00023013725876808167,0.0004319110078605141,0.0015942539261211263,0.0,-0.0015942539261211263,-0.0014317314851215036,0.023946300518408244
2011,71,254,0.0007085624418886234,0.0007043385923297045,-4.223849558918904e-06,4.293385335779565e-05,-0.0008152567897923291,-0.0008581906431501247,0.0004915197464501415,0.0,-0.0004915197464501415,-0.0018455154844054852,0.0265193732835427
2011,72,254,0.0017338092462777493,0.0017379788362953052,4.169590017555911e-06,-0.0014622566092202043,0.002114118542522192,0.003576375151742396,0.001087420340007711,0.0,-0.001087420340007711,-0.0012156856610195375,0.04155588093472909
2011,73,254,0.0010036658983582714,0.0009996820418598077,-3.9838564984636705e-06,-0.0005678174518576757,-0.002424923237413168,-0.0018571057855554921,0.0008159020047022714,0.0,-0.0008159020047022714,-0.002715003532023185,0.0316164181286003
2011,74,254,0.0004727355124281299,0.0004686719755607709,-4.063536867359005e-06,0.001072890000549827,-0.00100333068985492,-0.002076220690404747,0.00039327302250415774,0.0,-0.00039327302250415774,-0.0007913073909951812,0.021647794845699904
2011,76,254,4.60060384748315e-05,4.5554698332549364e-05,-4.5134014228213773e-07,0.00033471280136915645,0.00028815792757086456,-4.655487379829189e-05,0.0005570640067536825,0.0,-0.0005570640067536825,7.098062360119826e-05,0.006745927093527607
2011,77,254,0.0002274810139672483,0.0002330191355077309,5.538121540482594e-06,0.0009479207742049938,0.00211782637052238,0.001169905596317386,0.0011647515041726699,0.0,-0.0011647515041726699,-0.0005911212266973501,0.015022674143548749
2011,78,254,0.000923000264668328,0.0009074169890799966,-1.5583275588331455e-05,0.004282992003177564,0.001805379637517035,-0.0024776123656605293,0.0008132555987187252,0.0,-0.0008132555987187252,0.0007490653834618298,0.03010483664258412
2011,79,254,0.00036744009303959623,0.00036743957031384607,-5.227257501632873e-10,0.00157251748747713,0.001363568240776658,-0.00020894924670047184,0.0005042368254014555,0.0,-0.0005042368254014555,0.00019012564689087932,0.0191327625499482
2011,81,254,0.001501664623776724,0.001449853490398327,-5.1811133378397e-05,0.006144938359814366,0.0007437391323037446,-0.005401199227510621,0.0013464926483937373,0.0,-0.0013464926483937373,-0.0015094516398203106,0.038010217333537315
2011,82,254,0.001017596318411025,0.0010018797022340925,-1.571661617693243e-05,0.0018462357734601329,-0.0006808536709286273,-0.00252708944438876,0.002497840014326604,0.0,-0.002497840014326604,-0.0006158519829936692,0.031652416606234954
2011,83,254,0.00021875543227869665,0.00021938903694279603,6.336046640993817e-07,0.00011256885692829222,0.0005410579615272582,0.00042848910459896593,0.0014311040927259884,0.0,-0.0014311040927259884,-0.0003191012132354954,0.01478679015665223
2011,84,254,0.0001096719020396389,0.00010719945916279387,-2.472442876845019e-06,0.0006394191520420585,0.0005378136993385851,-0.0001016054527034734,0.0012031451483200425,0.0,-0.0012031451483200425,0.00041716831057806954,0.010353014239967252
2011,85,254,0.0005162264644498332,0.0005246287950940034,8.402330644170157e-06,-0.001418675523339294,-0.0035347212105989456,-0.0021160456872596515,0.000991101357720728,0.0,-0.000991101357720728,-0.0007208839120286344,0.02273128053478681
2011,86,254,0.00011470688243539293,0.00011537830758341277,6.714251480198377e-07,-0.00011447796554077329,-0.0006870714132674038,-0.0005725934477266305,0.0010697707151450379,0.0,-0.0010697707151450379,-1.2339857230329035e-05,0.010720216644765187
2011,88,254,0.0007353449221058931,0.0007418830898888681,6.538167782974957e-06,-0.0010249519530009096,0.00032368941575391437,0.001348641368754824,0.0010609121566333092,0.00035900644316773237,-0.0007019057134655768,-0.001422313496156119,0.027201929025234762
2011,89,254,0.00018110652577949196,0.00018269654762439563,1.5900218449036699e-06,-0.00015280853340944906,-3.270176239311695e-05,0.00012010677101633211,0.0005024161154428193,0.0,-0.0005024161154428193,1.455227846186962e-05,0.013516446081719046
2011,90,254,0.0008608309397338789,0.0008714826552100607,1.0651715476181858e-05,0.0014664775024600856,-0.0024028185289353132,-0.003869296031395399,0.0013267052740862785,0.0,-0.0013267052740862785,0.0005067175373250759,0.029377155326702223
2011,93,254,0.0006286504251694977,0.0006144424821529327,-1.4207943016565031e-05,0.003324879128045923,0.00043980273767374456,-0.0028850763903721785,0.0011704426163317062,0.0,-0.0011704426163317062,-0.0005401459798184895,0.024768572479333943
2011,94,254,0.00038805686194941594,0.00038662668812862694,-1.4301738207889983e-06,-0.000850451457512191,-0.001232679351232946,-0.0003822278937207549,0.0006101526244638405,0.0,-0.0006101526244638405,-0.000705443451878736,0.019655755147921918
2011,97,254,0.0006023276250042605,0.0006033534502888164,1.0258252845558478e-06,0.0007716453025542845,0.001308838720433414,0.0005371934178791295,0.0010308755239943502,0.0,-0.0010308755239943502,-0.0008730010279303388,0.024466160826767967
2011,98,254,0.0001216092483949163,0.0001225370256689574,9.277772740410965e-07,0.0005578084988152887,0.0015984636265784502,0.0010406551277631615,0.0004192679573519977,0.0,-0.0004192679573519977,0.0004049207473634181,0.011005111588004563
2011,99,254,0.000829515438780577,0.0008448792723536428,1.5363833573065725e-05,0.0019192591778875337,-0.002182491822168231,-0.004101751000055765,0.0015563380743303266,0.0,-0.0015563380743303266,0.0012919826735053174,0.028858400845032228
2011,100,254,0.000860425668724137,0.0008611869175370488,7.612488129118446e-07,0.000970211811363697,-0.00033226393861696124,-0.0013024757499806583,0.002195965835807345,0.0,-0.002195965835807345,-0.001606165300106738,0.029318323500129445
2011,101,254,0.000195241982776187,0.00019127012238658844,-3.971860389598563e-06,-0.0012376782169022898,-0.0007251647184602916,0.0005125134984419982,0.0015138171889618646,0.0,-0.0015138171889618646,0.0007566838867610726,0.013750427160557296
2011,103,254,0.0005807616957751023,0.0005417345743500436,-3.9027121425058665e-05,0.005762431946561093,0.00040563487131093577,-0.005356797075250157,0.0015731541827274137,4.553977826412197e-06,-0.0015686002049010016,-0.0007905558554898853,0.023244646461413446
2011,104,254,0.00028447395052104467,0.00028423262807686605,-2.413224441786166e-07,0.0007410674524588848,0.0006695679621770978,-7.1499490281787e-05,0.00026581482569991205,0.0,-0.00026581482569991205,0.00015087450223088186,0.016851219100453094
2011,105,254,0.0003979172702658416,0.00039923951745226546,1.3222471864238346e-06,0.00020025786393740045,0.00041853668517433107,0.00021827882123693062,0.0004888391619783388,0.0,-0.0004888391619783388,-0.0012964930319423614,0.01990723965098306
2011,106,254,0.00028562176260393015,0.0002868487545483686,1.2269919444384317e-06,0.0005745739918055497,0.0009157597087323666,0.0003411857169268169,0.00042997615741580326,0.0,-0.00042997615741580326,0.00016550945228083596,0.01691998460699839
2011,107,254,0.0002645271923491999,0.0002635448798555339,-9.823124936659926e-07,0.00034686923027038574,0.00030377472285181284,-4.30945074185729e-05,0.0010729818334092236,0.0,-0.0010729818334092236,0.00012277896024113867,0.0162330564093596
2011,108,254,0.00023944075103253645,0.00023979497329723804,3.542222647015883e-07,0.0013320299789426834,0.000917283643502742,-0.00041474633543994136,0.0008598330690560361,0.0,-0.0008598330690560361,7.5529335060641334e-06,0.015458569252441415
2011,109,254,0.0005063752466860164,0.0005009159040435371,-5.459342642479361e-06,0.0023204821829251416,0.0007684515439905226,-0.001552030638934619,0.0006985801234421217,0.0,-0.0006985801234421217,-0.0002601569324502548,0.02235750139540935
2011,110,254,0.0007224115303766776,0.0007231872643477839,7.757339711062829e-07,-0.0006678376904153448,-0.00010222881974186748,0.0005656088706734773,0.0005105822099913236,0.0,-0.0005105822099913236,-0.00047507747343060843,0.026889556490006024
2011,111,104,0.0002578185588604276,0.0002556662546672488,-2.1523041931787866e-06,-0.0009517151002700513,0.0003122603811789304,0.0012639754814489817,0.00041947081184574766,0.0,-0.00041947081184574766,-6.094731618260924e-06,0.015986397489409696
2011,112,254,0.00015528539201827498,0.00015861933769000512,3.333945671730136e-06,0.0005280118624452413,0.00132479309104383,0.0007967812285985886,0.0006252377905008678,0.0,-0.0006252377905008678,-0.0010056903618145508,0.012376921449454148
2011,113,254,0.00041458755903152626,0.0004207460117236842,6.158452692157934e-06,-0.0002697573197404231,0.0015168439131230116,0.0017866012328634348,0.0005556945671631731,0.0,-0.0005556945671631731,-0.0007144625692258455,0.0203903723140484
2011,114,254,0.000753785029242664,0.0007641979783306029,1.041294908793889e-05,0.0021350796290445983,0.003437682753428817,0.0013026031243842185,0.0004999638123353737,0.0,-0.0004999638123353737,-0.0008074289155937179,0.027316240686597607
2011,115,254,0.0005321410997944967,0.0005278919290560654,-4.2491707384313205e-06,0.0018047327835728803,-0.000903189938981086,-0.002707922722553966,0.0009588949815864707,0.0,-0.0009588949815864707,-0.00027327266389950343,0.022967262206946195
2011,116,254,0.00010031773851169072,0.00010017541922200987,-1.4231928968084877e-07,-0.0004632295013999376,-0.00019011477706953883,0.00027311472433039875,0.0005024744631260691,0.0,-0.0005024744631260691,-0.0004928722504636995,0.010004186980175541
2011,117,254,0.000639808254046334,0.0006370294693895151,-2.778784656818842e-06,-0.0006290318327039245,-0.0003371874918229878,0.00029184434088093674,0.000572586039579011,0.0,-0.000572586039579011,-0.0012652237522046577,0.02522237534588943
2011,118,254,5.9564192426136875e-05,5.856081669971223e-05,-1.003375726424647e-06,0.0013593217489991601,-3.832377115031704e-05,-0.0013976455201494772,0.0006935572051152935,0.0,-0.0006935572051152935,8.36352819017361e-05,0.00765153204849139
2011,119,254,0.0007865914779549004,0.0007915443765991773,4.952898644276955e-06,0.00014336782646930124,0.0015405695885419846,0.0013972017620726834,0.0006040098247867332,0.0,-0.0006040098247867332,-0.0016964470558283357,0.027947559819119224
2011,121,254,0.0013489188527808867,0.0013596296110490536,1.0710758268166936e-05,-0.002008987136009171,0.002031701384112239,0.00404068852012141,0.0009174853344091693,0.0,-0.0009174853344091693,-0.0012179746102244956,0.036729677605185765
2011,122,254,0.00030909713479162224,0.0003092285447258352,1.3140993421293387e-07,-0.00032789791076202093,-0.0004321519227232784,-0.00010425401196125747,0.0003177705279482997,0.0,-0.0003177705279482997,0.0002615401663976133,0.01757120758545997
2011,123,254,0.00011549541053559076,0.0001138783791138383,-1.617031421752456e-06,4.0288251920009224e-05,0.00016087916446849704,0.00012059091254848782,0.0006239666405772728,0.0,-0.0006239666405772728,0.0009190845925233401,0.010644411850483166
2011,124,254,0.0004671771066276335,0.0004664887325860423,-6.883740415912021e-07,0.0009634994762384985,-0.0005159466128657008,-0.0014794460891041994,0.0007642692429565796,0.0005569910801044881,-0.0002072781628520915,-0.0004025310619949581,0.021641979308706913
2011,125,254,0.001443161329582092,0.0014289205725824866,-1.424075699960536e-05,0.0014136424728148566,-0.00010059786291094497,-0.0015142403357258016,0.0013644784070499082,0.0,-0.0013644784070499082,-0.002697111222766537,0.03771178451034341
2011,126,254,0.0007955669506552604,0.0007802810058376493,-1.5285944817611057e-05,0.004231213137331441,0.0024415827356278896,-0.001789630401703551,0.0016470432146340884,0.0,-0.0016470432146340884,-0.001239686907907958,0.02768987648309813
2011,127,254,0.000456310757999345,0.0004438342944977567,-1.2476463501588327e-05,0.002521900606788988,0.0018724271794781089,-0.0006494734273108792,0.0022064958030220557,0.0,-0.0022064958030220557,-0.00014086655153784446,0.020970954743416155
2011,129,254,0.0006826484314663931,0.0006783896529789925,-4.2587784874005595e-06,0.0012629484743114532,-0.0012997629819437861,-0.0025627114562552394,0.0008100406868015533,0.0,-0.0008100406868015533,-0.0008449918623949592,0.02604194378704893
2011,130,254,0.00026321014122875845,0.000263879248522323,6.691072935645663e-07,-0.0008029698680235645,0.00043708394858142814,0.0012400538166049927,0.0005710107962289932,0.0002976142483757602,-0.00027339654785323296,-0.00023528249400697862,0.01623856331063403
2011,131,254,0.0005251715803485159,0.0005239448001310892,-1.226780217426695e-06,-0.0008584366979326788,-0.001316217822022736,-0.0004577811240900572,0.0009904746107345242,0.0,-0.0009904746107345242,-0.0017041304617586134,0.022886553342847893
2011,132,254,0.00028239653880842114,0.0002850752797396089,2.678740931187759e-06,0.0010212985652051573,0.0020267164800316095,0.0010054179148264522,0.0010457596485822672,0.0,-0.0010457596485822672,0.0003389741402882773,0.016799607302977252
2011,133,254,0.00045155598983713063,0.00045171680732506656,1.608174879359314e-07,0.0003296048710430701,-0.0013588822912424803,-0.0016884871622855502,0.000866594745045157,0.0,-0.000866594745045157,4.796775708351533e-05,0.021207017241153724
2011,134,254,0.00041451454320997716,0.0004043484961486865,-1.0166047061290666e-05,0.0004085011222935098,-0.0005040033138357103,-0.0009125044361292202,0.0012478255093745056,0.0,-0.0012478255093745056,-0.0023308921346841057,0.020025258384973342
2011,135,254,0.0003305652273843389,0.00032979422712824694,-7.710002560919649e-07,0.0012044226677398982,-0.000515037914738059,-0.0017194605824779573,0.000287811729307664,0.0,-0.000287811729307664,0.0001427351037496171,0.018148321183635584
2011,136,254,0.0006485897686565626,0.0006496337745102113,1.044005853648687e-06,-0.000929080536515694,-0.00011447104043327272,0.0008146094960824212,0.0005084831127640872,0.0,-0.0005084831127640872,-0.0021298665124354233,0.025408108068127454
2011,137,254,0.0003648489645463929,0.00035814358544319306,-6.705379103199866e-06,0.0004290330102740545,-0.0008793374290689826,-0.001308370439343037,0.0008610157151934606,0.0,-0.0008610157151934606,-0.001742527004847509,0.018904985829126145
2011,138,254,0.0002796319534218276,0.00028421313799580924,4.5811845739816164e-06,-0.0004939185235444016,0.001273219007998705,0.0017671375315431066,0.0007344124206140082,0.0,-0.0007344124206140082,-0.0011382094778806054,0.016685267473232155
2011,140,254,0.00017822370447669072,0.00017623759777302865,-1.9861067036620644e-06,-0.00032213815729918445,0.0004355687997303903,0.0007577069570295748,0.0009460588851144017,0.0,-0.0009460588851144017,-0.000171797188935104,0.013261549846410895
2011,141,254,0.0004333903336933235,0.0004224998869596539,-1.0890446733669587e-05,0.0026220293847594675,0.0018577013397589326,-0.0007643280450005349,0.0022362400729662836,0.0,-0.0022362400729662836,8.77289429018812e-05,0.020478454157333705
2011,143,254,0.00045059066248810437,0.0004466951294236291,-3.895533064475281e-06,0.0006574239347159393,0.0008047102019190788,0.00014728626720313955,0.0015166308155052587,0.0,-0.0015166308155052587,-0.0002733128085946027,0.02110765254149385
2012,0,250,0.00017572643871959764,0.000181484643184538,5.758204464940362e-06,0.00036281368881464006,0.002408714033663273,0.002045900344848633,0.0007758507647020827,0.0,-0.0007758507647020827,0.0002658529737279878,0.013300104874111004
2012,1,250,0.00028926133762701117,0.0002857201994579668,-3.541138169044374e-06,-0.00012032008171081543,0.0006579471519216895,0.000778267233632505,0.0006212002893976079,0.0,-0.0006212002893976079,0.0012513764814994345,0.01689283993556926
2012,3,250,0.0004022118218981699,0.0003984898090577104,-3.7220128404594926e-06,0.0029433358907699587,-0.0011683516204357147,-0.004111687511205673,0.0012244387528372541,0.0,-0.0012244387528372541,0.0009352173481304789,0.01985106563014177
2012,4,250,4.057921640311563e-05,3.974391614185988e-05,-8.353002612557475e-07,-0.000519169107079506,-0.0003146692179143429,0.00020449988916516307,0.0006896340386225108,0.0,-0.0006896340386225108,0.0001657497305377973,0.006285945734400516
2012,5,250,0.0005951920218412601,0.0005774426962364717,-1.7749325604788312e-05,-0.0018395035117864608,6.428140477510169e-05,0.0019037849165615625,0.0026555010828473837,0.0,-0.0026555010828473837,0.0009868749727032337,0.024012320115825724
2012,7,250,0.00019312213806330926,0.00021623742708395328,2.3115289020644018e-05,0.0020423528254032135,-0.002973087588325143,-0.005015440413728357,0.0006313273448787649,8.306522721953083e-05,-0.000548262117659234,0.001735418480130093,0.013931562194344018
2012,8,250,0.0005700052126276994,0.0005657280497772372,-4.277162850462187e-06,-0.000880619153380394,0.0005079723196104169,0.0013885914729908108,0.00138546799173326,0.0,-0.00138546799173326,0.0014047843426870656,0.023768125251531772
2012,10,250,0.0002832175543510394,0.0002906220975481711,7.4045431971316695e-06,-0.0005826029404997825,-0.002319864615332335,-0.0017372616748325526,0.0010762362087572224,0.0002139240867890685,-0.000862312121968154,0.00019162970737106376,0.016860483584129213
2012,12,250,0.00039701725663849474,0.00038862096368825664,-8.396292950238102e-06,-0.0027275637686252595,0.0004614383797161281,0.0031890021483413876,0.0016378156952561054,0.0,-0.0016378156952561054,0.0005078273398008549,0.019713417049122623
2012,13,250,0.00020122993711754189,0.00019095864671076637,-1.0271290406775515e-05,-0.0021651161164045335,0.0007781279273331165,0.00294324404373765,0.0003590436540053372,0.0,-0.0003590436540053372,0.0008967866368361683,0.013818269313536516
2012,14,250,5.15998315130002e-05,5.169158887279982e-05,9.175735979961998e-08,-0.000873940879944712,7.766463386360556e-05,0.0009516055138083175,0.0005646241617728925,0.0,-0.0005646241617728925,-0.0005436172300349966,0.007162792592166164
2012,15,250,8.69513383941782e-05,8.778640294969255e-05,8.350645555143507e-07,-0.0009203556776046753,-0.0011070179753005505,-0.0001866622976958752,0.0005246489343049115,0.0,-0.0005246489343049115,0.00022007366178586097,0.009274978745876874
2012,16,250,0.00014980016452025607,0.00015349782368799072,3.697659167734653e-06,-0.00017208895087242126,0.0032372530549764633,0.0034093420058488844,0.002083983182945346,0.0,-0.002083983182945346,0.00020998712809073083,0.012013887160112147
2012,17,250,0.00010361138435491898,0.00011650133667559646,1.288995232067748e-05,7.192434370517731e-05,0.003415066981688142,0.0033431426379829645,0.0006775741370437381,0.0,-0.0006775741370437381,-0.00014422531913191962,0.010189836848199253
2012,18,250,0.0004407076313879676,0.00043930150112371903,-1.4061302642485725e-06,0.0005748833771795034,0.0006313361460343003,5.645276885479691e-05,0.0015287225921799912,0.00027424042547974636,-0.0012544821667002449,0.0010112032065706415,0.020949862839508223
2012,19,250,0.0001622733652548118,0.00016239210072329152,1.187354684797253e-07,0.0002728675901889801,0.0014145661843940616,0.0011416985942050814,0.0009259477151013387,0.0,-0.0009259477151013387,0.00021750721199630617,0.012686967744102348
2012,20,250,0.00042697460741139527,0.00042089172951341285,-6.082877897982419e-06,-0.0034059716314077376,0.0005308893322944641,0.003936860963702202,0.0013390891433032392,8.723051799128663e-05,-0.0012518586253119526,-0.0014620472237059517,0.020436503130429124
2012,21,250,9.316266347482891e-05,9.236286189657402e-05,-7.998015782548933e-07,0.00023944340646266937,0.00046034317347221076,0.0002208997670095414,0.0007107066968358782,0.0,-0.0007107066968358782,0.0005754154765267146,0.009609870980488957
2012,23,250,0.0005916133559214867,0.0005872098727432629,-4.4034831782238226e-06,-0.0014017491042613982,0.0020621749572455883,0.0034639240615069863,0.0008778223044085405,0.0,-0.0008778223044085405,0.0006481286729111559,0.024191121219344552
2012,24,250,0.00044862776210038253,0.0004466573562116445,-1.9704058887380486e-06,-0.00024794870615005494,0.001388465696014464,0.0016364144021645188,0.0004806315913329441,3.372589186176989e-05,-0.0004469056994711742,0.0012681630535637397,0.021130706994809692
2012,25,250,0.00034396965961687914,0.00034617153479358663,2.2018751767074866e-06,0.00012995240092277528,0.0008930584881454706,0.0007631060872226954,0.0007375575692970227,0.0,-0.0007375575692970227,0.0005236546623476386,0.018602018052003726
2012,26,250,0.00034528238604459525,0.0003315068935952653,-1.3775492449329954e-05,6.911352276802063e-05,0.0012712489115074277,0.001202135388739407,0.003111518362732633,0.0,-0.003111518362732633,0.001088351415709937,0.018206412115002124
2012,28,250,0.00028887258472473724,0.0002881154185801456,-7.571661445916213e-07,-0.00043875845894217493,0.0004009887925349176,0.0008397472514770925,0.0012016471796467431,0.0,-0.0012016471796467431,-2.3513077385331372e-05,0.01696865394610249
2012,29,250,0.0007752384310110964,0.0007784230152132003,3.184584202103836e-06,-0.0021608123481273653,0.001947386423125863,0.004108198771253228,0.0013771783187970098,0.0,-0.0013771783187970098,-0.0002287113297218184,0.027815240674551982
2012,30,250,0.00010950941378572693,0.00010993956026104733,4.3014647532040593e-07,0.00032783085107803344,0.0017882527317851782,0.0014604218807071447,0.0013813402779889008,0.0,-0.0013813402779889008,0.0004732589976190411,0.010402420475069774
2012,31,250,0.00034574035017469337,0.00030534270742708084,-4.0397642747612525e-05,-0.0019676234871149065,-0.002121769257821143,-0.0001541457707062363,0.005495163911577043,0.0001187566691777421,-0.005376407242399301,-0.0005261402642713194,0.01740641120889806
2012,32,250,0.0004372213747075109,0.00043601895722720005,-1.202417480310853e-06,0.00011896441876888275,-0.00019898920436389744,-0.0003179536231327802,0.0007689470791543524,0.0,-0.0007689470791543524,0.001368367364967071,0.02082216008515387
2012,33,250,0.000493637141242142,0.0004825213188427747,-1.111582239936732e-05,-0.0026300274431705476,0.0020051319152116776,0.004635159358382225,0.001248906443727955,0.0,-0.001248906443727955,0.00010340100165676347,0.021883892212657338
2012,34,250,0.00019700634686421677,0.0001950451883004354,-1.961158563781358e-06,-0.0013086384385824204,-0.0007402511546388268,0.0005683872839435935,0.0011467486531584613,0.0,-0.0011467486531584613,0.0016395191285676276,0.013761608979316425
2012,35,250,0.0003616317258387453,0.00037634596613425245,1.471424029550716e-05,0.0008614743202924729,-0.0022603110410273075,-0.0031217853613197803,0.0005560379895828459,0.0,-0.0005560379895828459,0.0018559673032446397,0.01895790649641278
2012,36,250,0.000412619076920923,0.0004126061795107785,-1.2897410144486077e-08,-0.0006698021590709686,0.00011723727220669389,0.0007870394312776625,0.0013032906727954874,0.0,-0.0013032906727954874,-0.0009501185378013872,0.020284647669743253
2012,38,250,0.00046111027130963744,0.00047318038756150537,1.2070116251867925e-05,0.0015399583876132964,-0.0018975703278556466,-0.0034375287154689432,0.0017480859346766919,0.0,-0.0017480859346766919,0.0003693261340479239,0.02163426837201837
2012,39,250,0.00032679520464920823,0.00031879637038744596,-7.998834261762266e-06,-0.0010072217136621476,0.0009061337269376964,0.001913355440599844,0.0004478658713662027,2.3779266330046078e-07,-0.00044762807870290226,0.0020105260759137734,0.017820718083672717
2012,41,250,8.427607684950409e-05,8.317377990903412e-05,-1.1022969404699651e-06,-0.00036758419126272203,0.0011150859063491225,0.0014826700976118446,0.0001819476287015047,0.0,-0.0001819476287015047,0.0007340675432261321,0.009112003342624339
2012,42,250,0.0009909618739686753,0.0010015715887645687,1.0609714795893448e-05,0.0027651411294937135,0.0023897415958344936,-0.0003753995336592199,0.0027050203260905264,0.0,-0.0027050203260905264,0.0013551590827046737,0.03163070071604634
2012,43,250,0.0001640609914856375,0.0001636987365080734,-3.622549775641082e-07,-0.00026708317548036574,0.00022575780167244375,0.0004928409771528094,0.0005203595526644015,0.0,-0.0005203595526644015,0.0007506555800494397,0.012783709118652849
2012,44,250,0.00014965262512484404,0.00015104260918457873,1.3899840597346826e-06,0.00011986209452152252,-0.0007452293648384511,-0.0008650914593599737,0.00043987606439173225,0.0,-0.00043987606439173225,0.0012164555841103208,0.012132369980578666
2012,45,250,0.0012205749875960595,0.0011630090564009716,-5.7565931195087926e-05,-0.0022078064382076265,0.001236512053757906,0.0034443184919655326,0.007327149594495703,8.851847273436677e-05,-0.007238631121761337,-0.0009122723768338546,0.03403062505236548
2012,47,250,0.00011199486446565119,0.00011077842821651031,-1.2164362491408798e-06,-0.0005775382928550244,-8.591063661151566e-05,0.0004916276562435087,0.0003940446057294123,7.37379662291962e-07,-0.00039330722606712034,0.0010795897662255812,0.01046041664179176
2012,48,250,0.00023368639463893138,0.00023124842655680407,-2.43796808212731e-06,0.00024453504383563997,0.000476424815133214,0.00023188977129757403,0.0009353681497107168,0.0,-0.0009353681497107168,0.0007733210277252454,0.015203956037681522
2012,49,250,0.00043125832011910186,0.00043424312115007636,2.984801030974499e-06,-0.001191035881638527,-0.0017277522711083293,-0.0005367163894698023,0.00045519873138107807,0.0,-0.00045519873138107807,0.0009713632601733906,0.02066295952904302
2012,50,250,0.00014620235775657597,0.0001430581173339159,-3.1442404226600612e-06,0.0007868826389312745,0.0002217355213360861,-0.0005651471175951884,0.0009212324726358716,0.0,-0.0009212324726358716,0.0005175409707929219,0.01195703209287269
2012,51,250,0.00043746624488056024,0.00042112603541747946,-1.6340209463080774e-05,-0.0029689134284853935,0.0003496069425018504,0.003318520370987244,0.0007921214818842256,3.0012971800603315e-06,-0.0007891201847041652,0.0007162111754224014,0.02051804841412484
2012,52,250,9.922210876765502e-05,9.947776758914553e-05,2.556588214905163e-07,-6.382829323410987e-05,-0.0007942630909383297,-0.0007304347977042198,0.0007190380893929859,0.0,-0.0007190380893929859,0.0002931834033774976,0.009914394974538068
2012,53,250,0.00047330256545333356,0.00047677765569951775,3.475090246184186e-06,0.0005799931436777114,0.001124891103245318,0.0005448979595676065,0.0012959106821573293,0.0,-0.0012959106821573293,-8.147179167936258e-05,0.021801888548134227
2012,54,250,0.00021464722161804474,0.00021582254932803505,1.175327709990317e-06,0.00024709844589233397,0.000632238166872412,0.000385139720980078,0.0005591283101137123,0.0,-0.0005591283101137123,0.0007731384124240321,0.014690224520028213
2012,55,250,0.0002581254220368704,0.00023921149332881082,-1.891392870805958e-05,-0.00308791421353817,0.00026489325682632625,0.0033528074703644962,0.0016341580273970667,0.0,-0.0016341580273970667,0.0011921298015561206,0.015438643908029237
2012,57,250,0.0003901381314448572,0.0003810598700307609,-9.078261414096299e-06,-0.0018618935644626618,0.0014937157975509763,0.003355609362013638,0.0007428786838254804,0.0,-0.0007428786838254804,0.0008015432951759038,0.019508479368154672
2012,58,250,0.00020275903761349945,0.0001949723398529758,-7.786697760523646e-06,-0.00040764330327510833,0.0005930773913860321,0.0010007206946611403,0.0011528427469318452,0.0,-0.0011528427469318452,0.001987795748068848,0.013893419325655862
2012,59,250,0.00022806979718175305,0.00022552772436943303,-2.54207281232002e-06,-0.0020347223281860353,0.004702661769464612,0.006737384097650647,0.0018491104068803794,0.00041254756122297194,-0.0014365628456574075,0.0013930003594288252,0.014682128625533718
2012,60,250,0.0002628872937938421,0.0002617162331643258,-1.1710606295163334e-06,-0.0007477291971445083,0.0003376588891260326,0.001085388086270541,0.0011364215125933281,5.0371556489453256e-05,-0.0010860499561038748,0.000892860996524945,0.016166328250984397
2012,61,210,4.528312640226655e-05,4.4583915789038823e-05,-6.992106132277259e-07,-0.0006002060891616912,0.0003728304346579881,0.0009730365238196793,0.000982170746608512,5.332551871188554e-06,-0.0009768381947373235,-2.10544344317855e-05,0.006665506314174971
2012,63,250,0.00015827520494732578,0.00015750372555809296,-7.714793892328153e-07,0.001856551393866539,0.0020463401451706886,0.00018978875130414973,0.0015267634939904323,0.0,-0.0015267634939904323,0.0007016469458924348,0.012477801319058898
2012,64,250,0.0003969922959994452,0.00035007766508035875,-4.691463091908646e-05,-0.004217596243135631,0.0012692594807595014,0.005486855723895133,0.0015169886334734579,2.113688944302431e-05,-0.0014958517440304335,0.0029460680901870406,0.018638199004085303
2012,65,250,0.00036947614919691934,0.00036566188979866485,-3.8142593982544914e-06,-0.0013887702897191047,0.0008820732119493187,0.0022708435016684236,0.0008198538347546172,0.0003790649330628279,-0.0004407889016917893,0.0003589748751965942,0.01915062190502065
2012,66,250,0.0005656206144353652,0.0005654788463866574,-1.4176804870780126e-07,-0.0008174705319106579,0.0019376259599812329,0.0027550964918918908,0.0015306333986264001,0.0005817050244145149,-0.0009489283742118853,0.0007049799800596191,0.023774092419043144
2012,67,250,0.00022244089821973055,0.00022117359182800546,-1.2673063917250879e-06,-0.0013978892713785171,-0.0005767650436609983,0.0008211242277175188,0.00045840929423482217,0.0,-0.00045840929423482217,0.00024444883843125354,0.014849215453614518
2012,68,250,0.0031802932334262903,0.0032027696502216338,2.247641679534347e-05,0.0012050046920776367,-0.0007257588440552354,-0.001930763536132872,0.003234359320429523,0.0,-0.003234359320429523,0.0034226115978386105,0.056440771370512455
2012,69,250,0.00017023763689522783,0.000166764264991917,-3.47337190331084e-06,-0.00034374520555138587,0.0011702979682013392,0.0015140431737527252,0.0008399731843314585,0.0,-0.0008399731843314585,0.001105762399804732,0.012913562643683143
2012,71,250,0.0005069707563169475,0.0005075885200405138,6.177637235663331e-07,-0.0024578132629394533,-0.000320088816806674,0.0021377244461327793,0.0014363816752493062,0.0,-0.0014363816752493062,-0.0014209480566161829,0.022502813801270265
2012,72,250,0.0008660802773826247,0.0008527397972986583,-1.334048008396632e-05,-0.0013840826898813248,0.00013590975280385466,0.0015199924426851795,0.001567801702890337,0.00044013820355658806,-0.001127663499333749,0.0027266389249135017,0.02906832116227001
2012,73,250,0.0007689278123722323,0.0007724348551841313,3.507042811899024e-06,-0.002023400567471981,0.0028934567235410213,0.004916857291013002,0.0009623546642412898,0.0,-0.0009623546642412898,5.539145071001883e-05,0.027647427379256854
2012,74,250,0.00041685067032892883,0.00042276479683341864,5.914126504489811e-06,-0.0010651738047599793,-0.0025588254323229195,-0.0014936516275629401,0.0003038545136780723,1.2183878388212088e-06,-0.0003026361258392511,-0.0003330059291552061,0.020440310328527323
2012,76,250,4.16428825551807e-05,4.2738999071029394e-05,1.0961165158486909e-06,0.0004561206102371216,-0.0008197969291359186,-0.0012759175393730403,0.00025566551277846945,0.0,-0.00025566551277846945,0.0002559384670341274,0.0064483945620949865
2012,77,250,0.00020621382439346637,0.00020632989361188557,1.1606921841920124e-07,-0.0004545692801475525,0.0035721473395824432,0.004026716619729996,0.0007914455142425954,0.0,-0.0007914455142425954,0.0016478666102499062,0.014234712406178258
2012,78,250,0.0001442438570341678,0.0001428467982605981,-1.3970587735696839e-06,0.002003262847661972,0.0007979369256645441,-0.0012053259219974278,0.0010360698744970665,0.0,-0.0010360698744970665,0.0006342846144475942,0.011950732872156046
2012,79,250,0.00024061628702877708,0.00023983384526465477,-7.824417641223063e-07,0.0003508545011281967,-0.0007832407902460545,-0.0011340952913742512,0.000696741294547971,5.787671363318143e-05,-0.0006388645809147896,-0.0008646523811673035,0.015485805217311103
2012,81,250,0.0006014822295975923,0.0005864304346852258,-1.5051794912366483e-05,-0.002825020968914032,0.002508249712176621,0.005333270681090653,0.0007095315210409938,0.00027776516517998766,-0.0004317663558610061,0.001261648788189035,0.024203030728857922
2012,82,250,0.0006773216960275141,0.0006849946255589971,7.672929531483052e-06,6.586382538080216e-05,-0.0024167084395885466,-0.0024825722649693487,0.0012142153374914446,0.00011355282419595548,-0.001100662513295489,0.00020992919707263978,0.02604356089573131
2012,83,250,0.00010156002357696693,0.0001037772086094283,2.2171850324613675e-06,-0.0015653560757637023,-0.0022451088298112154,-0.0006797527540475131,0.0012509968597772812,0.0,-0.0012509968597772812,0.00010314354818368087,0.009912765475823052
2012,84,250,4.483420030754214e-05,4.422654836731755e-05,-6.076519402245864e-07,0.0003564771115779877,0.000655447889585048,0.00029897077800706027,0.0005685462830984861,0.0,-0.0005685462830984861,0.00011441042152149806,0.006628259713187838
2012,85,250,0.000563049361761742,0.000568622734761375,5.573372999632953e-06,-0.0010222246125340462,-0.00022014978667721151,0.0008020748258568347,0.0022543614762901183,4.5011002258629895e-05,-0.0022093504740314882,-0.0017406639129246458,0.023801427384261525
2012,86,250,5.285520690835574e-05,4.831922238121306e-05,-4.535984527142676e-06,-0.0010974701792001724,-0.0002455699343699962,0.0008519002448301762,0.001139846023295316,8.734909187739448e-06,-0.0011311111141075764,0.00046639418669623466,0.006914967521290478
2012,88,250,0.0005465039784043051,0.0005461186482109749,-3.8533019333024214e-07,-0.00025819019973278044,-3.378035398782231e-05,0.00022440984574495813,0.000760550659182553,0.0,-0.000760550659182553,-0.001138222884741026,0.023343068669462425
2012,89,250,6.343995267796913e-05,6.17643790984021e-05,-1.6755735795670349e-06,-0.0012954256385564805,-0.0007279882556758821,0.0005674373828805984,0.0003384805890474608,0.0,-0.0003384805890474608,0.0003347977537434872,0.007786839217332312
2012,90,250,0.0004185805043281918,0.000412139220059024,-6.441284269167763e-06,0.0004500664621591568,0.002423325087875128,0.001973258625715971,0.0007644264504590641,0.0,-0.0007644264504590641,0.0030977200294621953,0.020290007676730563
2012,93,250,0.00031368223018011696,0.00031334568016374773,-3.365500163692329e-07,0.0014273458421230317,0.0007858119376469403,-0.0006415339044760914,0.0009805382609450906,0.0002524928814826279,-0.0007280453794624627,3.583365934582616e-05,0.017678853586292082
2012,94,250,0.00021205938264671464,0.0002124076162682764,3.4823362156174314e-07,-0.0011101649552583694,0.0011961174895986915,0.0023062824448570607,0.0003211294115683714,0.0,-0.0003211294115683714,0.00016453310939573384,0.014537656273787647
2012,95,250,0.00011544515856564864,0.00010531567431293908,-1.0129484252709557e-05,-0.0019879742860794067,-4.369721948751249e-05,0.0019442770665918942,0.0012536321589722305,0.00012997189133190395,-0.0011236602676403266,0.0011320116398102016,0.010201173198748931
2012,97,250,0.00022669695364030057,0.0002210932123690745,-5.603741271226063e-06,-0.0005003541409969329,0.00042617035075090827,0.0009265244917478412,0.001515044399423695,9.905894443462007e-07,-0.0015140538099793488,-0.00026200030699770593,0.01485329885437517
2012,98,250,5.840891753240544e-05,5.8752635084862916e-05,3.437175524574748e-07,0.0008310623466968537,-0.0003102187183685601,-0.0011412810650654136,0.0006478185334748317,0.0,-0.0006478185334748317,0.00043781129809940467,0.007628439301674082
2012,99,250,0.0004117572919896244,0.000408432831138782,-3.3244608508423753e-06,0.002099379397928715,0.0019914628388360144,-0.00010791655909270052,0.001570903391121054,0.00020672780808325724,-0.0013641755830377967,0.0005418890494552641,0.020165756816351754
2012,100,250,0.0005642573985144256,0.000561589543129911,-2.6678553845146643e-06,-0.0012505625784397126,0.0005398398956749589,0.0017904024741146715,0.00024058693029838552,3.074163605364974e-05,-0.0002098452942447358,0.0006119013847997365,0.023698870100042322
2012,101,250,9.121957727768969e-05,9.718531232094741e-05,5.9657350432577204e-06,0.0015496982783079147,-0.0017992020584642887,-0.003348900336772203,0.0004596072243313636,0.0,-0.0004596072243313636,0.000675343290668792,0.0095426378761866
2012,103,250,0.0003096681301097887,0.00030595511915573916,-3.71301095404954e-06,-0.0006902907341718674,-0.001149078132584691,-0.00045878739841282367,0.0016126662287894874,0.0,-0.0016126662287894874,0.0002432871949670101,0.01743606715834654
2012,104,250,0.000110435097007226,0.00010264267476191495,-7.792422245311059e-06,-0.00033598358929157256,0.0009750908939167857,0.0013110744832083583,0.0022046066798958068,0.0,-0.0022046066798958068,0.0007433734405777983,0.010128621909407668
2012,105,250,0.00017805737656785323,0.00017816790447411013,1.1052790625690027e-07,-0.0008754256367683411,0.0006500227609649301,0.0015254483977332712,0.0016572343425580519,0.0,-0.0016572343425580519,0.0003547083383873968,0.013344687851947961
2012,106,250,0.000163868224201229,0.00016266341528468932,-1.2048089165396655e-06,0.00010501829534769058,0.0003470843923278153,0.00024206609698012473,0.0008387067893798929,3.96265325889255e-06,-0.0008347441361210003,0.0010347973126852564,0.012735343880879208
2012,107,250,9.865505682038948e-05,9.613938417085138e-05,-2.5156726495381053e-06,-0.00045746898651123044,0.0007393898938316852,0.0011968588803429156,0.00024021421972930735,9.204112123490597e-06,-0.00023101010760581675,0.0011644490498947987,0.009796090397398923
2012,108,250,9.098187209748002e-05,9.113814843755056e-05,1.5627634007053988e-07,9.034842252731323e-06,0.0019804222397506238,0.0019713873974978925,0.0007666887579626109,7.830995083411141e-05,-0.0006883788071284996,0.0010492126900728494,0.009507067588616865
2012,109,250,0.00021431032877648415,0.00021349280590234661,-8.17522874137531e-07,-0.0008320877999067306,0.0020074829049408437,0.0028395707048475744,0.000507335979469416,1.1233639351308472e-07,-0.0005072236430759029,0.0007574598320070436,0.014557823733792228
2012,110,250,0.00024360916572215905,0.0002451295316606076,1.5203659384485418e-06,-0.0005959606170654297,0.0011577288387343287,0.0017536894557997583,0.0006338764278111905,0.0,-0.0006338764278111905,0.0004016592121098199,0.015638346791790467
2012,112,250,0.000143629428728777,0.00014011235358797803,-3.5170751407989653e-06,-0.0015361369997262955,-0.0002944949083030224,0.001241642091423273,0.0005977419970323973,0.0,-0.0005977419970323973,0.00029362448619426115,0.011822286968509682
2012,113,250,0.0005258417424129735,0.0005309290952041837,5.087352791210173e-06,-0.0004493196457624435,0.0010367702257353814,0.0014860898714978248,0.000521745676073213,8.627552714676599e-05,-0.00043547014892644705,-0.001346293426895727,0.022919190777465914
2012,114,250,0.00028493552207512407,0.00029027342412066975,5.337902045545687e-06,0.001630079612135887,-0.0008900004322640598,-0.002520080044399947,0.00042684790509114645,0.0,-0.00042684790509114645,0.0015627458598708444,0.01685993652856049
2012,115,250,0.00029957137547919976,0.00030067284555229597,1.1014700730962133e-06,0.0011965892910957337,-0.0005819874349981546,-0.0017785767260938884,0.0014589343031785637,0.0,-0.0014589343031785637,0.0013407042749950051,0.017232994578442223
2012,116,250,8.017897487120757e-05,7.936422003720832e-05,-8.147548339992433e-07,0.0005828378573060035,0.0003320754040032625,-0.000250762453302741,0.0008311426490961907,0.0,-0.0008311426490961907,0.0004844005860102669,0.00890735746875215
2012,117,250,0.000342298008301836,0.0003426145827127049,3.165744108689014e-07,-0.0009642537236213684,-0.001986929913982749,-0.0010226761903613804,0.0013409791770508297,0.0,-0.0013409791770508297,0.0015250012379917734,0.018173632611464763
2012,118,250,8.6942245931758e-05,9.225813881357025e-05,5.315892881812255e-06,5.51082044839859e-05,-0.00203256512619555,-0.0020876733306795362,0.002027436829623307,1.6735147415698668e-07,-0.0020272694781491504,0.0004167930889152984,0.009287559664873367
2012,119,250,0.0004675376836830065,0.00046295980420559636,-4.577879477410136e-06,-0.0035241810977458955,0.0026399530470371246,0.006164134144783021,0.0009724249125766305,0.0,-0.0009724249125766305,-0.00020752837837198967,0.021327251434199074
2012,121,250,0.0012172132048861475,0.0012286955414890827,1.1482336602935137e-05,-0.000951267059892416,0.0019219736568629742,0.0028732407167553903,0.0008699146223251856,0.0,-0.0008699146223251856,-0.0019243661833475017,0.03484108510541384
2012,122,250,0.00014250120474162522,0.00014039552830982403,-2.1056764318011913e-06,0.0008118785321712494,0.0012459701020270586,0.0004340915698558092,0.0008722067986704344,4.962539757721058e-07,-0.0008717105446946624,0.00118021410258757,0.01184866612910535
2012,123,123,7.5654857208757665e-06,7.866270220354292e-06,3.007844994785257e-07,0.0006599650998425678,0.0011017316719517112,0.0004417665721091434,0.0006629649485511725,0.0,-0.0006629649485511725,7.018012834316454e-05,0.0026080973205064853
2012,124,250,0.00024226805796900036,0.0002339527485889135,-8.315309380086848e-06,-0.0012728332206606865,0.0006517864055931568,0.0019246196262538433,0.0019116838442222173,4.978335989167314e-05,-0.001861900484330544,0.0007220453210832574,0.01529354276653642
2012,125,250,0.0011379342276962544,0.0010963475083756486,-4.1586719320605824e-05,-0.00608028507232666,-4.251208883943036e-05,0.006037772983487229,0.0009279275576267277,0.0,-0.0009279275576267277,0.0006724244984452952,0.03310341937099263
2012,126,250,0.0005617974448383282,0.0005764782584510744,1.4680813612746174e-05,0.0012882335036993027,0.0033217163290828466,0.002033482825383544,0.0024986361379962054,0.0,-0.0024986361379962054,-0.0012239638865336104,0.023575730101704738
2012,127,250,0.00016058171147871866,0.000161927339123804,1.3456276450853543e-06,-0.0017366365790367126,0.0014888527803122997,0.003225489359349012,0.0008233333414717621,0.0,-0.0008233333414717621,-0.000427212498725666,0.012579985412164396
2012,129,250,0.0003721086390538006,0.0003758846188989968,3.7759798451962156e-06,0.0008421157039701938,0.0002920124097727239,-0.0005501032941974699,0.0011995900569262182,0.0,-0.0011995900569262182,0.0011990740687353992,0.019366513833053083
2012,130,250,0.0002753634934989717,0.00027601162415967457,6.481306607028633e-07,-0.0005428974479436874,5.766207615306484e-05,0.0006005595240967523,0.0008013310038826846,3.732126063347064e-05,-0.000764009743249214,-0.0011350043739792,0.016565613422244108
2012,131,250,0.0002567362018879276,0.0002541297531214148,-2.6064487665127694e-06,-0.0013427323549985886,0.0004543227260001004,0.001797055080998689,0.0008281406113495062,0.0,-0.0008281406113495062,-9.656125022456763e-05,0.015931926436126724
2012,132,250,0.0002091275809241739,0.0002070830113565447,-2.0445695676292084e-06,-0.00029618826508522034,0.0011041333200410008,0.0014003215851262213,0.0010895591906943472,0.0,-0.0010895591906943472,0.0006560724008921994,0.014383401988725614
2012,133,250,0.00017510451891258007,0.00017392957307806528,-1.174945834514794e-06,-0.0002671549618244171,0.00037166155036538837,0.0006388165121898055,0.000997142407176913,2.6608040985844366e-07,-0.0009968763267670544,3.481489291657169e-05,0.013183949064415508
2012,134,250,0.00049722075021147,0.00046678419861363604,-3.0436551597833982e-05,-0.004495830327272415,-0.00044004919147118925,0.004055781135801226,0.0014585477246314565,0.0005582407762678975,-0.000900306948363559,0.0010877034067655984,0.02160068525288157
2012,135,250,0.00011323382850659054,0.00011292967300695831,-3.0415549963222965e-07,-0.0009935828298330306,0.000883215747307986,0.0018767985771410167,0.0005095653211174409,0.0,-0.0005095653211174409,-0.000163026720460266,0.010575209203869042
2012,136,250,0.0007677092400714039,0.000761018541053607,-6.690699017796939e-06,-0.0024556228518486023,0.000556606741156429,0.0030122295930050313,0.0010611582781944716,0.0,-0.0010611582781944716,-0.0007212703264551266,0.0275569514143651
2012,137,250,0.0004026378719308317,0.00037975639474356593,-2.2881477187265762e-05,-0.0028123628795146943,0.0018954945262521505,0.004707857405766845,0.0014349103346215177,0.0,-0.0014349103346215177,0.001320569381218405,0.01947885663536681
2012,138,250,0.00020428582429229904,0.0002058016989695102,1.5158746772111684e-06,-0.0012584487795829773,0.001042280695401132,0.0023007294749841094,0.0004941601452015053,0.0,-0.0004941601452015053,-0.0008639406807750731,0.014218580063934613
2012,140,250,0.00010746761368212703,0.00010559826893341218,-1.869344748714851e-06,0.0002238953411579132,0.0005239324527792633,0.00030003711162135004,0.0013014803104958192,0.0,-0.0013014803104958192,9.20164827188188e-05,0.010267020869182011
2012,141,250,0.0004375950623319343,0.00043927583967318627,1.680777341251966e-06,0.0006725381165742874,0.001507776090875268,0.0008352379743009806,0.001032406128768743,0.00018434015718020173,-0.0008480659715885413,-0.0003502924574256667,0.020869164239852394
2012,143,250,0.00012656954770590907,0.00012665579195561338,8.624424970430961e-08,-0.00039926370978355405,-0.0009216122562065721,-0.000522348546423018,0.000706987532298914,0.0,-0.000706987532298914,0.0006216893878777228,0.011147825437769467
2013,0,249,0.00014430860377854845,0.0001393424958250969,-4.9661079534515636e-06,-0.0019217573375587005,-0.0002484272699803114,0.001673330067578389,0.0004854453513262434,0.0,-0.0004854453513262434,0.0008645587681039195,0.011751755524351516
2013,1,249,0.00019384883905210657,0.00019930041097838052,5.451571926273958e-06,0.0011804947352792364,-0.00021596383885480464,-0.001396458574134041,0.00042444918851609263,0.0,-0.00042444918851609263,0.0022762850075186253,0.0138956506384599
2013,2,249,0.0014234562794199115,0.0014190061056232855,-4.450173796625989e-06,0.002530100953626824,0.00015645139501430094,-0.0023736495586125232,0.0017632599389804664,0.0,-0.0017632599389804664,-0.003094632276058827,0.03752914281710903
2013,3,249,0.0001978766761967789,0.00020046642034421603,2.589744147437137e-06,0.0011799863116987738,-0.0004164374549873173,-0.0015964237666860912,0.000411275396863589,0.0,-0.000411275396863589,0.0015193380384398761,0.014025661965955921
2013,4,249,5.179882719283368e-05,5.1891085102075243e-05,9.225790924156241e-08,-0.00016881476519217933,0.0001565547863719985,0.00032536955156417784,0.0004093627736437216,0.0,-0.0004093627736437216,-0.0005401689685679184,0.007169774132521724
2013,5,249,0.00030244406581135145,0.00030360920487162464,1.1651390602731909e-06,-0.0004756045163081712,0.0012760767713189125,0.0017516812876270838,0.0014756867012989856,0.0,-0.0014756867012989856,0.00011435709706802185,0.01738561509610984
2013,7,249,0.00012628857281675427,0.0001104731400770544,-1.5815432739699865e-05,0.004048418695009856,0.0013125095283612609,-0.002735909166648595,0.0015448640194836046,0.0,-0.0015448640194836046,0.0008243619819318357,0.010499278644267388
2013,8,249,0.0003053817320550702,0.0003047383186459183,-6.434134091518962e-07,0.0010717568010181547,0.0007796550583819967,-0.000292101742636158,0.0005663853188313869,6.568686508294084e-05,-0.0005006984537484461,0.0013358274029316938,0.017443542918246475
2013,10,249,0.0003256730789816453,0.00035769243974011607,3.201936075847078e-05,4.313182343829827e-05,-0.0037605749362758004,-0.0038037067597140985,0.000864962225247626,7.676020529946202e-05,-0.000788202019948164,0.002245217307467253,0.017930065730708475
2013,12,249,0.00029233688841440007,0.0002897771347455801,-2.5597536688199665e-06,0.0013386687136677853,0.000453527201898396,-0.0008851415117693893,0.0012702567467788627,0.0,-0.0012702567467788627,0.0013023247180969555,0.017001666904220746
2013,13,249,0.0001302937875720446,0.00013030406224321826,1.0274671173658538e-08,0.0018592991054536827,0.0010451491689309478,-0.0008141499365227349,0.00043490925431409786,0.0,-0.00043490925431409786,0.0014342864102308416,0.011408445750874728
2013,14,249,0.00028652992488652625,0.000287833015511489,1.3030906249627454e-06,-0.00045311278158641726,0.00024939871913974126,0.0007025115007261585,0.0007924444499335994,2.0296315674678268e-05,-0.0007721481342589211,-0.0006232849797003048,0.016941608159650488
2013,15,249,5.99228656958707e-05,6.003329433053686e-05,1.1042863466615598e-07,-0.00010557221360953457,8.158093634160632e-05,0.00018715314995114088,0.0012504856509868675,3.994967000008941e-06,-0.0012464906839868585,0.00030994343596963135,0.0077450093782268645
2013,16,249,0.00012858113687453694,0.00014530971739231733,1.672858051778039e-05,0.001052246111104766,0.004398330191457008,0.0033460840803522423,0.0013992829709621923,5.021266743321361e-05,-0.0013490703035289788,7.382078979070316e-05,0.011248779305073585
2013,17,249,0.00011139501693068538,0.00010961028617094457,-1.7847307597408137e-06,-0.0002772451928222036,0.001691622892394662,0.0019688680852168656,0.0007515047101249329,0.0,-0.0007515047101249329,0.0010902240018450975,0.010452205774160313
2013,18,249,0.0005997220680109019,0.0005967751266557094,-2.9469413551925627e-06,0.0011556927174569134,0.0009870235808193684,-0.000168669136637545,0.000994688807396134,0.0,-0.000994688807396134,0.0038282853675402056,0.024263189364035147
2013,19,249,0.00019937032713081884,0.0001945634215866377,-4.806905544181138e-06,-0.0002552969269005649,0.0007670222548767924,0.0010223191817773573,0.0008992388124652319,0.0,-0.0008992388124652319,0.0014731825406397278,0.013930712804356015
2013,20,249,0.0006497728941286014,0.0006436506766597428,-6.1222174688585745e-06,-0.001269323459590774,-0.0010954310419037938,0.0001738924176869802,0.0007529905016862506,0.0,-0.0007529905016862506,0.001943799327776975,0.02518757144743719
2013,21,249,0.0001818550190974805,0.0001789964668466695,-2.8585522508109776e-06,0.001712227472100392,0.000992268556728959,-0.0007199589153714329,0.0015750491559345535,0.0,-0.0015750491559345535,0.0007189098083527077,0.013376163195825456
2013,23,249,0.00046456146936321073,0.0004617181149435665,-2.8433544196442267e-06,0.0018107457587637577,-0.0007818423910066485,-0.002592588149770406,0.0016430377656317036,0.0,-0.0016430377656317036,0.0008837684888071009,0.021422974941417733
2013,24,249,0.00023052246961201747,0.00023109405264624134,5.715830342238647e-07,0.0024651072388253057,0.002911180456965623,0.0004460732181403174,0.00048151870061413274,0.00013754777533989763,-0.00034397092527423513,0.002200030338921788,0.015174815808411037
2013,25,249,0.0001734828932158744,0.000173725978424869,2.430852089945954e-07,0.0020133874801746814,0.002404716195927626,0.0003913287157529446,0.0012588100623117375,0.0001152164185542575,-0.00114359364375748,0.0015616268668187064,0.013156332776878072
2013,26,249,0.0002341727418021016,0.00023493302852227669,7.602867201750947e-07,0.0007217857223677348,9.796749509405345e-05,-0.0006238182272736814,0.0006085368195832479,0.0,-0.0006085368195832479,0.0012348811119181932,0.015285301958095443
2013,28,249,0.00016993691446561305,0.00016984122552811206,-9.568893750099266e-08,0.0003353770276209915,0.0002750735147856176,-6.0303512835373934e-05,0.0010317174173579728,0.0,-0.0010317174173579728,0.0009391830613113492,0.013015382592852402
2013,29,249,0.0006547025975475717,0.0006545413079196654,-1.612896279063348e-07,-0.0004005575604946259,-0.00021284393733367324,0.0001877136231609527,0.0006873466054642325,0.0,-0.0006873466054642325,-0.0013925846972707048,0.02555679008911346
2013,30,249,0.0001277423771574983,0.00012461479942841176,-3.127577729086534e-06,-0.0008501202881665354,0.00023329191867834385,0.0010834122068448793,0.00036165651154508745,8.217458141952448e-06,-0.000353439053403135,0.0011602846090910594,0.011125264757610439
2013,31,249,0.0003051818525055055,0.0002662998124249206,-3.888204008058491e-05,-0.005048053137150155,0.0011001983657479286,0.006148251502898084,0.0018939968542899415,0.0,-0.0018939968542899415,0.0009067873269616063,0.016317548976332086
2013,32,249,0.00019189971256317528,0.00019523446715255426,3.334754589378984e-06,0.0011830475128977653,-0.0007881595520302653,-0.001971207064928031,0.00022046123320632112,0.0,-0.00022046123320632112,0.0011393592415530123,0.013839043986234648
2013,33,249,0.0004610172881002966,0.00045770143611810086,-3.3158519821957218e-06,-0.0003853001777666161,0.00020939357636962086,0.0005946937541362369,0.001184597439130138,0.0,-0.001184597439130138,0.0017767029765737997,0.02133647059291045
2013,34,249,0.00019785901684316864,0.00020177117962323125,3.912162780062608e-06,0.0023881043475794503,0.000603465350759945,-0.0017846389968195053,0.0013935848908602092,3.663965210383577e-08,-0.0013935482512081054,0.00324601192443896,0.013956654697559533
2013,35,249,0.0003227447557632685,0.00032123122800824873,-1.5135277550197774e-06,0.0014613084607275136,0.0006123832426965237,-0.0008489252180309899,0.0009299351539814934,0.0,-0.0009299351539814934,0.0008145358207423991,0.017921784574741372
2013,36,249,0.00023564206091220035,0.00023235531065032679,-3.286750261873565e-06,-0.0008455230648737835,-0.0002848241711035371,0.0005606988937702464,0.0010786222269249573,0.0,-0.0010786222269249573,-0.00014114173295853627,0.015242528202607833
2013,38,249,0.00028864077641171324,0.00029613685414581496,7.4960777341017185e-06,0.0001073656491486423,-0.002028361428529024,-0.0021357270776776664,0.0010475505602473422,0.0,-0.0010475505602473422,0.0009029697033782443,0.016957126877538108
2013,39,249,0.00019341171198740135,0.00019378061593391076,3.689039465094087e-07,0.003942065442123088,-0.001428067907186068,-0.005370133349309155,0.0005847289798077817,4.306548853222015e-05,-0.0005416634912755616,0.0014447027764358338,0.013623285099915948
2013,41,249,0.00010117297368933985,9.932866437185643e-05,-1.8443093174834153e-06,-0.0012191978159798197,-0.0005510499468073249,0.0006681478691724948,0.00020841677481455006,0.0,-0.00020841677481455006,0.0004235217272510346,0.00991861252514581
2013,42,249,0.0004455378823468848,0.00045086179204713447,5.3239097002496486e-06,0.00010544627233516858,-0.000718327640063956,-0.0008237739123991245,0.001281095961444504,1.5276100970799416e-06,-0.001279568351347424,0.0015488749307333177,0.021112225768849524
2013,43,249,0.0002088338001865674,0.00020638600226164733,-2.4477979249200787e-06,0.0016169387652692068,0.0011800925540045861,-0.00043684621126462066,0.001862513723518951,0.00020469443224120632,-0.0016578192912777446,0.0006417801329528639,0.014350844999497658
2013,44,249,0.0001559073161163996,0.00015404750423691344,-1.859811879486163e-06,0.00026771929685445316,0.0014340487541630864,0.0011663294573086333,0.0004400720326095891,0.0,-0.0004400720326095891,0.0016652517005534071,0.012409433888558086
2013,45,249,0.0019083311883782113,0.0019526104140588849,4.427922568067352e-05,-0.003523713299428603,-0.0030164308845996857,0.0005072824148289173,0.0050464538945657195,0.0,-0.0050464538945657195,0.005220744954607217,0.04341381517734734
2013,47,249,0.00010285223400011725,0.00011290351197018474,1.0051277970067485e-05,0.0006817458534097097,-0.0024048027331869766,-0.0030865485865966863,0.0003499920161637689,2.817799087068186e-05,-0.0003218140252930871,0.0008543889999237903,0.010115218198769066
2013,48,249,9.582296952621504e-05,9.416498682450432e-05,-1.657982701710724e-06,0.0022478005493501104,0.0002128092288535208,-0.0020349913204965897,0.0007836714743738194,2.826851177574154e-06,-0.0007808446231962453,0.0011263094576115578,0.00966051335238124
2013,49,249,0.00041698473447775847,0.00041889614815979285,1.911413682034377e-06,0.0006582792249908408,-0.0002361231599934399,-0.0008944023849842808,0.00028236460751609804,0.0,-0.00028236460751609804,0.0014797321598968404,0.02039490104611926
2013,50,249,0.00015834990613491088,0.000158521570239131,1.7166410422011147e-07,0.0008620421016910469,0.0011218120343983173,0.00025976993270727044,0.0004118853149974924,0.0,-0.0004118853149974924,0.0011812210411902009,0.012590394783685016
2013,51,249,0.00024032865269460742,0.0002438372744327593,3.5086217381518692e-06,0.0011811049348379235,-0.00020375593596261488,-0.0013848608708005384,0.0007998056390220915,1.3163901688093778e-07,-0.0007996740000052106,0.002122069849259485,0.015441122074350699
2013,52,249,0.00015294572464791603,0.00015820793095060398,5.26220630268795e-06,0.00023709762893826607,-0.0013654219219461083,-0.0016025195508843743,0.00027677931347040334,0.0,-0.00027677931347040334,0.0012121618858205335,0.012311132874944654
2013,53,249,0.0003295454245652437,0.000328714379987354,-8.310445778896849e-07,0.001209181624962144,-0.0005784464883618057,-0.0017876281133239497,0.001234314372605361,0.0,-0.001234314372605361,0.0010306110906722482,0.018058939993662617
2013,54,249,0.00010177277014364978,0.00010244854785282542,6.757777091756398e-07,0.0005254210552656986,0.00038748630322515965,-0.00013793475204053893,0.0003363714726351602,5.272265123120959e-06,-0.00033109920751203925,0.0010324379829271153,0.010101284107203798
2013,55,249,0.00019344255962232688,0.00019257197656105874,-8.70583061268141e-07,0.000997135737334868,-0.00030523393070325255,-0.0013023696680381205,0.0005786491531868497,0.0,-0.0005786491531868497,7.664304427667633e-06,0.013873502486953704
2013,57,249,0.00023994588542012105,0.0002389111597774922,-1.0347256426288475e-06,0.0029852419912096964,0.002875366946682334,-0.00010987504452736243,0.0007849769625911077,0.0,-0.0007849769625911077,0.00017117569615969302,0.015218360932048133
2013,58,249,0.0003707608900041356,0.00037789357842408724,7.132688419951658e-06,0.0019987372505706714,-0.0006553211682345195,-0.002654058418805191,0.0009167114710007088,0.00019849367453395644,-0.0007182177964667523,0.0021468013172070534,0.019226079695300675
2013,59,249,0.0002394069232421533,0.00024544088608559897,6.033962843445667e-06,0.001574538468596447,-0.0006615827442146838,-0.0022361212128111305,0.0006087345710923363,0.0,-0.0006087345710923363,0.001837234705620268,0.015465988408052017
2013,60,249,0.00018566979711240195,0.00018502232891681448,-6.474681955874657e-07,0.0011279370381410822,0.0010705911554396152,-5.734588270146692e-05,0.0006288599173862826,0.0,-0.0006288599173862826,0.0017251587668175596,0.013586532676107958
2013,63,249,0.00015478305312546125,0.0001528144649960892,-1.968588129372059e-06,0.0002790018093274779,-0.0009093732039171111,-0.001188375013244589,0.001611907132087314,2.2765040322784784e-05,-0.0015891420917645293,0.0002894395346270684,0.01230280008083745
2013,64,249,0.0002951332068249664,0.0002958461920733383,7.129852483719174e-07,0.0017030455852787658,0.0013307817616915129,-0.00037226382358725293,0.0010017897659215882,2.5520719452557388e-05,-0.0009762690464690308,0.002123650263614429,0.017182875305689696
2013,65,249,0.0002402609610603041,0.00024437641784981365,4.1154567895095484e-06,-2.246034372762504e-05,-0.0003997327003162354,-0.00037727235658861037,0.000848309466565926,0.0,-0.000848309466565926,0.002579584953770888,0.015346011995494414
2013,66,249,0.00038542337162853895,0.0003884322522214559,3.0088805929169267e-06,0.0015464783552660041,-0.0014405727852135897,-0.002987051140479594,0.0018431448921635294,0.0,-0.0018431448921635294,0.0016954404047514048,0.019457586527979808
2013,67,249,0.0001346233931192489,0.000135611354175709,9.879610564600904e-07,0.0010354486275389492,0.0014868220314383507,0.0004513734038994015,0.00040679997585336633,0.0,-0.00040679997585336633,0.00018966768853016151,0.011572758737067998
2013,68,249,0.0007683984313308542,0.000757621997885842,-1.0776433445012189e-05,0.0038486264167301148,3.542013449527054e-05,-0.0038132062822348444,0.0027504275762659943,7.011077448833848e-07,-0.002749726468521111,0.0006050459993275667,0.027519080313028115
2013,69,249,0.0001238226350989089,0.00012576521266165008,1.9425775627411796e-06,0.00029301344899528,0.0031957332976162434,0.002902719848620963,0.0008069748133233445,0.0,-0.0008069748133233445,0.0013337603829694433,0.011058854801776341
2013,71,249,0.00024930800324537663,0.00023588479537690134,-1.3423207868475291e-05,-0.0027403621878250538,-0.0005278160097077489,0.002212546178117305,0.0017086720112547556,0.0,-0.0017086720112547556,0.001318634406445399,0.015247144527339832
2013,72,249,0.00046746847595669974,0.0004484570158559552,-1.9011460100744543e-05,0.004115426366827096,0.00011633906979113817,-0.003999087297035958,0.0014195926669296284,0.0,-0.0014195926669296284,0.00010553547504954564,0.021176800965639158
2013,73,249,0.0004054342392759935,0.0004009442479221247,-4.489991353868778e-06,0.0020586708672793515,-0.000248338736128062,-0.0023070096034074135,0.0019367069495196411,0.0,-0.0019367069495196411,0.002334488851281845,0.019856315105674545
2013,74,249,0.00024571539329939476,0.00024344084119235943,-2.2745521070353274e-06,0.0009348836173883164,0.0009399163172052926,5.032699816976153e-06,0.00046564629519907206,3.6973447477944964e-05,-0.0004286728477211271,0.0022402264919169556,0.015545807191263398
2013,76,249,8.252445802560983e-05,8.2015961135344e-05,-5.084968902658335e-07,0.0003379856546719869,-0.0003735101737370004,-0.0007114958284089873,0.000425301200793948,4.739688000192891e-05,-0.00037790432079201907,0.0002129926388947245,0.00903879408416866
2013,77,249,0.00019583717965155722,0.0001970431805226099,1.2060008710526756e-06,0.0014277036637479223,-0.0007577769574709237,-0.002185480621218846,0.0008851388998324661,0.0,-0.0008851388998324661,0.0003915684653076582,0.013990074539535076
2013,78,249,0.00034009123677513405,0.0003391475408919429,-9.436958831911257e-07,1.1668476953085168e-05,0.0014092667261138558,0.0013975982491607707,0.0009484288204554338,0.0,-0.0009484288204554338,0.0008804983474950481,0.01840836616578766
2013,79,249,0.00010765976656860675,0.0001067006964316345,-9.590701369722548e-07,-0.001473307370182022,-0.0017889359532051298,-0.00031562858302310775,0.0013228731337325262,0.00018189135946113607,-0.0011409817742713902,0.0008517382235914964,0.010002313201683573
2013,80,249,0.0014786076674223633,0.0014497059523833156,-2.8901715039047733e-05,-0.0015365936640036632,3.3520220313221216e-05,0.0015701138843168844,0.0029175939792483526,0.0,-0.0029175939792483526,0.003160822280877604,0.037946356006938346
2013,81,249,0.0002378180186696823,0.00023042308837673594,-7.39493029294636e-06,0.0021189972459073046,-0.0007955963956192136,-0.002914593641526518,0.001018203836712224,0.0,-0.001018203836712224,-0.000703908270665337,0.01517941638089153
2013,82,249,0.00036231173785740217,0.0003581966267311123,-4.1151111262898755e-06,0.0004975536696044317,-0.00019095040624961257,-0.0006885040758540442,0.0019866795822389926,0.0,-0.0019866795822389926,0.0009985672455761483,0.018888665238367346
2013,83,249,6.9311628209131e-05,6.51072233500601e-05,-4.204404859070899e-06,-0.0010559196924289547,-0.00033031971543096006,0.0007255999769979946,0.0019355698751495223,0.0,-0.0019355698751495223,-4.217097326513895e-06,0.008062312350220967
2013,84,249,6.708694372367173e-05,6.743870464754717e-05,3.517609238754335e-07,0.00016730225618823944,0.00040757752140052617,0.00024027526521228673,0.00033925077550185206,0.0,-0.00033925077550185206,-0.0006436578071922279,0.008144544734450511
2013,85,249,0.0007700665002048731,0.0007705988162267023,5.323160218291762e-07,-0.001632268043107776,-0.00024278713681269437,0.0013894809062950815,0.0013621455024308872,0.0,-0.0013621455024308872,-0.001280170707400504,0.027740271295612386
2013,86,249,8.266106745543413e-05,8.308636080803682e-05,4.252933526026906e-07,-0.0005654759824754723,0.0001962196547538042,0.0007616956372292765,0.0010799398191299228,0.0,-0.0010799398191299228,0.00039047618510600697,0.009113101843414911
2013,88,249,0.0005550783589677547,0.0005614199908591753,6.341631891420576e-06,4.963014259874582e-06,-0.001801329977664513,-0.0018062929919243876,0.0010375292399230542,9.022556813705328e-05,-0.000947303671786001,0.0023978237178790673,0.023326150404389723
2013,89,249,0.00010319614936210455,0.00010161475538073186,-1.5813939813726834e-06,-0.0007069638993845407,1.675963358138688e-05,0.0007237235329659276,0.0004378298703522083,0.0,-0.0004378298703522083,0.0008516603009669419,0.010045780022294485
2013,90,249,0.0002392311463750027,0.00023579240237332633,-3.4387440016763783e-06,0.002234500036182174,0.0004037772014271468,-0.0018307228347550272,0.0014837521275685537,0.0,-0.0014837521275685537,0.0010620991173163365,0.015341415013889234
2013,93,249,0.00039908273760582184,0.0003872388325072804,-1.1843905098541459e-05,-0.00034035972682347737,0.001907086349092424,0.0022474460759159013,0.0018394744621336742,0.0,-0.0018394744621336742,0.001971756252052851,0.019678278641967924
2013,94,249,0.00010116382392912399,9.947898890266554e-05,-1.6848350264584534e-06,-0.0005345840051949743,0.0007984820986166596,0.001333066103811634,0.0006380185316418035,0.0,-0.0006380185316418035,0.0004544596181101424,0.009967980609710858
2013,95,249,0.0001819247192135395,0.00017916830382519526,-2.7564153883442443e-06,-0.0014727936616264672,0.0010855951029470708,0.002558388764573538,0.0006916449030783772,9.937690709231506e-06,-0.0006817072123691457,0.0005263765047734258,0.01337447115972688
2013,97,249,0.00016288848686324598,0.00016623316761282865,3.344680749582668e-06,0.0011594746127186052,0.0028395522385835648,0.0016800776258649596,0.0012919116381302758,0.0,-0.0012919116381302758,0.001064280340613704,0.012770339748851915
2013,98,249,7.664572163891109e-05,7.758143733973614e-05,9.357157008250516e-07,-9.199697898334288e-06,0.0006020874227771169,0.0006112871206754511,0.0003966047057241405,2.763615390942285e-05,-0.0003689685518147176,-0.0005506348475827769,0.008733370051510692
2013,99,249,0.00034597811326054687,0.00034130767025996326,-4.670443000583612e-06,0.0003647117250894447,-0.0016633738996461034,-0.0020280856247355482,0.0009063156780536729,0.0,-0.0009063156780536729,-0.0018077101330691398,0.018473950235715273
2013,100,249,0.00035493954661783663,0.00035737702962788774,2.4374830100511082e-06,0.0005513766114730911,0.0001452467986382544,-0.00040612981283483674,0.0009718063314307139,0.0,-0.0009718063314307139,0.0011591388326983203,0.01887720987251974
2013,101,249,0.00014062684252197556,0.00013997225937654385,-6.545831454317071e-07,0.001763585999787572,0.0006124305489274811,-0.0011511554508600909,0.0011350104444051265,1.8096062311713574e-06,-0.0011332008381739552,0.0012138542241844083,0.011815747879293993
2013,102,249,0.004221457356072372,0.0042289566558233035,7.499299750931762e-06,-0.005867486632612336,-0.0038228203415361993,0.0020446662910761364,0.003078803616719146,1.8443044742266616e-05,-0.0030603605719768793,0.0018492522250057935,0.06478226832355505
2013,103,249,0.00016584045512701867,0.0001635161284768926,-2.3243266501260832e-06,0.002391900362289814,0.0017127281753346324,-0.0006791721869551814,0.0013298103231728854,0.0,-0.0013298103231728854,0.0006804195259638298,0.012745605804720565
2013,104,249,0.00010912548967714879,0.00011124364735026018,2.118157673111393e-06,2.189742094541649e-05,-0.0014378572814166546,-0.001459754702362071,0.00039918685834545666,0.0,-0.00039918685834545666,7.608497962369556e-05,0.010437989566027362
2013,105,249,0.00011277589442434675,0.00011306137669400392,2.8548226965716714e-07,0.000955519262686312,0.0010313719976693392,7.585273498302719e-05,0.0008444476724922367,0.0,-0.0008444476724922367,0.0010571157183833922,0.010633001173462159
2013,106,249,0.00026822491161185026,0.0002762309177048925,8.006006093042267e-06,0.0019143502037209201,-0.0009347496088594198,-0.0028490998125803397,0.0006620890511024968,0.0,-0.0006620890511024968,0.0018734381937286974,0.016381239237929703
2013,107,249,0.0001390235426224635,0.00013944705804587912,4.2351542341561026e-07,0.0010111293153291247,0.0013386303326115012,0.0003275010172823765,0.0007585748463009903,0.0,-0.0007585748463009903,1.5271453616193124e-05,0.011734384488470764
2013,108,249,0.00010691273004458434,0.00010351879836529036,-3.3939316792939755e-06,0.002491917939909012,0.0007564000552520156,-0.0017355178846569963,0.001199559548017585,0.0,-0.001199559548017585,0.0015376335730118602,0.010144381329387168
2013,109,249,0.00018858245839841354,0.00018836912424119443,-2.133341572191133e-07,0.000876710376137471,0.0012518273433670402,0.0003751169672295691,0.0003801413494370311,0.0,-0.0003801413494370311,0.00163419044869845,0.01371943594674634
2013,110,249,0.00018198860206560286,0.000180791227486833,-1.1973745787698662e-06,0.0014433711467976551,0.00034052986302413046,-0.0011028412837735247,0.000494358175517358,0.0,-0.000494358175517358,0.0006691143365128871,0.013441847333257994
2013,112,249,0.00017894493090389339,0.00018163448600610273,2.689555102209344e-06,0.0007914577173181327,0.001653437365695505,0.0008619796483773722,0.0004914601084784485,8.537738564387811e-05,-0.0004060827228345704,-0.00032629519091594066,0.013336913574930165
2013,113,249,0.0003296058923472747,0.00032955373571022224,-5.215663705245531e-08,-0.0005902968062813502,-0.0008656991412863135,-0.00027540233500496334,0.0004009739367482887,0.0,-0.0004009739367482887,0.0016576310609280908,0.017977389699308805
2013,114,249,0.00026347452696963273,0.0002628697071149357,-6.048198546970132e-07,0.0013890520007495421,-0.000984229613095522,-0.002373281613845064,0.00030620341431911066,0.0,-0.00030620341431911066,-1.2982229303058985e-05,0.016184139941140263
2013,115,249,0.00021096797402611148,0.00020661852736131918,-4.349446664792293e-06,-0.0010015320661197226,0.0007629322101283504,0.001764464276248073,0.0010342995447695966,1.1582899199514397e-07,-0.0010341837157776014,0.0008694638505505092,0.014373836324312383
2013,116,249,7.469268838425545e-05,7.588576513506576e-05,1.193076750810311e-06,-0.0005923014986945922,-0.0008989210473373532,-0.00030661954864276105,0.000611665437539815,0.0,-0.000611665437539815,0.0006772122395855934,0.008567471563823198
2013,117,249,0.0002117138539175597,0.00021244632040371656,7.324664861568645e-07,0.003681687989747189,-0.0006910957745276392,-0.004372783764274828,0.0005565390452772749,0.0,-0.0005565390452772749,0.0017060281076278197,0.014377069155336082
2013,118,249,8.994071676112747e-05,8.905319300377361e-05,-8.875237573538599e-07,0.0006693330814081981,-0.0011103309225291014,-0.0017796640039372995,0.0006887779248447586,0.0,-0.0006887779248447586,-0.000369958499992682,0.009407711819551077
2013,119,249,0.0003923536210314003,0.0003910199735796967,-1.3336474517035876e-06,0.0005683329061092622,0.001051001949235797,0.0004826690431265347,0.0005937853641657559,0.0,-0.0005937853641657559,0.001321061428787977,0.01977238077362461
2013,121,249,0.0012498916017596399,0.0012407571089520324,-9.13449280760749e-06,-0.0015732589061839513,0.002658034902978614,0.004231293809162566,0.001508247377277528,9.680479087719287e-05,-0.0014114425864003351,0.002017791471731108,0.035219358087791836
2013,122,249,0.0001149481009940899,0.00011493439726169719,-1.3703732392714076e-08,0.001119051143586875,0.001007409067824483,-0.00011164207576239214,0.00025030104717275954,0.0,-0.00025030104717275954,-7.194543387728981e-05,0.010666273534902113
2013,124,249,0.0002183979234967169,0.00021662928141549502,-1.7686420812218777e-06,0.0001057164975438252,0.0007865265943109989,0.0006808100967671737,0.0008447331918523126,0.0,-0.0008447331918523126,0.0014941718563817941,0.014701310132044811
2013,125,249,0.00044435774382936,0.00044464423967957215,2.864958502121306e-07,0.0001960687084968789,0.0006754942005500197,0.00047942549205314087,0.00039027437876215724,0.0,-0.00039027437876215724,0.0020697400523612187,0.021040444819068808
2013,126,249,0.0014421109288315984,0.001447760210234482,5.649281402883566e-06,-0.0037917869098215216,-0.005033752880990505,-0.0012419659711689836,0.0020422753147463914,0.0,-0.0020422753147463914,-0.0002510042748621843,0.03774765590079812
2013,127,249,0.0001376154479737229,0.0001389386231436499,1.3231751699269991e-06,2.640168590239253e-07,-0.0018089903129571412,-0.0018092543298161652,0.0015245966529123934,5.34483124055567e-06,-0.0015192518216718379,0.0002543189765041744,0.011605041740953925
2013,128,249,0.00046171844039020316,0.0004274194208478472,-3.4299019542355965e-05,-0.002328407946959078,0.0004444345540832728,0.002772842501042351,0.0031327939910443282,0.0,-0.0031327939910443282,0.003882009246642914,0.020386331231511977
2013,129,249,0.00024090321720246082,0.00024235482928983926,1.451612087378446e-06,0.0018158903472634204,-0.001164203160442412,-0.0029800935077058323,0.0003636743641072633,0.0,-0.0003636743641072633,0.0006751778851076612,0.015458703265769425
2013,130,249,0.00021189224721589048,0.00020984585300974366,-2.0463942061468246e-06,-0.0016980903544818542,0.0006918006693013012,0.0023898910237831555,0.0006019202075843191,0.0,-0.0006019202075843191,-0.00018074317170395176,0.014459755193476385
2013,131,249,0.00017444577795226133,0.00017582470262494175,1.3789246726804243e-06,0.0007698464255974475,-9.210247715447008e-05,-0.0008619489027519176,0.000469279486309769,8.540166073234456e-05,-0.00038387782557742443,0.0013052225806541578,0.0131905964421658
2013,132,249,0.0001801598387427706,0.0001796239704943545,-5.358682484161103e-07,0.0002620052770677819,0.0013018883054096058,0.0010398830283418238,0.0006377812658935606,0.0002968733970230692,-0.00034090786887049134,0.000970279309147616,0.013389932576255497
2013,133,249,0.00018573264842177944,0.00018683658927326504,1.1039408514856072e-06,7.68513325227791e-05,-0.0010044468799605966,-0.0010812982124833756,0.0008152132521463389,0.0,-0.0008152132521463389,0.0005309660409545505,0.013582308214569115
2013,134,249,0.00017878608469349696,0.00018031121593304106,1.5251312395441038e-06,0.0015587430432379007,-0.00032864284003153443,-0.0018873858832694351,0.0010435113364499237,0.0,-0.0010435113364499237,0.0015949883262379187,0.013289501836758137
2013,135,249,0.0001539626819480692,0.00015512219847192723,1.1595165238580346e-06,-0.0007671465177133859,-0.0007857612217776477,-1.8614704064261883e-05,0.000762663461288481,0.0,-0.000762663461288481,0.002157019721280889,0.012102158435299833
2013,136,249,0.0005719097342576648,0.0005763656774310106,4.455943173345845e-06,-0.0003848111586099169,0.0017647800268605351,0.002149591185470452,0.0005352332709238291,0.0,-0.0005352332709238291,-0.000978519625107881,0.023850366547508654
2013,137,249,0.0002079208842858074,0.00020986648055130474,1.9455962654973404e-06,0.00065138176771771,0.001953956438228488,0.001302574670510778,0.0003806366613279698,0.0,-0.0003806366613279698,0.0010616816806764938,0.014459264376459124
2013,138,249,0.000187497681801999,0.0001837957256176021,-3.7019561843969033e-06,-0.0012138593478135794,-0.0006535209539574552,0.0005603383938561242,0.0008662295042440191,9.456220380284611e-05,-0.000771667300441173,0.0016480653363331757,0.013358006452685227
2013,139,249,0.00016511092601434864,0.0001641666759281566,-9.442500861920266e-07,0.0005056247504121328,0.0008625416085124016,0.0003569168581002688,0.0027270461770707716,0.0,-0.0027270461770707716,0.0016261272976475555,0.012789980954774904
2013,140,186,0.00014403644992830344,0.0001414508765888272,-2.5855733394762267e-06,0.00029502682868511444,-1.1704119970090687e-05,-0.00030673094865520513,0.0007899457656158095,0.0,-0.0007899457656158095,0.00021579393590318764,0.011891136246103698
2013,141,249,0.00023901957190696318,0.0002399105872065637,8.910152996005236e-07,-0.0009160177056569172,-0.00025165604893118143,0.0006643616567257358,0.0009755293074144421,0.0,-0.0009755293074144421,-0.0002532381650612602,0.015489047249701068
2013,143,249,0.0001084695722255545,0.0001072598758977069,-1.2096963278476042e-06,0.00040467118612494337,0.0005506817833520472,0.00014601059722710384,0.0006320177993458541,0.0,-0.0006320177993458541,0.00021128658370506997,0.010351071770409255
2014,0,249,0.00013642760250248703,0.00013565210485208944,-7.754976503975941e-07,0.00037061481411198536,-4.5330263674259186e-05,-0.00041594507778624454,0.00040112447897252054,0.0,-0.00040112447897252054,-0.0004866920653587687,0.011638612658392897
2014,1,249,0.00033401452794939963,0.00033499924748155526,9.847195321556349e-07,0.0018336488360381987,0.0013278216356411576,-0.0005058272003970411,0.0003120514597812061,0.0,-0.0003120514597812061,0.0018876116196469023,0.01829442217331179
2014,2,249,0.003991411391939808,0.003984890254705556,-6.5211372342523916e-06,-0.0019810665623251214,-0.0038474209140986204,-0.001866354351773499,0.0024564445909410794,0.0,-0.0024564445909410794,-6.527338479211675e-05,0.0630125829876233
2014,3,249,0.0002076796120282278,0.00020581493733193968,-1.864674696288118e-06,0.00030716030622821255,4.448007530299947e-05,-0.0002626802309252131,0.0006268803199797959,0.0,-0.0006268803199797959,-8.170465309329112e-05,0.014345696732688134
2014,4,249,4.363695765144174e-05,4.07813136247456e-05,-2.8556440266961413e-06,-0.0014515552318179943,-0.000503002607729286,0.0009485526240887083,0.00017088729500109594,0.0,-0.00017088729500109594,0.0005011328973464734,0.006306585883993955
2014,5,249,0.0002220176301549809,0.00022085893815356318,-1.1586920014177208e-06,0.0006308664893170437,0.0003474991535767913,-0.0002833673357402524,0.0009982856564841594,0.0,-0.0009982856564841594,0.00046453713000607085,0.014860862702603655
2014,6,249,0.0005479003058509618,0.0005513526298713298,3.452324020367971e-06,0.00027159738343164147,0.00012118929589632899,-0.00015040808753531248,0.0011401518979357434,0.0,-0.0011401518979357434,0.0021983323264835697,0.023388845775322315
2014,7,200,0.00012332314773965823,0.00012300298014890183,-3.201675907564007e-07,-0.0002018173784017563,0.00012611201964318752,0.0003279293980449438,0.0009040007849643124,0.0,-0.0009040007849643124,0.00015597105156849977,0.011090630666788717
2014,8,249,0.0004967992644604105,0.00047643426031782754,-2.0365004142582977e-05,0.003914025982460344,0.00036245345836505294,-0.003551572524095291,0.00046688600011262965,0.0,-0.00046688600011262965,-0.0007583949975862127,0.021798576996139428
2014,9,249,0.00017490970221872745,0.00016915831640934865,-5.751385809378795e-06,-0.0002222403240610797,0.00114818022120744,0.0013704205452685196,0.0028140003840028092,0.0,-0.0028140003840028092,0.0004370130181034094,0.012986629956173295
2014,10,249,0.000329781266835014,0.0003248699882914955,-4.9112785435185126e-06,0.002235856169019358,0.0011674138950183988,-0.0010684422740009593,0.000732069073533156,0.0,-0.000732069073533156,0.00026817237503529157,0.01800170416877897
2014,12,249,0.00023317973285614325,0.00023114846753103424,-2.031265325109019e-06,0.0010309710679762814,0.001200712169520557,0.00016974110154427554,0.0011643099198517316,0.0,-0.0011643099198517316,0.00011536975068355942,0.01516477824977692
2014,13,249,0.00011438421086911015,0.00011556859868184739,1.18438781273724e-06,0.001041987880944727,0.001931874779984355,0.000889886899039628,0.0004551832533866298,0.0,-0.0004551832533866298,0.00048624795172095517,0.01065264106948377
2014,14,249,0.00019692937273689225,0.0001976577881575359,7.284154206436554e-07,-0.0003070516743693486,-0.0005592248635366559,-0.0002521731891673073,0.00039660967371485953,0.0,-0.00039660967371485953,-0.0001408651876591442,0.014052856056301697
2014,15,249,4.5741202390650756e-05,4.679953594600483e-05,1.0583335553540754e-06,6.92131745827246e-05,0.0010355637641623616,0.000966350589579637,0.000726742302121071,0.0,-0.000726742302121071,-0.000142086424557729,0.006738892785837468
2014,16,249,7.191892432316132e-05,7.144936663429022e-05,-4.6955768887110177e-07,6.253579743655331e-05,0.0012385761365294456,0.0011760403390928924,0.0009563035619612813,0.0,-0.0009563035619612813,0.0004365842752825043,0.008414640556125019
2014,17,249,0.00015008669202046658,0.00014729496902821343,-2.7917229922531505e-06,0.0021294674361087233,0.001868736231699586,-0.00026073120440913734,0.0004982733451004458,0.0,-0.0004982733451004458,-0.00045727284150499204,0.011911534360424908
2014,18,249,0.0005229356035999644,0.00049278208977648,-3.0153513823484406e-05,0.005416142249322799,5.747330578742549e-05,-0.0053586689435353736,0.001251749716618383,0.0,-0.001251749716618383,-0.00031278471230021624,0.022195607646030367
2014,19,249,0.00015701889575077966,0.00015515166226542752,-1.8672334853521335e-06,0.0017019655203903057,1.890462590381503e-05,-0.0016830608944864906,0.00039218775781688976,0.0,-0.00039218775781688976,-0.00015947865079617,0.012454711625405915
2014,20,249,0.0006355115879153458,0.0006342126893144757,-1.2988986008700921e-06,0.0036220336155255274,-0.0021966120693832636,-0.005818645684908791,0.0016297176342601105,0.0,-0.0016297176342601105,0.0005239020087071753,0.025036203635243656
2014,21,249,0.00023436498900520863,0.00023665503263670888,2.290043631500248e-06,-0.00030849582280021115,0.0021708214189857244,0.0024793172417859354,0.0004330474032029841,0.0,-0.0004330474032029841,0.00018126077453133166,0.015254398745238922
2014,23,249,0.00047724906663250665,0.0004706981738897905,-6.550892742716147e-06,0.0027087651357712993,0.0024099200963974,-0.0002988450393738994,0.0014870182195312468,0.0,-0.0014870182195312468,0.0010705414026720406,0.021654196789642997
2014,24,249,0.00031304955731408125,0.00031247369890748914,-5.758584065921192e-07,0.0013452877989973888,0.0008228641818277538,-0.000522423617169635,0.0007304148850065676,0.0,-0.0007304148850065676,0.0002537482719936546,0.017667761770769452
2014,25,249,0.00018211790025709037,0.0001833587790348215,1.2408787777311206e-06,-0.0005481333498016419,-0.0014302944764494896,-0.0008821611266478477,0.001441045950153596,0.0,-0.001441045950153596,-0.0002078694209630346,0.013485713033375006
2014,26,249,0.00022939579092809209,0.0002232709106697699,-6.124880258322191e-06,0.0024328309085115372,0.0002234874409623444,-0.002209343467549193,0.0005206921502963472,0.0,-0.0005206921502963472,-0.00015691340763056736,0.014937409610242309
2014,27,249,0.00015754743020062926,0.0001593606184970133,1.8131882963840504e-06,-0.00046694176982205556,0.0015962872421368957,0.0020632290119589514,0.0025355638787010228,0.0,-0.0025355638787010228,0.0005853886270318643,0.012583270738841787
2014,28,249,0.0006126062215959318,0.000558100082120239,-5.4506139475692886e-05,-0.00526751820222441,0.0015505411429330707,0.00681805934515748,0.0029667286012203557,0.0,-0.0029667286012203557,0.0023715921070960925,0.023609869915662086
2014,29,249,0.0004960856605827107,0.000507599080854931,1.1513420272220342e-05,-0.0004255428207088187,-0.0018535160925239325,-0.0014279732718151137,0.0011413933539076793,0.0,-0.0011413933539076793,0.0008286373541484339,0.02236973700657731
2014,30,249,0.00011294248968821096,0.0001131630711609106,2.205814726996422e-07,0.0006649851327739566,0.0016244377475231886,0.000959452614749232,0.0006367294920781314,0.0,-0.0006367294920781314,0.0009613123039130698,0.010617124648743051
2014,31,249,0.00019825654269879306,0.00019841769995201808,1.6115725322502286e-07,0.0009796261697648519,-1.973835242097266e-05,-0.0009993645221858245,0.0007838360413835503,0.0,-0.0007838360413835503,0.00012310151529881753,0.01408535752915799
2014,32,249,0.00016465839897757494,0.00016363277789849208,-1.0256210790828685e-06,0.0015705066273011357,0.002050085924565792,0.0004795792972646564,0.0015961514896265557,0.0,-0.0015961514896265557,6.59820313031271e-05,0.012637092610218227
2014,33,249,0.0002133365798768022,0.00021993939739709155,6.602817520289341e-06,0.001245935078164241,-0.0008287244127131999,-0.0020746594908774407,0.001226239581587878,0.0,-0.001226239581587878,0.0014180990506857814,0.014659167156472808
2014,34,249,0.0003047535068309517,0.0003000955049121461,-4.658001918805604e-06,0.0037457154667281723,0.0020435925107449293,-0.001702122955983243,0.0005538063542683795,0.0,-0.0005538063542683795,0.0013652571057617222,0.017309978798094813
2014,35,249,0.0001400053144578818,0.00013894156578605924,-1.0637486718225754e-06,0.0016556674666912202,0.0013558091595768929,-0.0002998583071143273,0.0005144148478563048,0.0,-0.0005144148478563048,-2.9386249125882405e-05,0.011705673815110685
2014,36,249,0.00016397232326023346,0.00016099071673285356,-2.981606527379906e-06,0.0006312943965076921,-0.0011503439163789153,-0.0017816383128866076,0.0009210058950863425,0.0,-0.0009210058950863425,-0.0006119532798949292,0.0126767839870923
2014,37,249,0.0006145646508048264,0.0005540659906444655,-6.049866016036092e-05,0.009496876648271898,0.00027294966275803745,-0.00922392698551386,0.0022084068755452023,0.0,-0.0022084068755452023,0.002398989173615851,0.023442396350261147
2014,38,249,0.0001570807994165597,0.000160473554491749,3.392755075189288e-06,0.0018854718056907616,0.002590273739770055,0.0007048019340792932,0.0002586271925688669,0.0,-0.0002586271925688669,-0.00042195795364122603,0.012304471330250527
2014,39,249,0.00020248965801956845,0.00019592499346785368,-6.564664551714764e-06,0.0027867115914342873,0.000504912284668535,-0.0022817993067657523,0.0005830627769399097,0.0,-0.0005830627769399097,0.00021761499200931257,0.01399437221648346
2014,41,249,0.00010070053138277018,0.00010080952607849398,1.0899469572379819e-07,0.0003809688769909273,0.0007041657227091491,0.00032319684571822184,0.00039509752116173363,0.0,-0.00039509752116173363,0.0007063562014329608,0.010040394478320903
2014,42,249,0.0002631434566157723,0.0002624478455968214,-6.956110189508687e-07,0.0027127941419561223,0.002564295195043087,-0.00014849894691303534,0.00148625964803631,0.0,-0.00148625964803631,-0.0002803826601614398,0.015948531389972247
2014,43,249,0.000214899690684317,0.00021472833617127462,-1.7135451304238491e-07,0.000682302417764702,0.0004988528089597821,-0.00018344960880491991,0.0004818373188778398,0.0,-0.0004818373188778398,0.0012429604326624133,0.01463470669387064
2014,44,249,0.0001788081727953453,0.00018497641044206578,6.168237646720471e-06,0.0016640384071861885,-0.0016584583790972829,-0.0033224967862834714,0.0004125373126952547,0.0,-0.0004125373126952547,0.0008849213622953456,0.013360674755907326
2014,45,249,0.00064882100416564,0.0006706918149094703,2.1870810743830258e-05,0.0018612928987746258,-0.002930344780907035,-0.00479163767968166,0.0007279084742023495,0.0,-0.0007279084742023495,0.0014497553894917143,0.02552462609729559
2014,47,249,0.00010169898612371888,0.0001018125529127338,1.1356678901490924e-07,0.0005648862720134268,0.00045088512706570327,-0.0001140011449477235,0.0004299636196311114,0.0,-0.0004299636196311114,0.0010467270870784919,0.010072612633841429
2014,48,249,0.00024061155068902872,0.0002447599610728282,4.148410383799468e-06,0.0006403384737700343,-0.0003032223612535745,-0.0009435608350236088,0.0010640703243737554,0.0,-0.0010640703243737554,0.0011373227676691566,0.015578343647652825
2014,49,249,0.0001745958338687614,0.00017469872952701428,1.0289565825286604e-07,0.0015757599449061964,0.0014994976809248328,-7.626226398136358e-05,0.0002764588201863313,0.0,-0.0002764588201863313,0.00023385181170558874,0.013156628369789208
2014,50,249,0.00011604036188653161,0.00011832626468921987,2.285902802688262e-06,0.0005075664850453057,-0.0007291819201782346,-0.0012367484052235402,0.0002822192729166784,0.0,-0.0002822192729166784,0.0008969219781837487,0.010755559065011536
2014,51,249,0.00021940168635799687,0.00021229455010037538,-7.10713625762149e-06,0.0027972476474611633,0.00036466834717430174,-0.0024325793002868616,0.000748307447332123,0.0,-0.000748307447332123,5.4806883306501405e-05,0.014567035936441734
2014,52,249,9.905367989529122e-05,0.0001005835907589177,1.5299108636264864e-06,0.0018698329397712845,0.00040028401417657733,-0.0014695489255947072,0.00043311949486517226,0.0,-0.00043311949486517226,0.00143878855753671,0.009975224261756628
2014,53,249,0.00040208803738542195,0.0003937996047256684,-8.288432659753577e-06,0.0012249035094995576,0.00013221085828263313,-0.0010926926512169245,0.0010821279305729449,0.0,-0.0010821279305729449,-0.0007526795451220467,0.019824645613468875
2014,54,249,0.00010413485056770555,0.0001032233923313731,-9.114582363324428e-07,0.0012870399322525326,4.2116400436498225e-05,-0.0012449235318160343,0.0004344311549492962,0.0,-0.0004344311549492962,0.0002026108513022625,0.010158623620481979
