bmulder03/bachelors-thesis/results/robustness_summary/ALL_robust_metrics_by_year.csv
feature_block,test_year,n_common,mse_joint,mse_sep,delta_mse,mae_joint,mae_sep,delta_mae,mse_trim_joint,mse_trim_sep,delta_mse_trim,trim_q
F1,2011,29537,0.0005767399692546067,0.000580454498281002,-3.7145290263952127e-06,0.015528317164154152,0.015611922275364917,-8.360511121076504e-05,0.0004213939303644506,0.00042492777128523443,-3.533840920783807e-06,0.01
F1,2012,30083,0.0003461334679706937,0.00034728641134068263,-1.1529433699889293e-06,0.012183432331396784,0.012173281737020723,1.0150594376060959e-05,0.0002550465568269131,0.0002547382059179132,3.0835090899990767e-07,0.01
F1,2013,30564,0.00032254628826580613,0.0003223509617724948,1.9532649331131672e-07,0.011348679735411565,0.011326159194634196,2.2520540777368897e-05,0.00021278533361966995,0.00021192623987954096,8.590937401289943e-07,0.01
F1,2014,31997,0.0005190058792541892,0.0005193821907549095,-3.7631150072024895e-07,0.01158860052630094,0.01160323967870893,-1.463915240799106e-05,0.00021497555632819812,0.00021531027414354329,-3.3471781534516877e-07,0.01
F1,2015,31877,0.0005073348199462849,0.0005082523313584826,-9.175114121976564e-07,0.012855681810313846,0.0128580057397494,-2.323929435553082e-06,0.0002671329871168961,0.0002681521319293272,-1.0191448124310877e-06,0.01
F1,2016,32653,0.0003859805299900954,0.00038635214939267295,-3.716194025775552e-07,0.012535280083652164,0.012549628437456717,-1.434835380455246e-05,0.00026260482556807283,0.00026305814715593705,-4.533215878642252e-07,0.01
F1,2017,32204,0.0002776854229726467,0.00027766454196053705,2.0881012109663904e-08,0.010141930916427514,0.010129842280481879,1.208863594563507e-05,0.00017074947288236487,0.0001701339026109139,6.155702714509721e-07,0.01
F1,2018,32411,0.00042705502156941045,0.0004280973762638095,-1.0423546943990497e-06,0.013162955876232164,0.013171401548841099,-8.445672608934848e-06,0.00028838902525862663,0.00028936474222064385,-9.757169620172178e-07,0.01
F1,2019,32037,0.0004421485366316059,0.0004469608650458216,-4.81232841421567e-06,0.012479342591805744,0.012532791827443802,-5.344923563805823e-05,0.00025723615615252216,0.0002593586628273346,-2.1225066748124214e-06,0.01
F1,2020,31996,0.0007719250524118328,0.0007732051228594187,-1.2800704475859036e-06,0.0175142763634005,0.01751583173973825,-1.5553763377494645e-06,0.0005305125046273222,0.0005318226915858925,-1.3101869585703963e-06,0.01
F1,2021,32004,0.00033952825055618514,0.0003382514997813707,1.276750774814421e-06,0.012388569369641864,0.012323006568309664,6.556280133220016e-05,0.00024490750643590785,0.00024332357951269525,1.5839269232125982e-06,0.01
F1,2022,31704,0.0005889743838271388,0.0005901176284149616,-1.143244587822759e-06,0.01638172840246785,0.016407161383805553,-2.5432981337704386e-05,0.0004301470156638709,0.0004310237253198175,-8.767096559466063e-07,0.01
F1,2023,30704,0.0005139578838263718,0.000513922661625508,3.52222008638374e-08,0.013474124088687645,0.013479559861112779,-5.435772425134086e-06,0.00030157028119925824,0.0003019681995060616,-3.979183068033372e-07,0.01
F1,2024,29666,0.0012135964224445613,0.0012111845757665038,2.411846678057432e-06,0.013955031266091865,0.013945386625124232,9.644640967632762e-06,0.00032197474615668135,0.00032162068073843914,3.54065418242211e-07,0.01
F1,2025,19228,0.0007045627471434525,0.0007042619385619811,3.0080858147137155e-07,0.014919224349533047,0.014926372496491303,-7.1481469582565516e-06,0.00038476065517322746,0.0003857213609601028,-9.607057868753319e-07,0.01
F2,2011,29264,0.0005749372719725231,0.0005799685083132672,-5.0312363407440264e-06,0.015568891823954557,0.015606742143087058,-3.785031913250067e-05,0.00042089081688826666,0.000423828907035945,-2.9380901476783487e-06,0.01
F2,2012,29833,0.00034180343678720515,0.00034290687139083815,-1.103434603632995e-06,0.012102814321982076,0.012123083785702553,-2.026946372047679e-05,0.0002510375903306279,0.0002516706198761758,-6.330295455479122e-07,0.01
F2,2013,30564,0.00032266998486287266,0.00032584884626444063,-3.1788614015679706e-06,0.011361811211151122,0.011414565246690076,-5.2754035538954067e-05,0.000212848125695674,0.00021446935080130726,-1.621225105633261e-06,0.01
F2,2014,31997,0.0005205805227090676,0.000530105274559084,-9.524751850016394e-06,0.01158092616910843,0.011736197761072112,-0.00015527159196368143,0.00021466172103566582,0.00021924899345743672,-4.587272421770894e-06,0.01
F2,2015,31626,0.000507610943795519,0.0005171953202065078,-9.58437641098884e-06,0.012856975906479608,0.012972300014146664,-0.00011532410766705581,0.0002671495133749152,0.0002731302191835411,-5.980705808625894e-06,0.01
F2,2016,32399,0.00038741481968860593,0.0003891365260529136,-1.7217063643076413e-06,0.01254043081222496,0.012593973499307926,-5.354268708296708e-05,0.00026320096017562694,0.0002648560815524396,-1.6551213768126638e-06,0.01
F2,2017,32204,0.0002780093214908371,0.0002806804722601258,-2.671150769288698e-06,0.01014435721988187,0.010204223444260568,-5.9866224378698346e-05,0.00017058706243637558,0.00017317476487739938,-2.5877024410237987e-06,0.01
F2,2018,32162,0.00042764702429790464,0.0004277520540056898,-1.0502970778514123e-07,0.013173116826778615,0.013179940386541876,-6.823559763261336e-06,0.0002887869265204174,0.0002893799834521687,-5.930569317513183e-07,0.01
F2,2019,32037,0.00044206589293077257,0.00044662510716631627,-4.5592142355437015e-06,0.012471670989806618,0.012549665684958694,-7.799469515207616e-05,0.0002569589128184936,0.0002602106060775061,-3.251693259012493e-06,0.01
F2,2020,31996,0.0007720940377133184,0.0007779511554693985,-5.857117756080015e-06,0.0175110743810088,0.017595739236367616,-8.466485535881668e-05,0.0005305768410896165,0.0005346138760683044,-4.037034978687836e-06,0.01
F2,2021,32004,0.00033882717848136737,0.0003412760928106286,-2.4489143292612302e-06,0.012358861288620585,0.0124074392184388,-4.857792981821478e-05,0.00024425907865584283,0.0002462676963950601,-2.008617739217267e-06,0.01
F2,2022,31704,0.0005891722979116566,0.0005920482019496092,-2.8759040379526275e-06,0.016406614589239244,0.016456622837091765,-5.000824785252045e-05,0.000430379438793678,0.0004334277366520177,-3.0482978583397337e-06,0.01
F2,2023,30704,0.0005135894145581054,0.000518740871416184,-5.151456858078609e-06,0.013470666510653553,0.013556409066410143,-8.574255575658982e-05,0.00030161375718021897,0.0003042612898439943,-2.6475326637753283e-06,0.01
F2,2024,29666,0.0012139220330019478,0.0012304784752553205,-1.655644225337263e-05,0.01397446087100501,0.0141522346009318,-0.00017777372992679,0.0003228531625537672,0.00033450918463770284,-1.1656022083935617e-05,0.01
F2,2025,19228,0.000703678705555297,0.000719704893497676,-1.602618794237893e-05,0.014907288527634156,0.015074797304050194,-0.0001675087764160376,0.00038479540878862915,0.00039238405710752305,-7.5886483188939e-06,0.01
F3,2011,29264,0.0005745950857171656,0.0005794153233947857,-4.820237677620096e-06,0.015467626198654747,0.015600745254573287,-0.00013311905591853988,0.0004183497505555764,0.0004234678982143667,-5.1181476587903335e-06,0.01
F3,2012,29833,0.0003418578652337271,0.0003444891402837034,-2.6312750499762937e-06,0.012129115307273116,0.012184569015957436,-5.545370868432001e-05,0.00025167610501073724,0.000253856100318402,-2.179995307664785e-06,0.01
F3,2013,30564,0.0003233253356546322,0.0003239440799651253,-6.187443104930948e-07,0.011355748028005026,0.011421756023020832,-6.600799501580573e-05,0.00021279924330308523,0.0002139740877243313,-1.1748444212460608e-06,0.01
F3,2014,31923,0.0005200646977895385,0.0005216414041732176,-1.5767063836790753e-06,0.011582512733271794,0.011687783992325436,-0.00010527125905364192,0.00021467911770607008,0.00021748039059712586,-2.8012728910557837e-06,0.01
F3,2015,31626,0.0005087823594144168,0.0005118593879930292,-3.0770285786124426e-06,0.012846148397360096,0.012939552266998585,-9.340386963848854e-05,0.00026687750608682517,0.0002712901167743714,-4.412610687546238e-06,0.01
F3,2016,32399,0.0003866708116056695,0.0003894289797595245,-2.7581681538549926e-06,0.012514047078518163,0.01262603791597949,-0.00011199083746132703,0.00026258059073966194,0.0002656724469723708,-3.0918562327088544e-06,0.01
F3,2017,32204,0.00027849800877354126,0.0002805926899564199,-2.0946811828786147e-06,0.010172665783114758,0.0102164854032652,-4.381962015044191e-05,0.00017101645783141074,0.00017260108899414824,-1.5846311627375025e-06,0.01
F3,2018,32112,0.0004248013279081025,0.0004266495668124593,-1.8482389043567873e-06,0.013157257873105834,0.013204949738201062,-4.7691865095227104e-05,0.00028766746751404215,0.00028965583909562137,-1.988371581579222e-06,0.01
F3,2019,31904,0.00043675956913218555,0.0004423069110853025,-5.547341953116925e-06,0.012408106458979938,0.012508446683359008,-0.00010034022437906999,0.0002541045918180081,0.000257007868152995,-2.9032763349868575e-06,0.01
F3,2020,31883,0.0007705141861968883,0.000773150908348841,-2.636722151952691e-06,0.017501445546590267,0.01754296432876461,-4.151878217434346e-05,0.0005283734535377855,0.0005309456479936507,-2.572194455865203e-06,0.01
F3,2021,31857,0.00033834800289599045,0.00034030414251184503,-1.9561396158545826e-06,0.012340409807237414,0.012385454720433661,-4.504491319624708e-05,0.00024388902325023364,0.0002452433463228957,-1.3543230726620348e-06,0.01
F3,2022,31459,0.0005886698387103339,0.0005919178796504598,-3.2480409401258216e-06,0.01637850917744608,0.016423111731409434,-4.460255396335211e-05,0.0004295217031434491,0.00043243507597929664,-2.91337283584754e-06,0.01
F3,2023,30540,0.0005135265505690254,0.0005172166337836151,-3.6900832145897195e-06,0.013454600018638936,0.013507446394622273,-5.284637598333697e-05,0.0003011576467610915,0.00030311004759784335,-1.952400836751863e-06,0.01
F3,2024,29587,0.001209323944480922,0.0012094900285672045,-1.6608408628243643e-07,0.01391284177630145,0.013938017155186912,-2.5175378885461744e-05,0.000318398471118065,0.000319517222119762,-1.118751001697013e-06,0.01
F3,2025,19084,0.0006959827370932283,0.0007049725268758737,-8.989789782645361e-06,0.014840707296027366,0.014945976913225361,-0.00010526961719799569,0.00037944774103901123,0.00038416017247983725,-4.712431440826023e-06,0.01
